;FLAVOR:Marlin
;TIME:6277
;Filament used: 4.63946m
;Layer height: 0.2625
;MINX:21.998
;MINY:28.47
;MINZ:0.263
;MAXX:98
;MAXY:91.453
;MAXZ:40.976
;Generated with Cura_SteamEngine 4.2.1
M140 S65
M105
M190 S65
M104 S190
M105
M109 S190
M82 ;absolute extrusion mode
G21;(metric values)
G90;(absolute positioning)
M82;(set extruder to absolute mode)
M107;(start with the fan off)
G28;(Home the printer)
G92 E0;(Reset the extruder to 0)
G0 Z5 E5 F500;(Move up and prime the nozzle)
G0 X-1 Z0;(Move outside the printable area)
G1 Y60 E8 F500;(Draw a priming/wiping line to the rear)
G1 X-1;(Move a little closer to the print area)
G1 Y10 E16 F500;(draw more priming/wiping)
G1 E15 F250;(Small retract)
G92 E0;(Zero the extruder)
M141 S28
G92 E0
G92 E0
G1 F2400 E-2.5
;LAYER_COUNT:155
;LAYER:0
M107
G0 F4320 X44.672 Y32.194 Z0.263
;TYPE:SKIRT
G1 F2400 E0
G1 F1080 X45.068 Y31.696 E0.02435
G1 X45.524 Y31.251 E0.04873
G1 X46.032 Y30.867 E0.0731
G1 X46.584 Y30.549 E0.09748
G1 X47.172 Y30.304 E0.12186
G1 X47.669 Y30.159 E0.14167
G1 X51.507 Y29.255 E0.29257
G1 X52.002 Y29.164 E0.31183
G1 X55.852 Y28.652 E0.46047
G1 X56.343 Y28.611 E0.47933
G1 X60.351 Y28.47 E0.63281
G1 X60.819 Y28.475 E0.65072
G1 X64.553 Y28.689 E0.79385
G1 X65.005 Y28.736 E0.81125
G1 X68.355 Y29.231 E0.94084
G1 X68.786 Y29.313 E0.95763
G1 X72.082 Y30.096 E1.08728
G1 X72.126 Y30.107 E1.08902
G1 X72.385 Y30.171 E1.09923
G1 X72.993 Y30.362 E1.12361
G1 X73.572 Y30.628 E1.148
G1 X74.113 Y30.965 E1.17239
G1 X74.607 Y31.366 E1.19674
G1 X75.047 Y31.826 E1.2211
G1 X75.427 Y32.338 E1.2455
G1 X75.739 Y32.893 E1.26987
G1 X75.979 Y33.483 E1.29425
G1 X76.143 Y34.098 E1.3186
G1 X76.23 Y34.729 E1.34298
G1 X76.236 Y35.366 E1.36736
G1 X76.163 Y35.998 E1.39171
G1 X76.07 Y36.413 E1.40798
G1 X75.435 Y38.78 E1.50177
G1 X75.424 Y38.819 E1.50332
G1 X75.406 Y38.884 E1.5059
G1 X75.198 Y39.486 E1.53028
G1 X74.916 Y40.057 E1.55465
G1 X74.565 Y40.589 E1.57904
G1 X74.15 Y41.072 E1.60341
G1 X73.678 Y41.499 E1.62777
G1 X73.156 Y41.864 E1.65215
G1 X72.592 Y42.161 E1.67654
G1 X71.996 Y42.384 E1.70089
G1 X71.376 Y42.531 E1.72528
G1 X70.743 Y42.6 E1.74965
G1 X70.106 Y42.588 E1.77403
G1 X69.31 Y42.46 E1.80488
G1 X67.772 Y42.084 E1.86548
G1 X65.854 Y41.643 E1.94079
G1 X65.372 Y41.571 E1.95944
G1 X63.067 Y41.27 E2.04841
G1 X62.296 Y41.214 E2.07799
G1 X61.23 Y41.172 E2.11882
G1 X59.844 Y41.125 E2.17189
G1 X57.983 Y41.21 E2.24318
G1 X57.454 Y41.243 E2.26347
G1 X56.374 Y41.321 E2.30491
G1 X55.996 Y41.367 E2.31948
G1 X54.666 Y41.563 E2.37093
G1 X53.787 Y41.71 E2.40504
G1 X50.696 Y42.457 E2.52673
G1 X50.068 Y42.567 E2.55113
G1 X49.432 Y42.599 E2.5755
G1 X48.797 Y42.55 E2.59988
G1 X48.173 Y42.422 E2.62425
G1 X47.57 Y42.217 E2.64863
G1 X46.998 Y41.938 E2.67298
G1 X46.465 Y41.589 E2.69737
G1 X45.98 Y41.177 E2.72172
G1 X45.55 Y40.707 E2.7461
G1 X45.182 Y40.186 E2.77051
G1 X44.883 Y39.624 E2.79487
G1 X44.611 Y38.876 E2.82533
G1 X43.941 Y36.451 E2.92161
G1 X43.811 Y35.827 E2.94601
G1 X43.759 Y35.192 E2.97039
G1 X43.787 Y34.556 E2.99475
G1 X43.895 Y33.929 E3.0191
G1 X44.08 Y33.319 E3.0435
G1 X44.318 Y32.79 E3.06569
G0 F972 X44.341 Y32.738
G0 X44.672 Y32.194
G0 F4320 X45.047 Y32.272
G1 F2400 E3.09225
G1 F1080 X45.446 Y31.804 E3.11579
G1 X45.902 Y31.393 E3.13928
G1 X46.408 Y31.044 E3.16281
G1 X46.955 Y30.763 E3.18634
G1 X47.75 Y30.5 E3.21839
G1 X51.588 Y29.596 E3.36929
G1 X52.048 Y29.511 E3.38719
G1 X55.898 Y28.999 E3.53583
G1 X56.355 Y28.961 E3.55338
G1 X60.363 Y28.82 E3.70686
G1 X60.799 Y28.825 E3.72354
G1 X64.533 Y29.039 E3.86668
G1 X64.954 Y29.082 E3.88287
G1 X68.304 Y29.577 E4.01247
G1 X68.705 Y29.654 E4.0281
G1 X72.001 Y30.437 E4.15774
G1 X72.042 Y30.447 E4.15936
G1 X72.301 Y30.511 E4.16957
G1 X72.887 Y30.697 E4.1931
G1 X73.444 Y30.957 E4.21662
G1 X73.962 Y31.288 E4.24015
G1 X74.433 Y31.682 E4.26365
G1 X74.848 Y32.135 E4.28716
G1 X75.202 Y32.638 E4.3107
G1 X75.487 Y33.182 E4.3342
G1 X75.699 Y33.759 E4.35773
G1 X75.835 Y34.358 E4.38123
G1 X75.891 Y34.97 E4.40475
G1 X75.868 Y35.584 E4.42827
G1 X75.732 Y36.322 E4.45699
G1 X75.097 Y38.689 E4.55077
G1 X75.087 Y38.726 E4.55224
G1 X75.069 Y38.791 E4.55482
G1 X74.866 Y39.371 E4.57834
G1 X74.591 Y39.92 E4.60184
G1 X74.246 Y40.429 E4.62537
G1 X73.838 Y40.889 E4.6489
G1 X73.374 Y41.292 E4.67242
G1 X72.862 Y41.631 E4.69592
G1 X72.31 Y41.901 E4.71944
G1 X71.727 Y42.097 E4.74298
G1 X71.125 Y42.216 E4.76646
G1 X70.511 Y42.255 E4.79
G1 X69.898 Y42.215 E4.81351
G1 X69.393 Y42.12 E4.83318
G1 X67.849 Y41.743 E4.894
G1 X65.922 Y41.299 E4.96968
G1 X65.409 Y41.223 E4.98953
G1 X63.101 Y40.922 E5.0786
G1 X62.307 Y40.864 E5.10907
G1 X61.252 Y40.822 E5.14948
G1 X59.84 Y40.774 E5.20355
G1 X58.006 Y40.858 E5.27381
G1 X57.428 Y40.894 E5.29597
G1 X56.329 Y40.974 E5.33814
G1 X55.981 Y41.016 E5.35155
G1 X54.558 Y41.225 E5.4066
G1 X53.728 Y41.364 E5.4388
G1 X50.613 Y42.117 E5.56145
G1 X50.008 Y42.222 E5.58495
G1 X49.394 Y42.248 E5.60847
G1 X48.782 Y42.194 E5.63198
G1 X48.182 Y42.061 E5.6555
G1 X47.604 Y41.851 E5.67903
G1 X47.059 Y41.568 E5.70253
G1 X46.555 Y41.216 E5.72606
G1 X46.101 Y40.803 E5.74955
G1 X45.704 Y40.333 E5.77309
G1 X45.371 Y39.816 E5.79663
G1 X45.109 Y39.261 E5.82012
G1 X44.949 Y38.782 E5.83944
G1 X44.279 Y36.357 E5.93572
G1 X44.154 Y35.756 E5.95922
G1 X44.108 Y35.143 E5.98274
G1 X44.142 Y34.529 E6.00628
G1 X44.256 Y33.925 E6.0298
G1 X44.447 Y33.341 E6.05331
G1 X44.678 Y32.859 E6.07377
G0 F972 X44.712 Y32.787
G0 X45.047 Y32.272
G0 F4320 X45.085 Y32.842
G1 F2400 E6.10033
G1 F1080 X45.423 Y32.358 E6.12292
G1 X45.824 Y31.923 E6.14556
G1 X46.28 Y31.546 E6.1682
G1 X46.782 Y31.234 E6.19082
G1 X47.322 Y30.993 E6.21345
G1 X47.83 Y30.841 E6.23375
G1 X51.668 Y29.937 E6.38465
G1 X52.094 Y29.858 E6.40123
G1 X55.944 Y29.346 E6.54986
G1 X56.367 Y29.311 E6.56611
G1 X60.375 Y29.17 E6.71959
G1 X60.779 Y29.174 E6.73505
G1 X64.513 Y29.388 E6.87819
G1 X64.903 Y29.428 E6.89319
G1 X68.253 Y29.923 E7.02278
G1 X68.624 Y29.994 E7.03724
G1 X71.92 Y30.777 E7.16689
G1 X71.959 Y30.787 E7.16843
G1 X72.218 Y30.851 E7.17864
G1 X72.781 Y31.031 E7.20126
G1 X73.314 Y31.286 E7.22387
G1 X73.809 Y31.61 E7.24651
G1 X74.255 Y31.998 E7.26914
G1 X74.645 Y32.442 E7.29175
G1 X74.971 Y32.935 E7.31437
G1 X75.228 Y33.468 E7.33702
G1 X75.411 Y34.03 E7.35964
G1 X75.516 Y34.612 E7.38227
G1 X75.542 Y35.203 E7.40491
G1 X75.488 Y35.792 E7.42754
G1 X75.394 Y36.232 E7.44476
G1 X74.759 Y38.599 E7.53855
G1 X74.749 Y38.633 E7.53991
G1 X74.731 Y38.698 E7.54249
G1 X74.535 Y39.255 E7.56509
G1 X74.266 Y39.782 E7.58773
G1 X73.928 Y40.267 E7.61035
G1 X73.528 Y40.702 E7.63297
G1 X73.073 Y41.08 E7.65561
G1 X72.571 Y41.392 E7.67823
G1 X72.031 Y41.634 E7.70087
G1 X71.464 Y41.801 E7.72349
G1 X70.879 Y41.89 E7.74614
G1 X70.288 Y41.899 E7.76876
G1 X69.476 Y41.78 E7.80017
G1 X67.943 Y41.405 E7.86056
G1 X65.974 Y40.952 E7.93789
G1 X65.501 Y40.882 E7.95618
G1 X63.139 Y40.574 E8.04734
G1 X62.345 Y40.516 E8.07781
G1 X61.257 Y40.473 E8.11948
G1 X61.257 Y40.472 E8.11952
G1 X59.836 Y40.424 E8.17393
G1 X58.02 Y40.507 E8.2435
G1 X57.399 Y40.545 E8.26731
G1 X56.3 Y40.625 E8.30948
G1 X55.931 Y40.67 E8.32371
G1 X54.498 Y40.881 E8.37914
G1 X53.66 Y41.021 E8.41166
G1 X50.531 Y41.777 E8.53485
G1 X49.948 Y41.876 E8.55748
G1 X49.357 Y41.897 E8.58011
G1 X48.769 Y41.837 E8.60273
G1 X48.194 Y41.699 E8.62536
G1 X47.643 Y41.484 E8.64799
G1 X47.126 Y41.197 E8.67062
G1 X46.653 Y40.843 E8.69323
G1 X46.231 Y40.428 E8.71589
G1 X45.869 Y39.961 E8.7385
G1 X45.574 Y39.449 E8.76111
G1 X45.286 Y38.689 E8.79222
G1 X44.616 Y36.264 E8.8885
G1 X44.497 Y35.685 E8.91112
G1 X44.458 Y35.095 E8.93375
G1 X44.499 Y34.505 E8.95638
G1 X44.618 Y33.926 E8.979
G1 X44.781 Y33.465 E8.99771
G0 F972 X44.815 Y33.368
G0 X45.085 Y32.842
G0 F4320 X45.459 Y32.905
G1 F2400 E9.02427
G1 F1080 X45.8 Y32.453 E9.04594
G1 X46.202 Y32.053 E9.06765
G1 X46.657 Y31.713 E9.08938
G1 X47.154 Y31.441 E9.11107
G1 X47.91 Y31.181 E9.14166
G1 X51.748 Y30.277 E9.29256
G1 X52.14 Y30.205 E9.30781
G1 X55.99 Y29.693 E9.45645
G1 X56.379 Y29.66 E9.47139
G1 X60.387 Y29.519 E9.62487
G1 X60.759 Y29.524 E9.63911
G1 X64.493 Y29.738 E9.78224
G1 X64.851 Y29.774 E9.79601
G1 X68.201 Y30.269 E9.92561
G1 X68.543 Y30.335 E9.93894
G1 X71.839 Y31.118 E10.06859
G1 X71.875 Y31.127 E10.07001
G1 X72.134 Y31.191 E10.08022
G1 X72.673 Y31.365 E10.10189
G1 X73.183 Y31.614 E10.12361
G1 X73.653 Y31.931 E10.14531
G1 X74.073 Y32.312 E10.16701
G1 X74.436 Y32.748 E10.18872
G1 X74.734 Y33.23 E10.21041
G1 X74.961 Y33.75 E10.23212
G1 X75.112 Y34.297 E10.25384
G1 X75.186 Y34.859 E10.27553
G1 X75.18 Y35.426 E10.29723
G1 X75.056 Y36.141 E10.325
G1 X74.421 Y38.508 E10.41879
G1 X74.412 Y38.539 E10.42003
G1 X74.394 Y38.604 E10.42261
G1 X74.205 Y39.139 E10.44432
G1 X73.942 Y39.641 E10.46601
G1 X73.611 Y40.102 E10.48773
G1 X73.219 Y40.512 E10.50944
G1 X72.773 Y40.862 E10.53114
G1 X72.282 Y41.146 E10.55284
G1 X71.757 Y41.359 E10.57453
G1 X71.206 Y41.495 E10.59624
G1 X70.642 Y41.553 E10.61794
G1 X70.075 Y41.531 E10.63966
G1 X69.559 Y41.44 E10.65971
G1 X68.02 Y41.064 E10.72034
G1 X66.043 Y40.609 E10.79798
G1 X65.545 Y40.535 E10.81725
G1 X63.157 Y40.223 E10.90941
G1 X62.383 Y40.167 E10.93911
G1 X61.295 Y40.124 E10.98078
G1 X59.832 Y40.074 E11.0368
G1 X57.935 Y40.161 E11.10948
G1 X57.352 Y40.197 E11.13183
G1 X56.294 Y40.274 E11.17243
G1 X55.837 Y40.329 E11.19004
G1 X54.488 Y40.527 E11.24222
G1 X53.578 Y40.68 E11.27753
G1 X50.449 Y41.436 E11.40073
G1 X49.89 Y41.53 E11.42242
G1 X49.323 Y41.545 E11.44413
G1 X48.759 Y41.48 E11.46585
G1 X48.211 Y41.336 E11.48754
G1 X47.688 Y41.116 E11.50925
G1 X47.201 Y40.826 E11.53094
G1 X46.76 Y40.469 E11.55266
G1 X46.373 Y40.055 E11.57435
G1 X46.048 Y39.59 E11.59606
G1 X45.792 Y39.084 E11.61776
G1 X45.623 Y38.596 E11.63752
G1 X44.953 Y36.171 E11.7338
G1 X44.841 Y35.615 E11.75551
G1 X44.808 Y35.049 E11.77721
G1 X44.855 Y34.484 E11.7989
G1 X44.981 Y33.931 E11.82061
G1 X45.139 Y33.519 E11.8375
G0 F972 X45.184 Y33.401
G0 X45.459 Y32.905
G0 F4320 X45.833 Y32.976
G1 F2400 E11.86406
G1 F1080 X46.178 Y32.558 E11.8848
G1 X46.581 Y32.195 E11.90556
G1 X47.032 Y31.896 E11.92626
G1 X47.523 Y31.666 E11.94701
G1 X47.99 Y31.522 E11.96572
G1 X51.828 Y30.618 E12.11662
G1 X52.187 Y30.552 E12.13058
G1 X56.037 Y30.04 E12.27922
G1 X56.392 Y30.01 E12.29286
G1 X60.4 Y29.869 E12.44634
G1 X60.739 Y29.873 E12.45931
G1 X64.473 Y30.087 E12.60244
G1 X64.8 Y30.12 E12.61502
G1 X68.15 Y30.615 E12.74462
G1 X68.462 Y30.676 E12.75679
G1 X71.758 Y31.459 E12.88643
G1 X71.791 Y31.466 E12.88772
G1 X72.05 Y31.53 E12.89793
G1 X72.565 Y31.699 E12.91868
G1 X73.049 Y31.941 E12.93939
G1 X73.493 Y32.252 E12.96013
G1 X73.886 Y32.625 E12.98087
G1 X74.22 Y33.051 E13.00158
G1 X74.488 Y33.522 E13.02232
G1 X74.684 Y34.028 E13.04309
G1 X74.803 Y34.556 E13.0638
G1 X74.843 Y35.097 E13.08456
G1 X74.803 Y35.637 E13.10529
G1 X74.717 Y36.05 E13.12143
G1 X74.082 Y38.417 E13.21522
G1 X74.075 Y38.446 E13.21636
G1 X74.057 Y38.511 E13.21894
G1 X73.874 Y39.021 E13.23968
G1 X73.618 Y39.499 E13.26043
G1 X73.295 Y39.934 E13.28116
G1 X72.911 Y40.316 E13.30189
G1 X72.476 Y40.638 E13.3226
G1 X71.997 Y40.893 E13.34337
G1 X71.487 Y41.074 E13.36408
G1 X70.955 Y41.179 E13.38483
G1 X70.414 Y41.204 E13.40556
G1 X69.642 Y41.1 E13.43537
G1 X68.063 Y40.714 E13.49758
G1 X66.119 Y40.267 E13.57392
G1 X65.592 Y40.188 E13.59431
G1 X63.193 Y39.875 E13.6869
G1 X62.391 Y39.817 E13.71767
G1 X61.306 Y39.774 E13.75923
G1 X59.827 Y39.724 E13.81586
G1 X57.955 Y39.809 E13.88758
G1 X57.312 Y39.849 E13.91223
G1 X56.249 Y39.926 E13.95302
G1 X55.821 Y39.978 E13.96952
G1 X54.437 Y40.181 E14.02305
G1 X53.507 Y40.337 E14.05914
G1 X50.367 Y41.096 E14.18277
G1 X49.832 Y41.184 E14.20352
G1 X49.29 Y41.193 E14.22426
G1 X48.753 Y41.122 E14.24499
G1 X48.232 Y40.972 E14.26574
G1 X47.739 Y40.748 E14.28646
G1 X47.284 Y40.453 E14.30722
G1 X46.877 Y40.095 E14.32796
G1 X46.528 Y39.681 E14.34868
G1 X46.243 Y39.22 E14.36942
G1 X45.961 Y38.503 E14.39891
G1 X45.291 Y36.078 E14.49519
G1 X45.185 Y35.546 E14.51595
G1 X45.159 Y35.005 E14.53668
G1 X45.213 Y34.466 E14.55741
G1 X45.345 Y33.94 E14.57816
G1 X45.495 Y33.581 E14.59305
G0 F972 X45.554 Y33.44
G0 X45.833 Y32.976
G0 F4320 X46.209 Y33.057
G1 F2400 E14.61961
G1 F1080 X46.556 Y32.676 E14.63934
G1 X46.958 Y32.353 E14.65907
G1 X47.405 Y32.096 E14.6788
G1 X48.071 Y31.863 E14.70581
G1 X51.909 Y30.959 E14.85671
G1 X52.233 Y30.899 E14.86932
G1 X56.083 Y30.387 E15.01795
G1 X56.404 Y30.36 E15.03028
G1 X60.412 Y30.219 E15.18376
G1 X60.719 Y30.222 E15.19551
G1 X64.453 Y30.436 E15.33864
G1 X64.749 Y30.467 E15.35003
G1 X68.099 Y30.962 E15.47963
G1 X68.382 Y31.016 E15.49066
G1 X71.678 Y31.799 E15.6203
G1 X71.707 Y31.806 E15.62145
G1 X71.966 Y31.87 E15.63166
G1 X72.455 Y32.032 E15.65137
G1 X72.913 Y32.268 E15.67109
G1 X73.33 Y32.571 E15.69082
G1 X73.694 Y32.936 E15.71054
G1 X73.998 Y33.352 E15.73026
G1 X74.234 Y33.81 E15.74998
G1 X74.396 Y34.3 E15.76973
G1 X74.48 Y34.808 E15.78943
G1 X74.485 Y35.323 E15.80914
G1 X74.379 Y35.96 E15.83386
G1 X73.744 Y38.327 E15.92765
G1 X73.737 Y38.352 E15.92864
G1 X73.719 Y38.417 E15.93122
G1 X73.544 Y38.902 E15.95095
G1 X73.295 Y39.353 E15.97067
G1 X72.98 Y39.761 E15.99039
G1 X72.606 Y40.115 E16.0101
G1 X72.181 Y40.407 E16.02984
G1 X71.717 Y40.63 E16.04954
G1 X71.223 Y40.779 E16.06928
G1 X70.712 Y40.849 E16.08902
G1 X70.197 Y40.84 E16.10873
G1 X69.725 Y40.76 E16.12706
G1 X68.146 Y40.374 E16.18926
G1 X66.188 Y39.923 E16.26616
G1 X65.624 Y39.839 E16.28798
G1 X63.229 Y39.527 E16.38041
G1 X62.401 Y39.467 E16.41218
G1 X61.318 Y39.424 E16.45366
G1 X59.836 Y39.374 E16.51041
G1 X57.92 Y39.461 E16.58381
G1 X57.291 Y39.5 E16.60793
G1 X56.223 Y39.577 E16.64891
G1 X55.767 Y39.633 E16.66649
G1 X54.378 Y39.837 E16.72022
G1 X53.435 Y39.994 E16.7568
G1 X50.284 Y40.756 E16.88087
G1 X49.775 Y40.838 E16.9006
G1 X49.26 Y40.84 E16.9203
G1 X48.751 Y40.763 E16.94001
G1 X48.259 Y40.608 E16.95975
G1 X47.798 Y40.378 E16.97946
G1 X47.377 Y40.081 E16.99918
G1 X47.007 Y39.721 E17.01894
G1 X46.698 Y39.309 E17.03865
G1 X46.456 Y38.854 E17.05837
G1 X46.298 Y38.409 E17.07644
G1 X45.628 Y35.984 E17.17272
G1 X45.53 Y35.479 E17.19241
G1 X45.511 Y34.964 E17.21213
G1 X45.572 Y34.452 E17.23186
G1 X45.711 Y33.956 E17.25158
G1 X45.851 Y33.65 E17.26446
G0 F972 X45.925 Y33.487
G0 X46.209 Y33.057
G0 F4320 X46.298 Y33.543
G1 F2400 E17.29101
G1 F1080 X46.586 Y33.149 E17.30969
G1 X46.934 Y32.809 E17.32831
G1 X47.334 Y32.529 E17.347
G1 X47.774 Y32.319 E17.36566
G1 X48.151 Y32.203 E17.38075
G1 X51.989 Y31.299 E17.53165
G1 X52.279 Y31.246 E17.54293
G1 X56.129 Y30.734 E17.69157
G1 X56.416 Y30.71 E17.70259
G1 X60.424 Y30.569 E17.85607
G1 X60.699 Y30.572 E17.8666
G1 X64.433 Y30.786 E18.00973
G1 X64.698 Y30.813 E18.01992
G1 X68.048 Y31.308 E18.14952
G1 X68.301 Y31.357 E18.15938
G1 X71.597 Y32.14 E18.28903
G1 X71.623 Y32.146 E18.29005
G1 X71.882 Y32.21 E18.30026
G1 X72.344 Y32.365 E18.31891
G1 X72.774 Y32.594 E18.33756
G1 X73.162 Y32.89 E18.35623
G1 X73.495 Y33.245 E18.37486
G1 X73.767 Y33.65 E18.39353
G1 X73.968 Y34.094 E18.41218
G1 X74.095 Y34.564 E18.43081
G1 X74.143 Y35.049 E18.44947
G1 X74.111 Y35.536 E18.46814
G1 X74.041 Y35.869 E18.48117
G1 X73.406 Y38.236 E18.57495
G1 X73.4 Y38.259 E18.57586
G1 X73.382 Y38.324 E18.57844
G1 X73.214 Y38.781 E18.59708
G1 X72.973 Y39.205 E18.61574
G1 X72.667 Y39.584 E18.63438
G1 X72.302 Y39.908 E18.65306
G1 X71.89 Y40.168 E18.67171
G1 X71.441 Y40.357 E18.69035
G1 X70.967 Y40.471 E18.70901
G1 X70.481 Y40.505 E18.72765
G1 X69.809 Y40.42 E18.75357
G1 X68.23 Y40.034 E18.81578
G1 X66.252 Y39.579 E18.89346
G1 X65.671 Y39.493 E18.91593
G1 X63.265 Y39.179 E19.00879
G1 X62.44 Y39.119 E19.04045
G1 X61.313 Y39.074 E19.08361
G1 X61.313 Y39.073 E19.08365
G1 X59.831 Y39.023 E19.1404
G1 X57.887 Y39.112 E19.21487
G1 X57.301 Y39.148 E19.23734
G1 X56.175 Y39.23 E19.28055
G1 X55.717 Y39.286 E19.29821
G1 X54.318 Y39.491 E19.35232
G1 X53.379 Y39.648 E19.38875
G1 X50.202 Y40.416 E19.51384
G1 X49.72 Y40.491 E19.53251
G1 X49.233 Y40.487 E19.55114
G1 X48.753 Y40.403 E19.56979
G1 X48.293 Y40.242 E19.58844
G1 X47.865 Y40.008 E19.60711
G1 X47.482 Y39.707 E19.62575
G1 X47.152 Y39.348 E19.64442
G1 X46.886 Y38.939 E19.66309
G1 X46.635 Y38.316 E19.68879
G1 X45.965 Y35.891 E19.78507
G1 X45.875 Y35.412 E19.80373
