;FLAVOR:Marlin
;TIME:2879
;Filament used: 1.30461m
;Layer height: 0.2625
;MINX:29.95
;MINY:42.824
;MINZ:0.263
;MAXX:90.05
;MAXY:77.176
;MAXZ:5.997
;Generated with Cura_SteamEngine 4.2.1
M140 S65
M105
M190 S65
M104 S235
M105
M109 S235
M82 ;absolute extrusion mode
G21;(metric values)
G90;(absolute positioning)
M82;(set extruder to absolute mode)
M107;(start with the fan off)
G28;(Home the printer)
G92 E0;(Reset the extruder to 0)
G0 Z5 E5 F500;(Move up and prime the nozzle)
G0 X-1 Z0;(Move outside the printable area)
G1 Y60 E8 F500;(Draw a priming/wiping line to the rear)
G1 X-1;(Move a little closer to the print area)
G1 Y10 E16 F500;(draw more priming/wiping)
G1 E15 F250;(Small retract)
G92 E0;(Zero the extruder)
G92 E0
G92 E0
G1 F2400 E-4
;LAYER_COUNT:19
;LAYER:0
M107
G0 F4320 X34.872 Y43.916 Z0.263
;TYPE:SKIRT
G1 F2400 E0
G1 F720 X35.399 Y43.558 E0.02438
G1 X35.984 Y43.261 E0.04949
G1 X36.047 Y43.234 E0.05211
G1 X36.647 Y43.021 E0.07648
G1 X37.269 Y42.884 E0.10085
G1 X38.046 Y42.824 E0.13068
G1 X64.976 Y42.824 E1.16129
G1 X65.612 Y42.864 E1.18567
G1 X66.237 Y42.983 E1.21002
G1 X67.051 Y43.267 E1.24302
G1 X67.589 Y43.508 E1.26558
G1 X67.659 Y43.541 E1.26854
G1 X87.065 Y52.591 E2.08799
G1 X87.624 Y52.895 E2.11235
G1 X88.141 Y53.268 E2.13674
G1 X88.607 Y53.702 E2.16111
G1 X89.014 Y54.191 E2.18546
G1 X89.21 Y54.478 E2.19876
G1 X89.265 Y54.565 E2.2027
G1 X89.571 Y55.124 E2.22709
G1 X89.804 Y55.716 E2.25144
G1 X89.961 Y56.333 E2.2758
G1 X90.05 Y57.277 E2.31209
G1 X90.05 Y69.08 E2.76379
G1 X90.01 Y69.716 E2.78818
G1 X89.891 Y70.341 E2.81252
G1 X89.64 Y71.079 E2.84236
G1 X89.613 Y71.142 E2.84498
G1 X89.326 Y71.711 E2.86937
G1 X88.97 Y72.239 E2.89374
G1 X88.537 Y72.732 E2.91885
G1 X85.606 Y75.663 E3.07748
G1 X85.128 Y76.084 E3.10186
G1 X84.601 Y76.442 E3.12624
G1 X84.016 Y76.739 E3.15135
G1 X83.953 Y76.766 E3.15397
G1 X83.353 Y76.979 E3.17834
G1 X82.731 Y77.116 E3.20271
G1 X81.954 Y77.176 E3.23254
G1 X55.016 Y77.176 E4.26345
G1 X54.38 Y77.136 E4.28784
G1 X53.961 Y77.065 E4.3041
G1 X34.049 Y72.834 E5.08315
G1 X33.436 Y72.663 E5.1075
G1 X32.849 Y72.416 E5.13187
G1 X32.297 Y72.098 E5.15625
G1 X31.79 Y71.713 E5.18062
G1 X31.169 Y71.075 E5.21469
G1 X31.09 Y70.978 E5.21948
G1 X30.72 Y70.46 E5.24384
G1 X30.417 Y69.899 E5.26824
G1 X30.187 Y69.306 E5.29258
G1 X30.033 Y68.687 E5.31699
G1 X29.95 Y67.773 E5.35211
G1 X29.95 Y50.92 E5.99708
G1 X29.99 Y50.284 E6.02147
G1 X30.109 Y49.659 E6.04581
G1 X30.36 Y48.921 E6.07565
G1 X30.387 Y48.858 E6.07827
G1 X30.674 Y48.289 E6.10266
G1 X31.03 Y47.761 E6.12703
G1 X31.463 Y47.268 E6.15214
G1 X34.353 Y44.378 E6.30855
G0 F648 X34.394 Y44.337
G0 X34.872 Y43.916
G0 F4320 X35.104 Y44.18
G1 F2400 E6.33511
G1 F720 X35.614 Y43.838 E6.35861
G1 X36.122 Y43.583 E6.38036
G1 X36.185 Y43.556 E6.38299
G1 X36.764 Y43.351 E6.40649
G1 X37.365 Y43.223 E6.43001
G1 X38.046 Y43.174 E6.45614
G1 X64.976 Y43.174 E7.48675
G1 X65.589 Y43.214 E7.51026
G1 X66.192 Y43.333 E7.53378
G1 X66.908 Y43.587 E7.56285
G1 X67.446 Y43.828 E7.58541
G1 X67.511 Y43.858 E7.58815
G1 X86.917 Y52.908 E8.40761
G1 X87.456 Y53.203 E8.43112
G1 X87.952 Y53.566 E8.45465
G1 X88.396 Y53.99 E8.47814
G1 X88.914 Y54.665 E8.5107
G1 X88.969 Y54.752 E8.51464
G1 X89.263 Y55.292 E8.53817
G1 X89.484 Y55.865 E8.56168
G1 X89.629 Y56.462 E8.58519
G1 X89.7 Y57.277 E8.6165
G1 X89.7 Y69.08 E9.0682
G1 X89.66 Y69.693 E9.09171
G1 X89.541 Y70.296 E9.11523
G1 X89.318 Y70.941 E9.14134
G1 X89.291 Y71.004 E9.14397
G1 X89.013 Y71.552 E9.16748
G1 X88.666 Y72.059 E9.191
G1 X88.289 Y72.484 E9.21274
G1 X85.358 Y75.415 E9.37137
G1 X84.896 Y75.82 E9.39488
G1 X84.386 Y76.162 E9.41838
G1 X83.878 Y76.417 E9.44013
G1 X83.815 Y76.444 E9.44276
G1 X83.236 Y76.649 E9.46626
G1 X82.635 Y76.777 E9.48978
G1 X81.954 Y76.826 E9.51591
G1 X55.016 Y76.826 E10.54682
G1 X54.403 Y76.786 E10.57033
G1 X54.034 Y76.723 E10.58466
G1 X34.122 Y72.492 E11.3637
G1 X33.53 Y72.325 E11.38724
G1 X32.966 Y72.083 E11.41073
G1 X32.437 Y71.77 E11.43425
G1 X31.953 Y71.391 E11.45778
G1 X31.44 Y70.854 E11.4862
G1 X31.361 Y70.757 E11.49099
G1 X31.005 Y70.256 E11.51451
G1 X30.717 Y69.713 E11.53803
G1 X30.501 Y69.138 E11.56154
G1 X30.363 Y68.539 E11.58506
G1 X30.3 Y67.773 E11.61448
G1 X30.3 Y50.92 E12.25944
G1 X30.34 Y50.307 E12.28295
G1 X30.459 Y49.704 E12.30647
G1 X30.682 Y49.059 E12.33259
G1 X30.709 Y48.996 E12.33521
G1 X30.987 Y48.448 E12.35873
G1 X31.334 Y47.941 E12.38224
G1 X31.711 Y47.516 E12.40398
G1 X34.586 Y44.641 E12.55958
G0 F648 X34.642 Y44.585
G0 X35.104 Y44.18
G0 F4320 X35.335 Y44.444
G1 F2400 E12.58614
G1 F720 X35.829 Y44.118 E12.60879
G1 X36.26 Y43.905 E12.62719
G1 X36.323 Y43.878 E12.62981
G1 X36.881 Y43.682 E12.65245
G1 X37.46 Y43.563 E12.67507
G1 X38.046 Y43.524 E12.69755
G1 X64.976 Y43.524 E13.72816
G1 X65.566 Y43.564 E13.75079
G1 X66.145 Y43.683 E13.77341
G1 X66.765 Y43.906 E13.79862
G1 X67.303 Y44.147 E13.82118
G1 X67.363 Y44.175 E13.82372
G1 X86.769 Y53.225 E14.64317
G1 X87.287 Y53.511 E14.66582
G1 X87.761 Y53.863 E14.68841
G1 X88.184 Y54.277 E14.71106
G1 X88.618 Y54.852 E14.73863
G1 X88.673 Y54.939 E14.74257
G1 X88.954 Y55.459 E14.76519
G1 X89.163 Y56.012 E14.78782
G1 X89.296 Y56.589 E14.81048
G1 X89.35 Y57.277 E14.83689
G1 X89.35 Y69.08 E15.28859
G1 X89.31 Y69.67 E15.31122
G1 X89.191 Y70.249 E15.33384
G1 X88.996 Y70.803 E15.35632
G1 X88.969 Y70.866 E15.35894
G1 X88.7 Y71.393 E15.38158
G1 X88.363 Y71.878 E15.40419
G1 X88.042 Y72.237 E15.42262
G1 X85.111 Y75.168 E15.58125
G1 X84.665 Y75.556 E15.60387
G1 X84.171 Y75.882 E15.62652
G1 X83.74 Y76.095 E15.64492
G1 X83.677 Y76.122 E15.64754
G1 X83.119 Y76.318 E15.67018
G1 X82.54 Y76.437 E15.6928
G1 X81.954 Y76.476 E15.71528
G1 X55.016 Y76.476 E16.74619
G1 X54.426 Y76.436 E16.76882
G1 X54.107 Y76.38 E16.78122
G1 X34.195 Y72.149 E17.56026
G1 X33.626 Y71.988 E17.58289
G1 X33.084 Y71.751 E17.60553
G1 X32.579 Y71.443 E17.62817
G1 X32.121 Y71.07 E17.65077
G1 X31.712 Y70.633 E17.67368
G1 X31.633 Y70.536 E17.67847
G1 X31.291 Y70.053 E17.70111
G1 X31.018 Y69.529 E17.72373
G1 X30.818 Y68.973 E17.74634
G1 X30.694 Y68.394 E17.769
G1 X30.65 Y67.773 E17.79283
G1 X30.65 Y50.92 E18.43779
G1 X30.69 Y50.33 E18.46042
G1 X30.809 Y49.751 E18.48304
G1 X31.004 Y49.197 E18.50552
G1 X31.031 Y49.134 E18.50814
G1 X31.3 Y48.607 E18.53078
G1 X31.637 Y48.122 E18.55339
G1 X31.958 Y47.763 E18.57182
G1 X34.817 Y44.904 E18.72655
G0 F648 X34.889 Y44.832
G0 X35.335 Y44.444
G0 F4320 X35.565 Y44.708
G1 F2400 E18.75311
G1 F720 X36.041 Y44.4 E18.77481
G1 X36.397 Y44.226 E18.78997
G1 X36.46 Y44.199 E18.7926
G1 X36.996 Y44.013 E18.81431
G1 X37.553 Y43.904 E18.83603
G1 X38.046 Y43.874 E18.85493
G1 X64.976 Y43.874 E19.88554
G1 X65.542 Y43.914 E19.90725
G1 X66.096 Y44.033 E19.92894
G1 X66.621 Y44.226 E19.95035
G1 X67.159 Y44.467 E19.97291
G1 X67.215 Y44.492 E19.97525
G1 X86.621 Y53.542 E20.79471
G1 X87.117 Y53.817 E20.81641
G1 X87.569 Y54.16 E20.83813
G1 X87.969 Y54.562 E20.85983
G1 X88.322 Y55.039 E20.88254
G1 X88.377 Y55.126 E20.88648
G1 X88.646 Y55.626 E20.90821
G1 X88.841 Y56.158 E20.92989
G1 X88.96 Y56.712 E20.95158
G1 X89 Y57.277 E20.97325
G1 X89 Y69.08 E21.42495
G1 X88.96 Y69.646 E21.44667
G1 X88.841 Y70.2 E21.46835
G1 X88.675 Y70.666 E21.48729
G1 X88.648 Y70.729 E21.48991
G1 X88.388 Y71.233 E21.51161
G1 X88.06 Y71.695 E21.5333
G1 X87.794 Y71.989 E21.54847
G1 X84.863 Y74.92 E21.7071
G1 X84.435 Y75.292 E21.7288
G1 X83.959 Y75.6 E21.7505
G1 X83.603 Y75.774 E21.76566
G1 X83.54 Y75.801 E21.76829
G1 X83.004 Y75.987 E21.79
G1 X82.447 Y76.096 E21.81172
G1 X81.954 Y76.126 E21.83062
G1 X55.016 Y76.126 E22.86154
G1 X54.179 Y76.038 E22.89375
G1 X34.267 Y71.807 E23.67279
G1 X33.722 Y71.65 E23.6945
G1 X33.205 Y71.419 E23.71617
G1 X32.725 Y71.117 E23.73787
G1 X32.292 Y70.75 E23.75959
G1 X31.983 Y70.412 E23.77712
G1 X31.904 Y70.315 E23.78191
G1 X31.578 Y69.851 E23.80361
G1 X31.32 Y69.346 E23.82531
G1 X31.136 Y68.809 E23.84703
G1 X31.029 Y68.253 E23.8687
G1 X31 Y67.773 E23.8871
G1 X31 Y50.92 E24.53207
G1 X31.04 Y50.354 E24.55378
G1 X31.159 Y49.8 E24.57547
G1 X31.325 Y49.334 E24.5944
G1 X31.352 Y49.271 E24.59702
G1 X31.612 Y48.767 E24.61873
G1 X31.94 Y48.305 E24.64041
G1 X32.206 Y48.011 E24.65558
G1 X35.048 Y45.169 E24.8094
G0 F648 X35.137 Y45.08
G0 X35.565 Y44.708
G0 F4320 X35.795 Y44.974
G1 F2400 E24.83596
G1 F720 X36.253 Y44.684 E24.8567
G1 X36.535 Y44.548 E24.86868
G1 X36.598 Y44.521 E24.87131
G1 X37.111 Y44.345 E24.89206
G1 X37.644 Y44.246 E24.91281
G1 X38.046 Y44.224 E24.92822
G1 X64.976 Y44.224 E25.95883
G1 X65.516 Y44.264 E25.97955
G1 X66.045 Y44.383 E26.0003
G1 X66.478 Y44.545 E26.01799
G1 X67.016 Y44.786 E26.04055
G1 X67.067 Y44.809 E26.04269
G1 X86.473 Y53.859 E26.86215
G1 X86.946 Y54.124 E26.8829
G1 X87.375 Y54.455 E26.90363
G1 X87.75 Y54.846 E26.92437
G1 X88.026 Y55.226 E26.94234
G1 X88.081 Y55.313 E26.94628
G1 X88.336 Y55.791 E26.96701
G1 X88.518 Y56.302 E26.98777
G1 X88.623 Y56.833 E27.00849
G1 X88.65 Y57.277 E27.02551
G1 X88.65 Y69.08 E27.47721
G1 X88.61 Y69.62 E27.49793
G1 X88.491 Y70.149 E27.51868
G1 X88.353 Y70.528 E27.53412
G1 X88.326 Y70.591 E27.53674
G1 X88.076 Y71.072 E27.55749
G1 X87.759 Y71.511 E27.57821
G1 X87.547 Y71.742 E27.59021
G1 X84.616 Y74.673 E27.74884
G1 X84.205 Y75.026 E27.76958
G1 X83.747 Y75.316 E27.79032
G1 X83.465 Y75.452 E27.8023
G1 X83.402 Y75.479 E27.80493
G1 X82.889 Y75.655 E27.82568
G1 X82.356 Y75.754 E27.84643
G1 X81.954 Y75.776 E27.86184
G1 X55.016 Y75.776 E28.89275
G1 X54.252 Y75.696 E28.92215
G1 X34.34 Y71.465 E29.70119
G1 X33.82 Y71.313 E29.72193
G1 X33.328 Y71.087 E29.74265
G1 X32.874 Y70.791 E29.76339
G1 X32.469 Y70.431 E29.78413
G1 X32.254 Y70.191 E29.79646
G1 X32.175 Y70.094 E29.80125
G1 X31.865 Y69.65 E29.82197
G1 X31.624 Y69.165 E29.8427
G1 X31.456 Y68.649 E29.86346
G1 X31.366 Y68.115 E29.88419
G1 X31.35 Y67.773 E29.89729
G1 X31.35 Y50.92 E30.54225
G1 X31.39 Y50.38 E30.56298
G1 X31.509 Y49.851 E30.58373
G1 X31.647 Y49.472 E30.59916
G1 X31.674 Y49.409 E30.60179
G1 X31.924 Y48.928 E30.62253
G1 X32.241 Y48.489 E30.64325
G1 X32.453 Y48.258 E30.65525
G1 X35.276 Y45.435 E30.80804
G0 F648 X35.384 Y45.327
G0 X35.795 Y44.974
G0 F4320 X36.023 Y45.24
G1 F2400 E30.8346
G1 F720 X36.673 Y44.87 E30.86322
G1 X36.736 Y44.843 E30.86584
G1 X37.224 Y44.677 E30.88557
G1 X37.732 Y44.589 E30.9053
G1 X38.046 Y44.574 E30.91733
G1 X64.976 Y44.574 E31.94794
G1 X65.49 Y44.614 E31.96767
G1 X65.991 Y44.733 E31.98738
G1 X66.335 Y44.865 E32.00148
G1 X66.873 Y45.106 E32.02404
G1 X66.919 Y45.127 E32.02598
G1 X86.325 Y54.177 E32.84543
G1 X86.774 Y54.43 E32.86515
G1 X87.178 Y54.75 E32.88488
G1 X87.528 Y55.128 E32.90459
G1 X87.73 Y55.413 E32.91796
G1 X87.785 Y55.5 E32.9219
G1 X88.026 Y55.956 E32.94164
G1 X88.194 Y56.443 E32.96135
G1 X88.284 Y56.951 E32.9811
G1 X88.3 Y57.277 E32.99359
G1 X88.3 Y69.08 E33.44529
G1 X88.26 Y69.594 E33.46502
G1 X88.141 Y70.095 E33.48473
G1 X88.031 Y70.39 E33.49677
G1 X88.004 Y70.453 E33.4994
G1 X87.765 Y70.909 E33.5191
G1 X87.299 Y71.494 E33.54772
G1 X84.368 Y74.425 E33.70635
G1 X83.977 Y74.76 E33.72606
G1 X83.327 Y75.13 E33.75468
G1 X83.264 Y75.157 E33.75731
G1 X82.776 Y75.323 E33.77703
G1 X82.268 Y75.411 E33.79676
G1 X81.954 Y75.426 E33.80879
G1 X55.016 Y75.426 E34.83971
G1 X54.325 Y75.353 E34.8663
G1 X34.413 Y71.122 E35.64534
G1 X33.919 Y70.977 E35.66505
G1 X33.453 Y70.756 E35.68479
G1 X33.027 Y70.466 E35.70451
G1 X32.526 Y69.97 E35.73149
G1 X32.447 Y69.873 E35.73628
G1 X32.153 Y69.449 E35.75602
G1 X31.929 Y68.985 E35.77574
G1 X31.779 Y68.492 E35.79546
G1 X31.7 Y67.773 E35.82314
G1 X31.7 Y50.92 E36.46811
G1 X31.74 Y50.406 E36.48784
G1 X31.859 Y49.905 E36.50754
G1 X31.969 Y49.61 E36.51959
G1 X31.996 Y49.547 E36.52221
G1 X32.235 Y49.091 E36.54192
G1 X32.701 Y48.506 E36.57054
G1 X35.505 Y45.702 E36.7223
G0 F648 X35.632 Y45.575
G0 X36.023 Y45.24
G0 F4320 X36.251 Y45.507
G1 F2400 E36.74886
G1 F720 X36.811 Y45.192 E36.77345
G1 X36.874 Y45.165 E36.77607
G1 X37.336 Y45.01 E36.79472
G1 X38.046 Y44.924 E36.82209
G1 X64.976 Y44.924 E37.8527
G1 X65.462 Y44.964 E37.87136
G1 X65.935 Y45.083 E37.89003
G1 X66.192 Y45.184 E37.90059
G1 X66.73 Y45.425 E37.92315
G1 X66.771 Y45.444 E37.92488
G1 X86.177 Y54.494 E38.74434
G1 X86.601 Y54.735 E38.763
G1 X86.979 Y55.043 E38.78166
G1 X87.435 Y55.6 E38.80921
G1 X87.49 Y55.687 E38.81315
G1 X87.715 Y56.119 E38.83179
G1 X87.868 Y56.582 E38.85045
G1 X87.95 Y57.277 E38.87724
G1 X87.95 Y69.08 E39.32894
G1 X87.91 Y69.566 E39.3476
G1 X87.709 Y70.252 E39.37495
G1 X87.682 Y70.315 E39.37758
G1 X87.454 Y70.746 E39.39624
G1 X87.052 Y71.247 E39.42082
G1 X84.121 Y74.178 E39.57945
G1 X83.749 Y74.493 E39.59811
G1 X83.189 Y74.808 E39.62269
G1 X83.126 Y74.835 E39.62532
G1 X82.664 Y74.99 E39.64397
G1 X81.954 Y75.076 E39.67134
G1 X55.016 Y75.076 E40.70225
G1 X54.398 Y75.011 E40.72603
G1 X34.486 Y70.78 E41.50508
G1 X34.019 Y70.64 E41.52374
G1 X33.581 Y70.426 E41.54239
G1 X33.184 Y70.143 E41.56105
G1 X32.797 Y69.749 E41.58219
G1 X32.718 Y69.652 E41.58697
G1 X32.442 Y69.25 E41.60563
G1 X32.236 Y68.808 E41.6243
G1 X32.104 Y68.339 E41.64294
G1 X32.05 Y67.773 E41.6647
G1 X32.05 Y50.92 E42.30967
G1 X32.09 Y50.434 E42.32833
G1 X32.291 Y49.748 E42.35568
G1 X32.318 Y49.685 E42.35831
G1 X32.546 Y49.254 E42.37697
G1 X32.948 Y48.753 E42.40155
G1 X35.733 Y45.968 E42.55228
G0 F648 X35.879 Y45.822
G0 X36.251 Y45.507
G0 F4320 X36.478 Y45.776
G1 F2400 E42.57884
G1 F720 X36.949 Y45.513 E42.59948
G1 X37.012 Y45.486 E42.60211
G1 X37.447 Y45.343 E42.61963
G1 X38.046 Y45.274 E42.64271
G1 X64.976 Y45.274 E43.67332
G1 X65.432 Y45.314 E43.69083
G1 X66.049 Y45.503 E43.71553
G1 X66.587 Y45.744 E43.73809
G1 X66.623 Y45.761 E43.73961
G1 X86.029 Y54.811 E44.55907
G1 X86.426 Y55.04 E44.57661
G1 X86.777 Y55.334 E44.59413
G1 X87.139 Y55.787 E44.61632
G1 X87.194 Y55.874 E44.62026
G1 X87.404 Y56.281 E44.63779
G1 X87.54 Y56.718 E44.6553
G1 X87.6 Y57.277 E44.67682
G1 X87.6 Y69.08 E45.12852
G1 X87.56 Y69.536 E45.14604
G1 X87.388 Y70.114 E45.16912
G1 X87.361 Y70.177 E45.17174
G1 X87.144 Y70.581 E45.18929
G1 X86.804 Y70.999 E45.20991
G1 X83.873 Y73.93 E45.36854
G1 X83.522 Y74.224 E45.38606
G1 X83.051 Y74.487 E45.40671
G1 X82.988 Y74.514 E45.40933
G1 X82.553 Y74.657 E45.42686
G1 X81.954 Y74.726 E45.44993
G1 X55.016 Y74.726 E46.48085
G1 X54.47 Y74.669 E46.50186
G1 X34.558 Y70.438 E47.2809
G1 X34.121 Y70.304 E47.29839
G1 X33.713 Y70.096 E47.31592
G1 X33.347 Y69.82 E47.33346
G1 X33.069 Y69.528 E47.34889
G1 X32.99 Y69.431 E47.35368
G1 X32.733 Y69.052 E47.3712
G1 X32.545 Y68.634 E47.38874
G1 X32.433 Y68.19 E47.40627
G1 X32.4 Y67.773 E47.42228
G1 X32.4 Y50.92 E48.06724
G1 X32.44 Y50.464 E48.08476
G1 X32.612 Y49.886 E48.10784
G1 X32.639 Y49.823 E48.11046
G1 X32.856 Y49.419 E48.12801
G1 X33.196 Y49.001 E48.14863
G1 X35.96 Y46.237 E48.29822
G0 F648 X36.127 Y46.07
G0 X36.478 Y45.776
G0 F4320 X36.703 Y46.046
G1 F2400 E48.32478
G1 F720 X37.087 Y45.835 E48.34155
G1 X37.15 Y45.808 E48.34417
G1 X37.556 Y45.678 E48.36049
G1 X38.046 Y45.624 E48.37935
G1 X64.976 Y45.624 E49.40996
G1 X65.4 Y45.664 E49.42626
G1 X65.906 Y45.823 E49.44656
G1 X66.444 Y46.064 E49.46912
G1 X66.476 Y46.078 E49.47046
G1 X85.882 Y55.128 E50.28991
G1 X86.249 Y55.344 E50.30621
G1 X86.57 Y55.624 E50.32251
G1 X86.843 Y55.974 E50.3395
G1 X86.898 Y56.061 E50.34344
G1 X87.091 Y56.441 E50.35975
G1 X87.21 Y56.851 E50.37609
G1 X87.25 Y57.277 E50.39246
G1 X87.25 Y69.08 E50.84416
G1 X87.21 Y69.504 E50.86046
G1 X87.066 Y69.976 E50.87934
G1 X87.039 Y70.039 E50.88197
G1 X86.835 Y70.413 E50.89827
G1 X86.557 Y70.752 E50.91505
G1 X83.626 Y73.683 E51.07368
G1 X83.297 Y73.954 E51.08999
G1 X82.913 Y74.165 E51.10676
G1 X82.85 Y74.192 E51.10938
G1 X82.444 Y74.322 E51.1257
G1 X81.954 Y74.376 E51.14456
G1 X55.016 Y74.376 E52.17548
G1 X54.543 Y74.326 E52.19368
G1 X34.631 Y70.095 E52.97273
G1 X34.224 Y69.968 E52.98904
G1 X33.849 Y69.767 E53.00533
G1 X33.517 Y69.5 E53.02163
G1 X33.34 Y69.307 E53.03165
G1 X33.261 Y69.21 E53.03644
G1 X33.024 Y68.855 E53.05278
G1 X32.857 Y68.463 E53.06908
G1 X32.767 Y68.047 E53.08537
G1 X32.75 Y67.773 E53.09588
G1 X32.75 Y50.92 E53.74084
G1 X32.79 Y50.496 E53.75714
G1 X32.934 Y50.024 E53.77602
G1 X32.961 Y49.961 E53.77865
G1 X33.165 Y49.587 E53.79495
G1 X33.443 Y49.248 E53.81173
G1 X36.185 Y46.506 E53.96013
