;FLAVOR:Marlin
;TIME:8801
;Filament used: 1.80295m
;Layer height: 0.0875
;MINX:15.073
;MINY:34.926
;MINZ:0.263
;MAXX:103.662
;MAXY:83.05
;MAXZ:7.919
;Generated with Cura_SteamEngine 4.2.1
M140 S65
M105
M190 S65
M104 S190
M105
M109 S190
M82 ;absolute extrusion mode
G21;(metric values)
G90;(absolute positioning)
M82;(set extruder to absolute mode)
M107;(start with the fan off)
G28;(Home the printer)
G92 E0;(Reset the extruder to 0)
G0 Z5 E5 F500;(Move up and prime the nozzle)
G0 X-1 Z0;(Move outside the printable area)
G1 Y60 E8 F500;(Draw a priming/wiping line to the rear)
G1 X-1;(Move a little closer to the print area)
G1 Y10 E16 F500;(draw more priming/wiping)
G1 E15 F250;(Small retract)
G92 E0;(Zero the extruder)
M141 S28
G92 E0
G92 E0
G1 F2400 E-2.5
;LAYER_COUNT:88
;LAYER:0
M107
G0 F4320 X27.371 Y37.829 Z0.263
;TYPE:SKIRT
G1 F2400 E0
G1 F1080 X27.456 Y37.776 E0.00383
G1 X28.016 Y37.473 E0.0282
G1 X28.61 Y37.243 E0.05258
G1 X29.228 Y37.09 E0.07694
G1 X30.127 Y37.007 E0.11149
G1 X37.926 Y36.985 E0.40996
G1 X38.561 Y37.023 E0.43431
G1 X39.187 Y37.141 E0.45869
G1 X39.794 Y37.336 E0.48308
G1 X39.992 Y37.428 E0.49144
G1 X40.111 Y37.368 E0.49654
G1 X40.71 Y37.152 E0.52091
G1 X41.332 Y37.013 E0.5453
G1 X42.128 Y36.95 E0.57586
G1 X77.872 Y36.95 E1.94378
G1 X78.508 Y36.99 E1.96817
G1 X79.133 Y37.109 E1.99252
G1 X79.47 Y37.218 E2.00607
G1 X79.53 Y37.123 E2.01037
G1 X80.048 Y36.515 E2.04094
G1 X80.151 Y36.412 E2.04651
G1 X80.629 Y35.991 E2.07089
G1 X81.156 Y35.633 E2.09527
G1 X81.723 Y35.344 E2.11963
G1 X82.322 Y35.128 E2.14399
G1 X82.944 Y34.989 E2.16839
G1 X83.74 Y34.926 E2.19894
G1 X98.484 Y34.926 E2.7632
G1 X99.12 Y34.966 E2.78758
G1 X99.745 Y35.085 E2.81193
G1 X100.351 Y35.282 E2.83632
G1 X100.927 Y35.553 E2.86068
G1 X101.465 Y35.894 E2.88506
G1 X102.073 Y36.412 E2.91562
G1 X102.176 Y36.515 E2.9212
G1 X102.597 Y36.993 E2.94558
G1 X102.955 Y37.52 E2.96996
G1 X103.244 Y38.087 E2.99431
G1 X103.46 Y38.686 E3.01868
G1 X103.599 Y39.308 E3.04307
G1 X103.662 Y40.104 E3.07363
G1 X103.662 Y49.948 E3.45036
G1 X103.622 Y50.584 E3.47475
G1 X103.503 Y51.209 E3.4991
G1 X103.306 Y51.815 E3.52348
G1 X103.127 Y52.216 E3.54029
G1 X93.162 Y72.167 E4.39375
G1 X92.842 Y72.717 E4.4181
G1 X92.456 Y73.224 E4.44249
G1 X92.01 Y73.678 E4.46685
G1 X91.293 Y74.214 E4.50111
G1 X91.209 Y74.266 E4.50489
G1 X90.648 Y74.567 E4.52925
G1 X90.053 Y74.795 E4.55364
G1 X89.435 Y74.946 E4.57798
G1 X88.538 Y75.026 E4.61245
G1 X83.042 Y75.026 E4.82278
G1 X83.05 Y77.857 E4.93112
G1 X83.012 Y78.493 E4.9555
G1 X82.894 Y79.119 E4.97988
G1 X82.699 Y79.725 E5.00425
G1 X82.43 Y80.303 E5.02864
G1 X82.091 Y80.841 E5.05298
G1 X81.564 Y81.461 E5.08412
G1 X81.461 Y81.564 E5.0897
G1 X80.983 Y81.985 E5.11407
G1 X80.456 Y82.343 E5.13845
G1 X79.889 Y82.632 E5.16281
G1 X79.29 Y82.848 E5.18718
G1 X78.668 Y82.987 E5.21157
G1 X77.872 Y83.05 E5.24213
G1 X42.128 Y83.05 E6.61005
G1 X41.492 Y83.01 E6.63444
G1 X40.867 Y82.891 E6.65878
G1 X40.261 Y82.694 E6.68317
G1 X39.685 Y82.423 E6.70753
G1 X39.147 Y82.082 E6.73191
G1 X38.539 Y81.564 E6.76248
G1 X38.436 Y81.461 E6.76805
G1 X38.015 Y80.983 E6.79243
G1 X37.657 Y80.456 E6.81681
G1 X37.368 Y79.889 E6.84116
G1 X37.152 Y79.29 E6.86553
G1 X37.013 Y78.668 E6.88992
G1 X36.95 Y77.872 E6.92048
G1 X36.95 Y76.707 E6.96507
G1 X36.464 Y76.885 E6.98487
G1 X35.844 Y77.027 E7.00922
G1 X35.037 Y77.094 E7.04021
G1 X20.292 Y77.134 E7.6045
G1 X19.656 Y77.096 E7.62888
G1 X19.03 Y76.978 E7.65326
G1 X18.424 Y76.783 E7.67762
G1 X17.847 Y76.514 E7.70199
G1 X17.308 Y76.174 E7.72637
G1 X16.707 Y75.665 E7.75652
G1 X16.604 Y75.563 E7.76206
G1 X16.18 Y75.087 E7.78646
G1 X15.82 Y74.562 E7.81082
G1 X15.528 Y73.996 E7.83519
G1 X15.309 Y73.398 E7.85957
G1 X15.167 Y72.778 E7.88391
G1 X15.1 Y71.971 E7.9149
G1 X15.073 Y62.125 E8.2917
G1 X15.111 Y61.489 E8.31609
G1 X15.229 Y60.863 E8.34047
G1 X15.424 Y60.257 E8.36483
G1 X15.602 Y59.856 E8.38162
G1 X25.51 Y39.88 E9.23497
G1 X25.828 Y39.328 E9.25935
G1 X26.213 Y38.821 E9.28371
G1 X26.658 Y38.366 E9.30807
G1 X26.817 Y38.246 E9.31569
G0 F972 X27.371 Y37.829
G0 F4320 X27.556 Y38.126
G1 F2400 E9.34225
G1 F1080 X27.641 Y38.073 E9.34608
G1 X28.182 Y37.782 E9.36959
G1 X28.757 Y37.564 E9.39313
G1 X29.355 Y37.423 E9.41664
G1 X30.128 Y37.357 E9.44633
G1 X37.927 Y37.335 E9.7448
G1 X38.54 Y37.373 E9.7683
G1 X39.143 Y37.491 E9.79182
G1 X39.726 Y37.686 E9.81534
G1 X39.999 Y37.818 E9.82695
G1 X40.31 Y37.664 E9.84023
G1 X40.891 Y37.465 E9.86373
G1 X41.494 Y37.343 E9.88728
G1 X42.128 Y37.3 E9.9116
G1 X77.872 Y37.3 E11.27952
G1 X78.485 Y37.34 E11.30303
G1 X79.088 Y37.459 E11.32655
G1 X79.615 Y37.638 E11.34785
G1 X79.878 Y37.242 E11.36604
G1 X80.296 Y36.763 E11.39037
G1 X80.399 Y36.66 E11.39595
G1 X80.861 Y36.255 E11.41946
G1 X81.371 Y35.913 E11.44296
G1 X81.922 Y35.64 E11.46649
G1 X82.503 Y35.441 E11.48999
G1 X83.106 Y35.319 E11.51354
G1 X83.74 Y35.276 E11.53786
G1 X98.484 Y35.276 E12.10211
G1 X99.097 Y35.316 E12.12562
G1 X99.7 Y35.435 E12.14914
G1 X100.282 Y35.632 E12.17266
G1 X100.834 Y35.902 E12.19617
G1 X101.346 Y36.242 E12.21969
G1 X101.825 Y36.66 E12.24402
G1 X101.928 Y36.763 E12.2496
G1 X102.333 Y37.225 E12.27311
G1 X102.675 Y37.735 E12.29661
G1 X102.948 Y38.286 E12.32014
G1 X103.147 Y38.867 E12.34365
G1 X103.269 Y39.47 E12.36719
G1 X103.312 Y40.104 E12.39151
G1 X103.312 Y49.948 E12.76824
G1 X103.272 Y50.561 E12.79175
G1 X103.153 Y51.164 E12.81527
G1 X102.956 Y51.746 E12.83878
G1 X102.814 Y52.059 E12.85194
G1 X92.849 Y72.01 E13.7054
G1 X92.539 Y72.541 E13.72893
G1 X92.163 Y73.027 E13.75245
G1 X91.727 Y73.46 E13.77597
G1 X91.109 Y73.917 E13.80538
G1 X91.025 Y73.969 E13.80916
G1 X90.483 Y74.257 E13.83265
G1 X89.907 Y74.473 E13.85619
G1 X89.309 Y74.613 E13.8797
G1 X88.538 Y74.676 E13.9093
G1 X82.691 Y74.676 E14.13307
G1 X82.7 Y77.858 E14.25484
G1 X82.662 Y78.472 E14.27838
G1 X82.544 Y79.075 E14.3019
G1 X82.35 Y79.658 E14.32541
G1 X82.081 Y80.21 E14.34891
G1 X81.743 Y80.723 E14.37242
G1 X81.316 Y81.213 E14.3973
G1 X81.213 Y81.316 E14.40287
G1 X80.751 Y81.721 E14.42638
G1 X80.241 Y82.063 E14.44988
G1 X79.69 Y82.336 E14.47342
G1 X79.109 Y82.535 E14.49692
G1 X78.506 Y82.657 E14.52046
G1 X77.872 Y82.7 E14.54478
G1 X42.128 Y82.7 E15.9127
G1 X41.515 Y82.66 E15.93621
G1 X40.912 Y82.541 E15.95973
G1 X40.33 Y82.344 E15.98325
G1 X39.778 Y82.074 E16.00677
G1 X39.266 Y81.734 E16.03029
G1 X38.787 Y81.316 E16.05462
G1 X38.684 Y81.213 E16.06019
G1 X38.279 Y80.751 E16.0837
G1 X37.937 Y80.241 E16.1072
G1 X37.664 Y79.69 E16.13074
G1 X37.465 Y79.109 E16.15424
G1 X37.343 Y78.506 E16.17778
G1 X37.3 Y77.872 E16.2021
G1 X37.3 Y76.152 E16.26793
G1 X36.862 Y76.371 E16.28667
G1 X36.282 Y76.573 E16.31017
G1 X35.68 Y76.698 E16.3337
G1 X35.036 Y76.744 E16.35841
G1 X20.291 Y76.784 E16.9227
G1 X19.678 Y76.746 E16.94621
G1 X19.074 Y76.628 E16.96976
G1 X18.492 Y76.433 E16.99325
G1 X17.939 Y76.164 E17.01678
G1 X17.426 Y75.826 E17.04029
G1 X16.953 Y75.416 E17.06425
G1 X16.85 Y75.314 E17.0698
G1 X16.443 Y74.854 E17.0933
G1 X16.098 Y74.346 E17.1168
G1 X15.823 Y73.796 E17.14034
G1 X15.621 Y73.216 E17.16384
G1 X15.496 Y72.614 E17.18737
G1 X15.45 Y71.97 E17.21208
G1 X15.423 Y62.124 E17.58889
G1 X15.461 Y61.511 E17.61239
G1 X15.579 Y60.908 E17.63591
G1 X15.774 Y60.325 E17.65943
G1 X15.915 Y60.011 E17.67261
G1 X25.823 Y40.035 E18.52596
G1 X26.131 Y39.504 E18.54945
G1 X26.506 Y39.017 E18.57297
G1 X26.941 Y38.582 E18.59651
G1 X26.999 Y38.539 E18.59928
G0 F972 X27.556 Y38.126
G0 F4320 X27.741 Y38.423
G1 F2400 E18.62584
G1 F1080 X27.826 Y38.37 E18.62967
G1 X28.348 Y38.091 E18.65232
G1 X28.902 Y37.886 E18.67493
G1 X29.479 Y37.757 E18.69755
G1 X30.129 Y37.707 E18.7225
G1 X37.928 Y37.685 E19.02097
G1 X38.518 Y37.723 E19.0436
G1 X39.097 Y37.841 E19.06621
G1 X39.656 Y38.035 E19.08886
G1 X39.995 Y38.207 E19.1034
G1 X40.507 Y37.962 E19.12513
G1 X41.069 Y37.78 E19.14773
G1 X41.651 Y37.676 E19.17036
G1 X42.128 Y37.65 E19.18864
G1 X77.872 Y37.65 E20.55656
G1 X78.462 Y37.69 E20.57919
G1 X79.041 Y37.809 E20.60181
G1 X79.599 Y38.005 E20.62445
G1 X79.764 Y38.09 E20.63155
G1 X79.887 Y37.851 E20.64184
G1 X80.225 Y37.366 E20.66446
G1 X80.543 Y37.01 E20.68273
G1 X80.646 Y36.907 E20.6883
G1 X81.092 Y36.519 E20.71093
G1 X81.586 Y36.193 E20.73358
G1 X82.119 Y35.938 E20.75619
G1 X82.681 Y35.756 E20.7788
G1 X83.263 Y35.652 E20.80142
G1 X83.74 Y35.626 E20.81971
G1 X98.484 Y35.626 E21.38396
G1 X99.074 Y35.666 E21.40659
G1 X99.653 Y35.785 E21.42921
G1 X100.211 Y35.981 E21.45184
G1 X100.737 Y36.251 E21.47447
G1 X101.222 Y36.589 E21.49709
G1 X101.578 Y36.907 E21.51536
G1 X101.681 Y37.01 E21.52094
G1 X102.069 Y37.456 E21.54356
G1 X102.395 Y37.95 E21.56621
G1 X102.65 Y38.483 E21.58882
G1 X102.832 Y39.045 E21.61143
G1 X102.936 Y39.627 E21.63406
G1 X102.962 Y40.104 E21.65234
G1 X102.962 Y49.948 E22.02907
G1 X102.922 Y50.538 E22.0517
G1 X102.803 Y51.117 E22.07432
G1 X102.501 Y51.903 E22.10654
G1 X92.536 Y71.854 E22.96001
G1 X92.237 Y72.364 E22.98264
G1 X91.871 Y72.829 E23.00528
G1 X91.447 Y73.24 E23.02788
G1 X90.925 Y73.619 E23.05257
G1 X90.841 Y73.671 E23.05635
G1 X90.318 Y73.947 E23.07898
G1 X89.763 Y74.151 E23.10161
G1 X89.186 Y74.278 E23.12422
G1 X88.538 Y74.326 E23.14909
G1 X82.34 Y74.326 E23.38628
G1 X82.35 Y77.859 E23.52149
G1 X82.312 Y78.449 E23.54412
G1 X82.194 Y79.029 E23.56677
G1 X82 Y79.587 E23.58938
G1 X81.732 Y80.114 E23.612
G1 X81.395 Y80.6 E23.63464
G1 X81.069 Y80.966 E23.65339
G1 X80.966 Y81.069 E23.65897
G1 X80.52 Y81.457 E23.68159
G1 X80.026 Y81.783 E23.70424
G1 X79.493 Y82.038 E23.72685
G1 X78.931 Y82.22 E23.74946
G1 X78.349 Y82.324 E23.77209
G1 X77.872 Y82.35 E23.79037
G1 X42.128 Y82.35 E25.15829
G1 X41.538 Y82.31 E25.18092
G1 X40.959 Y82.191 E25.20354
G1 X40.401 Y81.995 E25.22618
G1 X39.875 Y81.725 E25.2488
G1 X39.39 Y81.387 E25.27143
G1 X39.034 Y81.069 E25.2897
G1 X38.931 Y80.966 E25.29527
G1 X38.543 Y80.52 E25.31789
G1 X38.217 Y80.026 E25.34054
G1 X37.962 Y79.493 E25.36316
G1 X37.78 Y78.931 E25.38576
G1 X37.676 Y78.349 E25.40839
G1 X37.65 Y77.872 E25.42667
G1 X37.65 Y75.514 E25.51691
G1 X37.196 Y75.816 E25.53778
G1 X36.664 Y76.075 E25.56042
G1 X36.102 Y76.259 E25.58306
G1 X35.521 Y76.366 E25.60566
G1 X35.035 Y76.394 E25.62429
G1 X20.29 Y76.434 E26.18859
G1 X19.7 Y76.396 E26.21121
G1 X19.12 Y76.278 E26.23386
G1 X18.562 Y76.083 E26.25648
G1 X18.035 Y75.815 E26.27911
G1 X17.549 Y75.479 E26.30172
G1 X17.2 Y75.168 E26.31961
G1 X17.097 Y75.066 E26.32516
G1 X16.705 Y74.622 E26.34783
G1 X16.378 Y74.13 E26.37043
G1 X16.119 Y73.598 E26.39308
G1 X15.935 Y73.036 E26.41571
G1 X15.828 Y72.455 E26.43832
G1 X15.8 Y71.969 E26.45695
G1 X15.773 Y62.123 E26.83376
G1 X15.811 Y61.533 E26.85638
G1 X15.929 Y60.954 E26.879
G1 X16.229 Y60.167 E26.91123
G1 X26.137 Y40.191 E27.76458
G1 X26.435 Y39.68 E27.78722
G1 X26.799 Y39.214 E27.80985
G1 X27.185 Y38.838 E27.83047
G0 F972 X27.222 Y38.802
G0 X27.741 Y38.423
G0 F4320 X27.926 Y38.72
G1 F2400 E27.85703
G1 F1080 X28.011 Y38.667 E27.86086
G1 X28.513 Y38.401 E27.8826
G1 X29.046 Y38.209 E27.90428
G1 X29.601 Y38.093 E27.92598
G1 X30.13 Y38.057 E27.94628
G1 X37.929 Y38.035 E28.24474
G1 X38.494 Y38.073 E28.26641
G1 X39.049 Y38.191 E28.28813
G1 X39.582 Y38.385 E28.30984
G1 X40.009 Y38.613 E28.32836
G1 X40.186 Y38.499 E28.33642
G1 X40.701 Y38.261 E28.35813
G1 X41.244 Y38.098 E28.37983
G1 X41.805 Y38.013 E28.40154
G1 X42.128 Y38 E28.41391
G1 X77.872 Y38 E29.78183
G1 X78.438 Y38.04 E29.80355
G1 X78.992 Y38.159 E29.82523
G1 X79.524 Y38.355 E29.84693
G1 X79.924 Y38.569 E29.86429
G1 X79.967 Y38.452 E29.86906
G1 X80.235 Y37.952 E29.89077
G1 X80.572 Y37.496 E29.91247
G1 X80.791 Y37.258 E29.92485
G1 X80.894 Y37.155 E29.93042
G1 X81.322 Y36.783 E29.95213
G1 X81.798 Y36.475 E29.97382
G1 X82.313 Y36.237 E29.99554
G1 X82.856 Y36.074 E30.01723
G1 X83.417 Y35.989 E30.03895
G1 X83.74 Y35.976 E30.05132
G1 X98.484 Y35.976 E30.61557
G1 X99.05 Y36.016 E30.63728
G1 X99.604 Y36.135 E30.65897
G1 X100.136 Y36.331 E30.68067
G1 X100.636 Y36.599 E30.70238
G1 X101.092 Y36.936 E30.72408
G1 X101.33 Y37.155 E30.73645
G1 X101.433 Y37.258 E30.74203
G1 X101.805 Y37.686 E30.76373
G1 X102.113 Y38.162 E30.78543
G1 X102.351 Y38.677 E30.80714
G1 X102.514 Y39.22 E30.82884
G1 X102.599 Y39.781 E30.85055
G1 X102.612 Y40.104 E30.86292
G1 X102.612 Y49.948 E31.23965
G1 X102.572 Y50.514 E31.26137
G1 X102.453 Y51.068 E31.28305
G1 X102.188 Y51.747 E31.31095
G1 X92.223 Y71.698 E32.16441
G1 X91.934 Y72.186 E32.18612
G1 X91.58 Y72.629 E32.20782
G1 X91.167 Y73.017 E32.2295
G1 X90.741 Y73.321 E32.24953
G1 X90.657 Y73.373 E32.25331
G1 X90.155 Y73.637 E32.27502
G1 X89.62 Y73.828 E32.29676
G1 X89.065 Y73.941 E32.31844
G1 X88.538 Y73.976 E32.33865
G1 X81.989 Y73.976 E32.58928
G1 X82 Y77.86 E32.73792
G1 X81.962 Y78.426 E32.75963
G1 X81.844 Y78.981 E32.78134
G1 X81.65 Y79.514 E32.80305
G1 X81.383 Y80.014 E32.82474
G1 X81.048 Y80.472 E32.84646
G1 X80.821 Y80.718 E32.85927
G1 X80.718 Y80.821 E32.86484
G1 X80.29 Y81.193 E32.88655
G1 X79.814 Y81.501 E32.90824
G1 X79.299 Y81.739 E32.92995
G1 X78.756 Y81.902 E32.95165
G1 X78.195 Y81.987 E32.97337
G1 X77.872 Y82 E32.98574
G1 X42.128 Y82 E34.35366
G1 X41.562 Y81.96 E34.37537
G1 X41.008 Y81.841 E34.39706
G1 X40.476 Y81.645 E34.41876
G1 X39.976 Y81.377 E34.44047
G1 X39.52 Y81.04 E34.46217
G1 X39.282 Y80.821 E34.47454
G1 X39.179 Y80.718 E34.48012
G1 X38.807 Y80.29 E34.50182
G1 X38.499 Y79.814 E34.52352
G1 X38.261 Y79.299 E34.54523
G1 X38.098 Y78.756 E34.56692
G1 X38.013 Y78.195 E34.58864
G1 X38 Y77.872 E34.60101
G1 X38 Y74.732 E34.72118
G1 X37.985 Y74.748 E34.72202
G1 X37.883 Y74.851 E34.72757
G1 X37.457 Y75.225 E34.74926
G1 X36.982 Y75.535 E34.77097
G1 X36.468 Y75.776 E34.79269
G1 X35.926 Y75.941 E34.81437
G1 X35.366 Y76.029 E34.83607
G1 X35.034 Y76.044 E34.84879
G1 X20.289 Y76.084 E35.41308
G1 X19.723 Y76.046 E35.43479
G1 X19.168 Y75.928 E35.4565
G1 X18.636 Y75.734 E35.47817
G1 X18.135 Y75.466 E35.49992
G1 X17.678 Y75.131 E35.5216
G1 X17.446 Y74.919 E35.53363
G1 X17.343 Y74.817 E35.53918
G1 X16.969 Y74.391 E35.56087
G1 X16.659 Y73.916 E35.58258
G1 X16.418 Y73.402 E35.60431
G1 X16.253 Y72.86 E35.62599
G1 X16.165 Y72.3 E35.64768
G1 X16.15 Y71.968 E35.6604
G1 X16.123 Y62.122 E36.03721
G1 X16.161 Y61.556 E36.05892
G1 X16.279 Y61.001 E36.08063
G1 X16.542 Y60.323 E36.10846
G1 X26.45 Y40.347 E36.96181
G1 X26.737 Y39.858 E36.98351
G1 X27.09 Y39.414 E37.00522
G1 X27.377 Y39.142 E37.02035
G0 F972 X27.502 Y39.024
G0 X27.926 Y38.72
G0 F4320 X28.112 Y39.017
G1 F2400 E37.04691
G1 F1080 X28.197 Y38.964 E37.05075
G1 X28.676 Y38.712 E37.07146
G1 X29.188 Y38.533 E37.09222
G1 X29.72 Y38.431 E37.11295
G1 X30.131 Y38.407 E37.1287
G1 X37.93 Y38.385 E37.42717
G1 X38.47 Y38.423 E37.44789
G1 X38.999 Y38.541 E37.46863
G1 X39.505 Y38.735 E37.48937
G1 X39.977 Y39.001 E37.5101
G1 X40.011 Y39.028 E37.51176
G1 X40.398 Y38.783 E37.52929
G1 X40.893 Y38.564 E37.55001
G1 X41.416 Y38.42 E37.57077
G1 X42.128 Y38.35 E37.59815
G1 X77.872 Y38.35 E38.96607
G1 X78.412 Y38.39 E38.98679
G1 X78.941 Y38.509 E39.00754
G1 X79.446 Y38.704 E39.02826
G1 X79.918 Y38.972 E39.04903
G1 X80.103 Y39.117 E39.05803
G1 X80.121 Y39.035 E39.06124
G1 X80.316 Y38.53 E39.08196
G1 X80.584 Y38.058 E39.10273
G1 X81.038 Y37.505 E39.13011
G1 X81.141 Y37.402 E39.13568
G1 X81.552 Y37.049 E39.15642
G1 X82.01 Y36.759 E39.17716
G1 X82.505 Y36.54 E39.19788
G1 X83.028 Y36.396 E39.21864
G1 X83.74 Y36.326 E39.24602
G1 X98.484 Y36.326 E39.81027
G1 X99.024 Y36.366 E39.83099
G1 X99.553 Y36.485 E39.85174
G1 X100.058 Y36.68 E39.87246
G1 X100.53 Y36.948 E39.89323
G1 X101.083 Y37.402 E39.92062
G1 X101.186 Y37.505 E39.92619
G1 X101.539 Y37.916 E39.94692
G1 X101.829 Y38.374 E39.96767
G1 X102.048 Y38.869 E39.98838
G1 X102.192 Y39.392 E40.00914
G1 X102.262 Y40.104 E40.03652
G1 X102.262 Y49.948 E40.41325
G1 X102.222 Y50.488 E40.43398
G1 X102.103 Y51.017 E40.45473
G1 X101.875 Y51.59 E40.47833
G1 X91.91 Y71.541 E41.33179
G1 X91.633 Y72.007 E41.35254
G1 X91.29 Y72.426 E41.37326
G1 X90.889 Y72.791 E41.39401
G1 X90.556 Y73.024 E41.40957
G1 X90.472 Y73.076 E41.41335
G1 X89.992 Y73.326 E41.43406
G1 X89.48 Y73.503 E41.45479
G1 X88.947 Y73.603 E41.47555
G1 X88.538 Y73.626 E41.49122
G1 X81.638 Y73.626 E41.75529
G1 X81.65 Y77.861 E41.91736
G1 X81.612 Y78.402 E41.93811
