;FLAVOR:Marlin
;TIME:1336
;Filament used: 0.85024m
;Layer height: 0.2625
;MINX:27.058
;MINY:7.811
;MINZ:0.263
;MAXX:67.158
;MAXY:59.911
;MAXZ:7.89
;Generated with Cura_SteamEngine 4.2.1
M140 S65
M105
M190 S65
M104 S190
M105
M109 S190
M82 ;absolute extrusion mode
G21;(metric values)
G90;(absolute positioning)
M82;(set extruder to absolute mode)
M107;(start with the fan off)
G28;(Home the printer)
G92 E0;(Reset the extruder to 0)
G0 Z5 E5 F500;(Move up and prime the nozzle)
G0 X-1 Z0;(Move outside the printable area)
G1 Y60 E8 F500;(Draw a priming/wiping line to the rear)
G1 X-1;(Move a little closer to the print area)
G1 Y10 E16 F500;(draw more priming/wiping)
G1 E15 F250;(Small retract)
G92 E0;(Zero the extruder)
M141 S28
G92 E0
G92 E0
G1 F2400 E-2.5
;LAYER_COUNT:30
;LAYER:0
M107
G0 F4320 X27.414 Y11.122 Z0.263
;TYPE:SKIRT
G1 F2400 E0
G1 F1080 X27.685 Y10.546 E0.02436
G1 X28.026 Y10.008 E0.04874
G1 X28.544 Y9.4 E0.07931
G1 X28.647 Y9.297 E0.08488
G1 X29.125 Y8.876 E0.10926
G1 X29.652 Y8.518 E0.13364
G1 X30.219 Y8.229 E0.15799
G1 X30.818 Y8.013 E0.18236
G1 X31.44 Y7.874 E0.20675
G1 X32.236 Y7.811 E0.23731
G1 X53.98 Y7.811 E1.06945
G1 X54.616 Y7.851 E1.09384
G1 X55.241 Y7.97 E1.11819
G1 X55.847 Y8.167 E1.14258
G1 X56.423 Y8.438 E1.16694
G1 X56.961 Y8.779 E1.19131
G1 X57.569 Y9.297 E1.22188
G1 X57.672 Y9.4 E1.22746
G1 X58.093 Y9.878 E1.25183
G1 X58.451 Y10.405 E1.27621
G1 X58.658 Y10.811 E1.29365
G1 X61.98 Y10.811 E1.42079
G1 X62.616 Y10.851 E1.44518
G1 X63.241 Y10.97 E1.46952
G1 X63.847 Y11.167 E1.49391
G1 X64.423 Y11.438 E1.51827
G1 X64.961 Y11.779 E1.54265
G1 X65.569 Y12.297 E1.57322
G1 X65.672 Y12.4 E1.57879
G1 X66.093 Y12.878 E1.60317
G1 X66.451 Y13.405 E1.62755
G1 X66.74 Y13.972 E1.6519
G1 X66.956 Y14.571 E1.67627
G1 X67.095 Y15.193 E1.70066
G1 X67.158 Y15.989 E1.73122
G1 X67.158 Y30.733 E2.29547
G1 X67.118 Y31.369 E2.31986
G1 X66.999 Y31.994 E2.34421
G1 X66.802 Y32.6 E2.3686
G1 X66.531 Y33.176 E2.39296
G1 X66.19 Y33.714 E2.41733
G1 X65.672 Y34.322 E2.4479
G1 X65.569 Y34.425 E2.45348
G1 X65.091 Y34.846 E2.47785
G1 X64.564 Y35.204 E2.50223
G1 X64.258 Y35.36 E2.51538
G1 X64.423 Y35.438 E2.52236
G1 X64.961 Y35.779 E2.54674
G1 X65.569 Y36.297 E2.57731
G1 X65.672 Y36.4 E2.58288
G1 X66.093 Y36.878 E2.60726
G1 X66.451 Y37.405 E2.63164
G1 X66.74 Y37.972 E2.656
G1 X66.956 Y38.571 E2.68036
G1 X67.095 Y39.193 E2.70476
G1 X67.158 Y39.989 E2.73531
G1 X67.158 Y54.733 E3.29957
G1 X67.118 Y55.369 E3.32395
G1 X66.999 Y55.994 E3.3483
G1 X66.802 Y56.6 E3.37269
G1 X66.531 Y57.176 E3.39705
G1 X66.19 Y57.714 E3.42143
G1 X65.672 Y58.322 E3.45199
G1 X65.569 Y58.425 E3.45757
G1 X65.091 Y58.846 E3.48195
G1 X64.564 Y59.204 E3.50633
G1 X63.997 Y59.493 E3.53068
G1 X63.398 Y59.709 E3.55505
G1 X62.776 Y59.848 E3.57944
G1 X61.98 Y59.911 E3.61
G1 X52.136 Y59.911 E3.98673
G1 X51.5 Y59.871 E4.01112
G1 X50.875 Y59.752 E4.03547
G1 X50.269 Y59.555 E4.05985
G1 X49.905 Y59.395 E4.07507
G1 X49.016 Y58.96 E4.11294
G1 X48.978 Y58.94 E4.11459
G1 X29.916 Y49.41 E4.93018
G1 X29.365 Y49.09 E4.95456
G1 X28.859 Y48.704 E4.97892
G1 X28.405 Y48.257 E5.0033
G1 X27.87 Y47.542 E5.03748
G1 X27.818 Y47.458 E5.04126
G1 X27.517 Y46.897 E5.06562
G1 X27.289 Y46.302 E5.09001
G1 X27.138 Y45.684 E5.11435
G1 X27.058 Y44.787 E5.14882
G1 X27.058 Y36.989 E5.44725
G1 X27.098 Y36.353 E5.47164
G1 X27.217 Y35.728 E5.49598
G1 X27.414 Y35.122 E5.52037
G1 X27.685 Y34.546 E5.54473
G1 X28.026 Y34.008 E5.56911
G1 X28.544 Y33.4 E5.59968
G1 X28.647 Y33.297 E5.60525
G1 X29.125 Y32.876 E5.62963
G1 X29.652 Y32.518 E5.65401
G1 X30.219 Y32.229 E5.67836
G1 X30.818 Y32.013 E5.70273
G1 X31.44 Y31.874 E5.72712
G1 X32.236 Y31.811 E5.75768
G1 X42.719 Y31.811 E6.15887
G1 X29.916 Y25.41 E6.70666
G1 X29.365 Y25.09 E6.73105
G1 X28.859 Y24.704 E6.7554
G1 X28.405 Y24.257 E6.77978
G1 X27.87 Y23.542 E6.81396
G1 X27.818 Y23.458 E6.81774
G1 X27.517 Y22.897 E6.8421
G1 X27.289 Y22.302 E6.86649
G1 X27.138 Y21.684 E6.89084
G1 X27.058 Y20.787 E6.9253
G1 X27.058 Y12.989 E7.22373
G1 X27.098 Y12.353 E7.24812
G1 X27.207 Y11.784 E7.27029
G0 F972 X27.217 Y11.728
G0 X27.414 Y11.122
G0 F4320 X27.764 Y11.191
G1 F2400 E7.29685
G1 F1080 X28.034 Y10.639 E7.32036
G1 X28.374 Y10.127 E7.34389
G1 X28.792 Y9.648 E7.36822
G1 X28.895 Y9.545 E7.37379
G1 X29.357 Y9.14 E7.3973
G1 X29.867 Y8.798 E7.4208
G1 X30.418 Y8.525 E7.44434
G1 X30.999 Y8.326 E7.46784
G1 X31.602 Y8.204 E7.49138
G1 X32.236 Y8.161 E7.5157
G1 X53.98 Y8.161 E8.34784
G1 X54.593 Y8.201 E8.37135
G1 X55.196 Y8.32 E8.39487
G1 X55.778 Y8.517 E8.41839
G1 X56.33 Y8.787 E8.44191
G1 X56.842 Y9.127 E8.46543
G1 X57.321 Y9.545 E8.48976
G1 X57.424 Y9.648 E8.49533
G1 X57.829 Y10.11 E8.51884
G1 X58.171 Y10.62 E8.54234
G1 X58.439 Y11.161 E8.56545
G1 X61.98 Y11.161 E8.70096
G1 X62.593 Y11.201 E8.72447
G1 X63.196 Y11.32 E8.74799
G1 X63.778 Y11.517 E8.77151
G1 X64.33 Y11.787 E8.79502
G1 X64.842 Y12.127 E8.81855
G1 X65.321 Y12.545 E8.84288
G1 X65.424 Y12.648 E8.84845
G1 X65.829 Y13.11 E8.87196
G1 X66.171 Y13.62 E8.89546
G1 X66.444 Y14.171 E8.919
G1 X66.643 Y14.752 E8.9425
G1 X66.765 Y15.355 E8.96604
G1 X66.808 Y15.989 E8.99036
G1 X66.808 Y30.733 E9.55461
G1 X66.768 Y31.346 E9.57812
G1 X66.649 Y31.949 E9.60164
G1 X66.452 Y32.531 E9.62516
G1 X66.182 Y33.083 E9.64868
G1 X65.842 Y33.595 E9.6722
G1 X65.424 Y34.074 E9.69653
G1 X65.321 Y34.177 E9.7021
G1 X64.859 Y34.582 E9.72561
G1 X64.349 Y34.924 E9.74911
G1 X63.798 Y35.197 E9.77265
G1 X63.318 Y35.361 E9.79206
G1 X63.778 Y35.517 E9.81065
G1 X64.33 Y35.787 E9.83416
G1 X64.842 Y36.127 E9.85769
G1 X65.321 Y36.545 E9.88202
G1 X65.424 Y36.648 E9.88759
G1 X65.829 Y37.11 E9.9111
G1 X66.171 Y37.62 E9.9346
G1 X66.444 Y38.171 E9.95814
G1 X66.643 Y38.752 E9.98164
G1 X66.765 Y39.355 E10.00518
G1 X66.808 Y39.989 E10.0295
G1 X66.808 Y54.733 E10.59375
G1 X66.768 Y55.346 E10.61726
G1 X66.649 Y55.949 E10.64078
G1 X66.452 Y56.531 E10.6643
G1 X66.182 Y57.083 E10.68782
G1 X65.842 Y57.595 E10.71134
G1 X65.424 Y58.074 E10.73567
G1 X65.321 Y58.177 E10.74124
G1 X64.859 Y58.582 E10.76475
G1 X64.349 Y58.924 E10.78825
G1 X63.798 Y59.197 E10.81179
G1 X63.217 Y59.396 E10.83529
G1 X62.614 Y59.518 E10.85883
G1 X61.98 Y59.561 E10.88315
G1 X52.136 Y59.561 E11.25988
G1 X51.523 Y59.521 E11.28339
G1 X50.92 Y59.402 E11.30691
G1 X50.059 Y59.08 E11.34209
G1 X49.17 Y58.645 E11.37997
G1 X49.134 Y58.627 E11.38151
G1 X30.072 Y49.097 E12.1971
G1 X29.541 Y48.787 E12.22063
G1 X29.056 Y48.411 E12.24412
G1 X28.623 Y47.975 E12.26763
G1 X28.167 Y47.358 E12.29699
G1 X28.115 Y47.274 E12.30077
G1 X27.827 Y46.732 E12.32426
G1 X27.611 Y46.156 E12.34781
G1 X27.471 Y45.558 E12.37131
G1 X27.408 Y44.787 E12.40091
G1 X27.408 Y36.989 E12.69934
G1 X27.448 Y36.376 E12.72285
G1 X27.567 Y35.773 E12.74637
G1 X27.764 Y35.191 E12.76989
G1 X28.034 Y34.639 E12.79341
G1 X28.374 Y34.127 E12.81693
G1 X28.792 Y33.648 E12.84126
G1 X28.895 Y33.545 E12.84683
G1 X29.357 Y33.14 E12.87034
G1 X29.867 Y32.798 E12.89384
G1 X30.418 Y32.525 E12.91738
G1 X30.999 Y32.326 E12.94088
G1 X31.602 Y32.204 E12.96442
G1 X32.236 Y32.161 E12.98874
G1 X44.201 Y32.161 E13.44664
G1 X30.072 Y25.097 E14.05117
G1 X29.541 Y24.787 E14.0747
G1 X29.056 Y24.411 E14.09819
G1 X28.623 Y23.975 E14.12171
G1 X28.167 Y23.358 E14.15107
G1 X28.115 Y23.274 E14.15485
G1 X27.827 Y22.732 E14.17834
G1 X27.611 Y22.156 E14.20188
G1 X27.471 Y21.558 E14.22538
G1 X27.408 Y20.787 E14.25499
G1 X27.408 Y12.989 E14.55342
G1 X27.448 Y12.376 E14.57693
G1 X27.552 Y11.851 E14.59741
G0 F972 X27.567 Y11.773
G0 X27.764 Y11.191
G0 F4320 X28.113 Y11.262
G1 F2400 E14.62397
G1 F1080 X28.383 Y10.736 E14.64659
G1 X28.721 Y10.251 E14.66922
G1 X29.039 Y9.895 E14.68749
G1 X29.142 Y9.792 E14.69306
G1 X29.588 Y9.404 E14.71568
G1 X30.082 Y9.078 E14.73833
G1 X30.615 Y8.823 E14.76095
G1 X31.177 Y8.641 E14.78355
G1 X31.759 Y8.537 E14.80618
G1 X32.236 Y8.511 E14.82446
G1 X53.98 Y8.511 E15.6566
G1 X54.57 Y8.551 E15.67923
G1 X55.149 Y8.67 E15.70186
G1 X55.707 Y8.866 E15.72449
G1 X56.233 Y9.136 E15.74712
G1 X56.718 Y9.474 E15.76974
G1 X57.074 Y9.792 E15.78801
G1 X57.177 Y9.895 E15.79358
G1 X57.565 Y10.341 E15.81621
G1 X57.891 Y10.835 E15.83886
G1 X58.146 Y11.368 E15.86147
G1 X58.192 Y11.511 E15.86722
G1 X61.98 Y11.511 E16.01218
G1 X62.57 Y11.551 E16.03482
G1 X63.149 Y11.67 E16.05744
G1 X63.707 Y11.866 E16.08007
G1 X64.233 Y12.136 E16.1027
G1 X64.718 Y12.474 E16.12532
G1 X65.074 Y12.792 E16.14359
G1 X65.177 Y12.895 E16.14916
G1 X65.565 Y13.341 E16.17179
G1 X65.891 Y13.835 E16.19444
G1 X66.146 Y14.368 E16.21705
G1 X66.328 Y14.93 E16.23966
G1 X66.432 Y15.512 E16.26228
G1 X66.458 Y15.989 E16.28057
G1 X66.458 Y30.733 E16.84482
G1 X66.418 Y31.323 E16.86745
G1 X66.299 Y31.902 E16.89007
G1 X66.103 Y32.46 E16.9127
G1 X65.833 Y32.986 E16.93533
G1 X65.495 Y33.471 E16.95795
G1 X65.177 Y33.827 E16.97622
G1 X65.074 Y33.93 E16.9818
G1 X64.628 Y34.318 E17.00442
G1 X64.134 Y34.644 E17.02707
G1 X63.601 Y34.899 E17.04968
G1 X63.039 Y35.081 E17.07229
G1 X62.457 Y35.185 E17.09492
G1 X61.98 Y35.211 E17.1132
G1 X58.071 Y35.211 E17.2628
G1 X58.146 Y35.368 E17.26946
G1 X58.192 Y35.511 E17.2752
G1 X61.98 Y35.511 E17.42017
G1 X62.57 Y35.551 E17.4428
G1 X63.149 Y35.67 E17.46542
G1 X63.707 Y35.866 E17.48806
G1 X64.233 Y36.136 E17.51068
G1 X64.718 Y36.474 E17.53331
G1 X65.074 Y36.792 E17.55158
G1 X65.177 Y36.895 E17.55715
G1 X65.565 Y37.341 E17.57977
G1 X65.891 Y37.835 E17.60242
G1 X66.146 Y38.368 E17.62504
G1 X66.328 Y38.93 E17.64764
G1 X66.432 Y39.512 E17.67027
G1 X66.458 Y39.989 E17.68855
G1 X66.458 Y54.733 E18.2528
G1 X66.418 Y55.323 E18.27543
G1 X66.299 Y55.902 E18.29806
G1 X66.103 Y56.46 E18.32069
G1 X65.833 Y56.986 E18.34332
G1 X65.495 Y57.471 E18.36594
G1 X65.177 Y57.827 E18.38421
G1 X65.074 Y57.93 E18.38978
G1 X64.628 Y58.318 E18.41241
G1 X64.134 Y58.644 E18.43506
G1 X63.601 Y58.899 E18.45767
G1 X63.039 Y59.081 E18.48028
G1 X62.457 Y59.185 E18.5029
G1 X61.98 Y59.211 E18.52118
G1 X52.136 Y59.211 E18.89791
G1 X51.546 Y59.171 E18.92054
G1 X50.967 Y59.052 E18.94317
G1 X50.213 Y58.766 E18.97403
G1 X49.324 Y58.331 E19.0119
G1 X49.291 Y58.314 E19.01333
G1 X30.229 Y48.784 E19.82892
G1 X29.719 Y48.485 E19.85154
G1 X29.254 Y48.119 E19.87419
G1 X28.843 Y47.694 E19.89681
G1 X28.465 Y47.174 E19.92142
G1 X28.413 Y47.09 E19.9252
G1 X28.137 Y46.567 E19.94783
G1 X27.933 Y46.012 E19.97046
G1 X27.806 Y45.435 E19.99307
G1 X27.758 Y44.787 E20.01793
G1 X27.758 Y36.989 E20.31636
G1 X27.798 Y36.399 E20.33899
G1 X27.917 Y35.82 E20.36162
G1 X28.113 Y35.262 E20.38425
G1 X28.383 Y34.736 E20.40688
G1 X28.721 Y34.251 E20.4295
G1 X29.039 Y33.895 E20.44777
G1 X29.142 Y33.792 E20.45334
G1 X29.588 Y33.404 E20.47597
G1 X30.082 Y33.078 E20.49862
G1 X30.615 Y32.823 E20.52123
G1 X31.177 Y32.641 E20.54384
G1 X31.759 Y32.537 E20.56646
G1 X32.236 Y32.511 E20.58474
G1 X45.685 Y32.511 E21.09944
G1 X30.229 Y24.784 E21.76074
G1 X29.719 Y24.485 E21.78336
G1 X29.254 Y24.119 E21.80601
G1 X28.843 Y23.694 E21.82863
G1 X28.465 Y23.174 E21.85324
G1 X28.413 Y23.09 E21.85702
G1 X28.137 Y22.567 E21.87965
G1 X27.933 Y22.012 E21.90228
G1 X27.806 Y21.435 E21.92489
G1 X27.758 Y20.787 E21.94976
G1 X27.758 Y12.989 E22.24818
G1 X27.798 Y12.399 E22.27082
G1 X27.897 Y11.92 E22.28953
G0 F972 X27.917 Y11.82
G0 X28.113 Y11.262
G0 F4320 X28.463 Y11.337
G1 F2400 E22.31609
G1 F1080 X28.731 Y10.837 E22.3378
G1 X29.068 Y10.381 E22.3595
G1 X29.287 Y10.143 E22.37188
G1 X29.39 Y10.04 E22.37746
G1 X29.818 Y9.668 E22.39916
G1 X30.294 Y9.36 E22.42085
G1 X30.809 Y9.122 E22.44257
G1 X31.352 Y8.959 E22.46426
G1 X31.913 Y8.874 E22.48598
G1 X32.236 Y8.861 E22.49835
G1 X53.98 Y8.861 E23.33049
G1 X54.546 Y8.901 E23.35221
G1 X55.1 Y9.02 E23.37389
G1 X55.632 Y9.216 E23.39559
G1 X56.132 Y9.484 E23.4173
G1 X56.588 Y9.821 E23.439
G1 X56.826 Y10.04 E23.45138
G1 X56.929 Y10.143 E23.45695
G1 X57.301 Y10.571 E23.47865
G1 X57.609 Y11.047 E23.50035
G1 X57.847 Y11.562 E23.52206
G1 X57.937 Y11.861 E23.53401
G1 X61.98 Y11.861 E23.68874
G1 X62.546 Y11.901 E23.71045
G1 X63.1 Y12.02 E23.73214
G1 X63.632 Y12.216 E23.75383
G1 X64.132 Y12.484 E23.77554
G1 X64.588 Y12.821 E23.79724
G1 X64.826 Y13.04 E23.80962
G1 X64.929 Y13.143 E23.8152
G1 X65.301 Y13.571 E23.8369
G1 X65.609 Y14.047 E23.85859
G1 X65.847 Y14.562 E23.88031
G1 X66.01 Y15.105 E23.902
G1 X66.095 Y15.666 E23.92372
G1 X66.108 Y15.989 E23.93609
G1 X66.108 Y30.733 E24.50034
G1 X66.068 Y31.299 E24.52206
G1 X65.949 Y31.853 E24.54374
G1 X65.753 Y32.385 E24.56544
G1 X65.485 Y32.885 E24.58715
G1 X65.148 Y33.341 E24.60885
G1 X64.929 Y33.579 E24.62123
G1 X64.826 Y33.682 E24.6268
G1 X64.398 Y34.054 E24.6485
G1 X63.922 Y34.362 E24.6702
G1 X63.407 Y34.6 E24.69191
G1 X62.864 Y34.763 E24.71361
G1 X62.303 Y34.848 E24.73532
G1 X61.98 Y34.861 E24.74769
G1 X57.489 Y34.861 E24.91956
G1 X57.609 Y35.047 E24.92804
G1 X57.847 Y35.562 E24.94975
G1 X57.937 Y35.861 E24.9617
G1 X61.98 Y35.861 E25.11642
G1 X62.546 Y35.901 E25.13814
G1 X63.1 Y36.02 E25.15982
G1 X63.632 Y36.216 E25.18152
G1 X64.132 Y36.484 E25.20323
G1 X64.588 Y36.821 E25.22493
G1 X64.826 Y37.04 E25.23731
G1 X64.929 Y37.143 E25.24288
G1 X65.301 Y37.571 E25.26458
G1 X65.609 Y38.047 E25.28628
G1 X65.847 Y38.562 E25.30799
G1 X66.01 Y39.105 E25.32969
G1 X66.095 Y39.666 E25.3514
G1 X66.108 Y39.989 E25.36378
G1 X66.108 Y54.733 E25.92803
G1 X66.068 Y55.299 E25.94974
G1 X65.949 Y55.853 E25.97143
G1 X65.753 Y56.385 E25.99312
G1 X65.485 Y56.885 E26.01483
G1 X65.148 Y57.341 E26.03653
G1 X64.929 Y57.579 E26.04891
G1 X64.826 Y57.682 E26.05449
G1 X64.398 Y58.054 E26.07619
G1 X63.922 Y58.362 E26.09789
G1 X63.407 Y58.6 E26.1196
G1 X62.864 Y58.763 E26.14129
G1 X62.303 Y58.848 E26.16301
G1 X61.98 Y58.861 E26.17538
G1 X52.136 Y58.861 E26.55211
G1 X51.57 Y58.821 E26.57382
G1 X51.016 Y58.702 E26.59551
G1 X50.367 Y58.451 E26.62214
G1 X49.478 Y58.016 E26.66002
G1 X49.447 Y58.001 E26.66133
G1 X30.385 Y48.471 E27.47692
G1 X29.897 Y48.182 E27.49863
G1 X29.454 Y47.828 E27.52033
G1 X29.066 Y47.415 E27.54202
G1 X28.763 Y46.99 E27.56199
G1 X28.711 Y46.906 E27.56577
G1 X28.447 Y46.404 E27.58748
G1 X28.256 Y45.869 E27.60922
G1 X28.143 Y45.314 E27.63089
G1 X28.108 Y44.787 E27.65111
G1 X28.108 Y36.989 E27.94954
G1 X28.148 Y36.423 E27.97125
G1 X28.267 Y35.869 E27.99294
G1 X28.463 Y35.337 E28.01463
G1 X28.731 Y34.837 E28.03634
G1 X29.068 Y34.381 E28.05804
G1 X29.287 Y34.143 E28.07042
G1 X29.39 Y34.04 E28.076
G1 X29.818 Y33.668 E28.0977
G1 X30.294 Y33.36 E28.1194
G1 X30.809 Y33.122 E28.14111
G1 X31.352 Y32.959 E28.1628
G1 X31.913 Y32.874 E28.18452
G1 X32.236 Y32.861 E28.19689
G1 X47.167 Y32.861 E28.7683
G1 X30.385 Y24.471 E29.48633
G1 X29.897 Y24.182 E29.50804
G1 X29.454 Y23.828 E29.52974
G1 X29.066 Y23.415 E29.55143
G1 X28.763 Y22.99 E29.5714
G1 X28.711 Y22.906 E29.57518
G1 X28.447 Y22.404 E29.59689
G1 X28.256 Y21.869 E29.61863
G1 X28.143 Y21.314 E29.6403
G1 X28.108 Y20.787 E29.66052
G1 X28.108 Y12.989 E29.95895
G1 X28.148 Y12.423 E29.98066
G1 X28.241 Y11.994 E29.99746
G0 F972 X28.267 Y11.869
G0 X28.463 Y11.337
G0 F4320 X28.812 Y11.415
G1 F2400 E30.02402
G1 F1080 X29.08 Y10.943 E30.04479
G1 X29.534 Y10.39 E30.07217
G1 X29.637 Y10.287 E30.07775
G1 X30.048 Y9.934 E30.09848
G1 X30.506 Y9.644 E30.11923
G1 X31.001 Y9.425 E30.13994
G1 X31.524 Y9.281 E30.1607
G1 X32.236 Y9.211 E30.18808
G1 X53.98 Y9.211 E31.02022
G1 X54.52 Y9.251 E31.04095
G1 X55.049 Y9.37 E31.0617
G1 X55.554 Y9.565 E31.08241
G1 X56.026 Y9.833 E31.10319
G1 X56.579 Y10.287 E31.13057
G1 X56.682 Y10.39 E31.13614
G1 X57.035 Y10.801 E31.15688
G1 X57.325 Y11.259 E31.17762
G1 X57.544 Y11.754 E31.19834
G1 X57.67 Y12.211 E31.21648
G1 X61.98 Y12.211 E31.38142
G1 X62.52 Y12.251 E31.40214
G1 X63.049 Y12.37 E31.4229
G1 X63.554 Y12.565 E31.44361
G1 X64.026 Y12.833 E31.46438
G1 X64.579 Y13.287 E31.49177
G1 X64.682 Y13.39 E31.49734
G1 X65.035 Y13.801 E31.51808
G1 X65.325 Y14.259 E31.53882
G1 X65.544 Y14.754 E31.55954
G1 X65.688 Y15.277 E31.5803
G1 X65.758 Y15.989 E31.60768
G1 X65.758 Y30.733 E32.17193
G1 X65.718 Y31.273 E32.19265
G1 X65.599 Y31.802 E32.2134
G1 X65.404 Y32.307 E32.23412
G1 X65.136 Y32.779 E32.25489
G1 X64.682 Y33.332 E32.28227
G1 X64.579 Y33.435 E32.28785
G1 X64.168 Y33.788 E32.30858
G1 X63.71 Y34.078 E32.32933
G1 X63.215 Y34.297 E32.35004
G1 X62.692 Y34.441 E32.3708
