;FLAVOR:Marlin
;TIME:2598
;Filament used: 1.62372m
;Layer height: 0.2625
;MINX:26.756
;MINY:11.523
;MINZ:0.263
;MAXX:72.856
;MAXY:57.623
;MAXZ:5.786
;Generated with Cura_SteamEngine 4.2.1
M140 S65
M105
M190 S65
M104 S190
M105
M109 S190
M82 ;absolute extrusion mode
G21;(metric values)
G90;(absolute positioning)
M82;(set extruder to absolute mode)
M107;(start with the fan off)
G28;(Home the printer)
G92 E0;(Reset the extruder to 0)
G0 Z5 E5 F500;(Move up and prime the nozzle)
G0 X-1 Z0;(Move outside the printable area)
G1 Y60 E8 F500;(Draw a priming/wiping line to the rear)
G1 X-1;(Move a little closer to the print area)
G1 Y10 E16 F500;(draw more priming/wiping)
G1 E15 F250;(Small retract)
G92 E0;(Zero the extruder)
M141 S28
G92 E0
G92 E0
G1 F2400 E-2.5
;LAYER_COUNT:22
;LAYER:0
M107
G0 F4320 X27.383 Y14.258 Z0.263
;TYPE:SKIRT
G1 F2400 E0
G1 F1080 X27.724 Y13.72 E0.02438
G1 X28.242 Y13.112 E0.05494
G1 X28.345 Y13.009 E0.06052
G1 X28.823 Y12.588 E0.0849
G1 X29.35 Y12.23 E0.10928
G1 X29.917 Y11.941 E0.13363
G1 X30.516 Y11.725 E0.158
G1 X31.138 Y11.586 E0.18239
G1 X31.934 Y11.523 E0.21295
G1 X67.678 Y11.523 E1.58087
G1 X68.314 Y11.563 E1.60526
G1 X68.939 Y11.682 E1.62961
G1 X69.545 Y11.879 E1.65399
G1 X70.121 Y12.15 E1.67835
G1 X70.659 Y12.491 E1.70273
G1 X71.267 Y13.009 E1.7333
G1 X71.37 Y13.112 E1.73887
G1 X71.791 Y13.59 E1.76325
G1 X72.149 Y14.117 E1.78763
G1 X72.438 Y14.684 E1.81199
G1 X72.654 Y15.283 E1.83636
G1 X72.793 Y15.905 E1.86075
G1 X72.856 Y16.701 E1.89131
G1 X72.856 Y52.445 E3.25923
G1 X72.816 Y53.081 E3.28361
G1 X72.697 Y53.706 E3.30796
G1 X72.5 Y54.312 E3.33235
G1 X72.229 Y54.888 E3.35671
G1 X71.888 Y55.426 E3.38109
G1 X71.37 Y56.034 E3.41165
G1 X71.267 Y56.137 E3.41723
G1 X70.789 Y56.558 E3.44161
G1 X70.262 Y56.916 E3.46599
G1 X69.695 Y57.205 E3.49034
G1 X69.096 Y57.421 E3.51471
G1 X68.474 Y57.56 E3.5391
G1 X67.678 Y57.623 E3.56966
G1 X31.934 Y57.623 E4.93758
G1 X31.298 Y57.583 E4.96197
G1 X30.673 Y57.464 E4.98632
G1 X30.067 Y57.267 E5.0107
G1 X29.491 Y56.996 E5.03506
G1 X28.953 Y56.655 E5.05944
G1 X28.345 Y56.137 E5.09001
G1 X28.242 Y56.034 E5.09558
G1 X27.821 Y55.556 E5.11996
G1 X27.463 Y55.029 E5.14434
G1 X27.174 Y54.462 E5.1687
G1 X26.958 Y53.863 E5.19307
G1 X26.819 Y53.241 E5.21746
G1 X26.756 Y52.445 E5.24801
G1 X26.756 Y16.701 E6.61594
G1 X26.796 Y16.065 E6.64032
G1 X26.915 Y15.44 E6.66467
G1 X27.095 Y14.889 E6.68686
G0 F972 X27.112 Y14.834
G0 X27.383 Y14.258
G0 F4320 X27.732 Y14.351
G1 F2400 E6.71341
G1 F1080 X28.072 Y13.839 E6.73694
G1 X28.49 Y13.36 E6.76127
G1 X28.593 Y13.257 E6.76684
G1 X29.055 Y12.852 E6.79035
G1 X29.565 Y12.51 E6.81385
G1 X30.116 Y12.237 E6.83739
G1 X30.697 Y12.038 E6.86089
G1 X31.3 Y11.916 E6.88443
G1 X31.934 Y11.873 E6.90875
G1 X67.678 Y11.873 E8.27667
G1 X68.291 Y11.913 E8.30018
G1 X68.894 Y12.032 E8.3237
G1 X69.476 Y12.229 E8.34722
G1 X70.028 Y12.499 E8.37073
G1 X70.54 Y12.839 E8.39426
G1 X71.019 Y13.257 E8.41859
G1 X71.122 Y13.36 E8.42416
G1 X71.527 Y13.822 E8.44767
G1 X71.869 Y14.332 E8.47117
G1 X72.142 Y14.883 E8.49471
G1 X72.341 Y15.464 E8.51821
G1 X72.463 Y16.067 E8.54175
G1 X72.506 Y16.701 E8.56607
G1 X72.506 Y52.445 E9.93399
G1 X72.466 Y53.058 E9.9575
G1 X72.347 Y53.661 E9.98102
G1 X72.15 Y54.243 E10.00454
G1 X71.88 Y54.795 E10.02805
G1 X71.54 Y55.307 E10.05158
G1 X71.122 Y55.786 E10.07591
G1 X71.019 Y55.889 E10.08148
G1 X70.557 Y56.294 E10.10499
G1 X70.047 Y56.636 E10.12849
G1 X69.496 Y56.909 E10.15203
G1 X68.915 Y57.108 E10.17553
G1 X68.312 Y57.23 E10.19907
G1 X67.678 Y57.273 E10.22339
G1 X31.934 Y57.273 E11.59131
G1 X31.321 Y57.233 E11.61482
G1 X30.718 Y57.114 E11.63834
G1 X30.136 Y56.917 E11.66186
G1 X29.584 Y56.647 E11.68537
G1 X29.072 Y56.307 E11.7089
G1 X28.593 Y55.889 E11.73323
G1 X28.49 Y55.786 E11.7388
G1 X28.085 Y55.324 E11.76231
G1 X27.743 Y54.814 E11.78581
G1 X27.47 Y54.263 E11.80935
G1 X27.271 Y53.682 E11.83285
G1 X27.149 Y53.079 E11.85639
G1 X27.106 Y52.445 E11.88071
G1 X27.106 Y16.701 E13.24863
G1 X27.146 Y16.088 E13.27214
G1 X27.265 Y15.485 E13.29566
G1 X27.437 Y14.978 E13.31615
G0 F972 X27.462 Y14.903
G0 X27.732 Y14.351
G0 F4320 X28.081 Y14.448
G1 F2400 E13.34271
G1 F1080 X28.419 Y13.963 E13.36534
G1 X28.737 Y13.607 E13.3836
G1 X28.84 Y13.504 E13.38918
G1 X29.286 Y13.116 E13.4118
G1 X29.78 Y12.79 E13.43445
G1 X30.313 Y12.535 E13.45706
G1 X30.875 Y12.353 E13.47967
G1 X31.457 Y12.249 E13.5023
G1 X31.934 Y12.223 E13.52058
G1 X67.678 Y12.223 E14.8885
G1 X68.268 Y12.263 E14.91113
G1 X68.847 Y12.382 E14.93375
G1 X69.405 Y12.578 E14.95639
G1 X69.931 Y12.848 E14.97901
G1 X70.416 Y13.186 E15.00164
G1 X70.772 Y13.504 E15.01991
G1 X70.875 Y13.607 E15.02548
G1 X71.263 Y14.053 E15.0481
G1 X71.589 Y14.547 E15.07075
G1 X71.844 Y15.08 E15.09337
G1 X72.026 Y15.642 E15.11597
G1 X72.13 Y16.224 E15.1386
G1 X72.156 Y16.701 E15.15688
G1 X72.156 Y52.445 E16.5248
G1 X72.116 Y53.035 E16.54743
G1 X71.997 Y53.614 E16.57006
G1 X71.801 Y54.172 E16.59269
G1 X71.531 Y54.698 E16.61532
G1 X71.193 Y55.183 E16.63794
G1 X70.875 Y55.539 E16.65621
G1 X70.772 Y55.642 E16.66178
G1 X70.326 Y56.03 E16.68441
G1 X69.832 Y56.356 E16.70706
G1 X69.299 Y56.611 E16.72967
G1 X68.737 Y56.793 E16.75228
G1 X68.155 Y56.897 E16.7749
G1 X67.678 Y56.923 E16.79318
G1 X31.934 Y56.923 E18.1611
G1 X31.344 Y56.883 E18.18374
G1 X30.765 Y56.764 E18.20636
G1 X30.207 Y56.568 E18.22899
G1 X29.681 Y56.298 E18.25162
G1 X29.196 Y55.96 E18.27424
G1 X28.84 Y55.642 E18.29251
G1 X28.737 Y55.539 E18.29808
G1 X28.349 Y55.093 E18.32071
G1 X28.023 Y54.599 E18.34336
G1 X27.768 Y54.066 E18.36597
G1 X27.586 Y53.504 E18.38858
G1 X27.482 Y52.922 E18.4112
G1 X27.456 Y52.445 E18.42949
G1 X27.456 Y16.701 E19.79741
G1 X27.496 Y16.111 E19.82004
G1 X27.615 Y15.532 E19.84266
G1 X27.777 Y15.071 E19.86136
G0 F972 X27.811 Y14.974
G0 X28.081 Y14.448
G0 F4320 X28.429 Y14.549
G1 F2400 E19.88792
G1 F1080 X28.766 Y14.093 E19.90962
G1 X28.985 Y13.855 E19.922
G1 X29.088 Y13.752 E19.92757
G1 X29.516 Y13.38 E19.94927
G1 X29.992 Y13.072 E19.97097
G1 X30.507 Y12.834 E19.99268
G1 X31.05 Y12.671 E20.01438
G1 X31.611 Y12.586 E20.03609
G1 X31.934 Y12.573 E20.04846
G1 X67.678 Y12.573 E21.41638
G1 X68.244 Y12.613 E21.4381
G1 X68.798 Y12.732 E21.45978
G1 X69.33 Y12.928 E21.48148
G1 X69.83 Y13.196 E21.50319
G1 X70.286 Y13.533 E21.52489
G1 X70.524 Y13.752 E21.53727
G1 X70.627 Y13.855 E21.54284
G1 X70.999 Y14.283 E21.56455
G1 X71.307 Y14.759 E21.58624
G1 X71.545 Y15.274 E21.60795
G1 X71.708 Y15.817 E21.62965
G1 X71.793 Y16.378 E21.65137
G1 X71.806 Y16.701 E21.66374
G1 X71.806 Y52.445 E23.03166
G1 X71.766 Y53.011 E23.05337
G1 X71.647 Y53.565 E23.07506
G1 X71.451 Y54.097 E23.09676
G1 X71.183 Y54.597 E23.11847
G1 X70.846 Y55.053 E23.14017
G1 X70.627 Y55.291 E23.15254
G1 X70.524 Y55.394 E23.15812
G1 X70.096 Y55.766 E23.17982
G1 X69.62 Y56.074 E23.20152
G1 X69.105 Y56.312 E23.22323
G1 X68.562 Y56.475 E23.24492
G1 X68.001 Y56.56 E23.26664
G1 X67.678 Y56.573 E23.27901
G1 X31.934 Y56.573 E24.64693
G1 X31.368 Y56.533 E24.66865
G1 X30.814 Y56.414 E24.69033
G1 X30.282 Y56.218 E24.71203
G1 X29.782 Y55.95 E24.73374
G1 X29.326 Y55.613 E24.75544
G1 X29.088 Y55.394 E24.76782
G1 X28.985 Y55.291 E24.77339
G1 X28.613 Y54.863 E24.79509
G1 X28.305 Y54.387 E24.81679
G1 X28.067 Y53.872 E24.8385
G1 X27.904 Y53.329 E24.8602
G1 X27.819 Y52.768 E24.88191
G1 X27.806 Y52.445 E24.89428
G1 X27.806 Y16.701 E26.2622
G1 X27.846 Y16.135 E26.28392
G1 X27.965 Y15.581 E26.3056
G1 X28.118 Y15.168 E26.32246
G0 F972 X28.161 Y15.049
G0 X28.429 Y14.549
G0 F4320 X28.51 Y15.127
G1 F2400 E26.34902
G1 F1080 X28.778 Y14.655 E26.36979
G1 X29.232 Y14.102 E26.39717
G1 X29.335 Y13.999 E26.40275
G1 X29.746 Y13.646 E26.42348
G1 X30.204 Y13.356 E26.44423
G1 X30.699 Y13.137 E26.46494
G1 X31.222 Y12.993 E26.4857
G1 X31.934 Y12.923 E26.51308
G1 X67.678 Y12.923 E27.881
G1 X68.218 Y12.963 E27.90173
G1 X68.747 Y13.082 E27.92248
G1 X69.252 Y13.277 E27.94319
G1 X69.724 Y13.545 E27.96397
G1 X70.277 Y13.999 E27.99135
G1 X70.38 Y14.102 E27.99692
G1 X70.733 Y14.513 E28.01766
G1 X71.023 Y14.971 E28.0384
G1 X71.242 Y15.466 E28.05912
G1 X71.386 Y15.989 E28.07988
G1 X71.456 Y16.701 E28.10726
G1 X71.456 Y52.445 E29.47518
G1 X71.416 Y52.985 E29.4959
G1 X71.297 Y53.514 E29.51665
G1 X71.102 Y54.019 E29.53737
G1 X70.834 Y54.491 E29.55814
G1 X70.38 Y55.044 E29.58552
G1 X70.277 Y55.147 E29.5911
G1 X69.866 Y55.5 E29.61183
G1 X69.408 Y55.79 E29.63257
G1 X68.913 Y56.009 E29.65329
G1 X68.39 Y56.153 E29.67405
G1 X67.678 Y56.223 E29.70143
G1 X31.934 Y56.223 E31.06935
G1 X31.394 Y56.183 E31.09007
G1 X30.865 Y56.064 E31.11082
G1 X30.36 Y55.869 E31.13154
G1 X29.888 Y55.601 E31.15231
G1 X29.335 Y55.147 E31.17969
G1 X29.232 Y55.044 E31.18527
G1 X28.879 Y54.633 E31.206
G1 X28.589 Y54.175 E31.22675
G1 X28.37 Y53.68 E31.24746
G1 X28.226 Y53.157 E31.26822
G1 X28.156 Y52.445 E31.2956
G1 X28.156 Y16.701 E32.66352
G1 X28.196 Y16.161 E32.68425
G1 X28.282 Y15.781 E32.69916
G0 F972 X28.315 Y15.632
G0 X28.51 Y15.127
G0 F4320 X28.86 Y15.209
G1 F2400 E32.72572
G1 F1080 X29.126 Y14.767 E32.74546
G1 X29.48 Y14.35 E32.76639
G1 X29.583 Y14.247 E32.77197
G1 X29.974 Y13.912 E32.79167
G1 X30.413 Y13.641 E32.81141
G1 X30.888 Y13.442 E32.83112
G1 X31.389 Y13.318 E32.85088
G1 X31.934 Y13.273 E32.8718
G1 X67.678 Y13.273 E34.23972
G1 X68.192 Y13.313 E34.25945
G1 X68.693 Y13.432 E34.27916
G1 X69.17 Y13.627 E34.29888
G1 X69.612 Y13.893 E34.31862
G1 X70.029 Y14.247 E34.33956
G1 X70.132 Y14.35 E34.34513
G1 X70.467 Y14.741 E34.36484
G1 X70.738 Y15.18 E34.38458
G1 X70.937 Y15.655 E34.40429
G1 X71.061 Y16.156 E34.42404
G1 X71.106 Y16.701 E34.44497
G1 X71.106 Y52.445 E35.81289
G1 X71.066 Y52.959 E35.83262
G1 X70.947 Y53.46 E35.85233
G1 X70.752 Y53.937 E35.87205
G1 X70.486 Y54.379 E35.89179
G1 X70.132 Y54.796 E35.91272
G1 X70.029 Y54.899 E35.9183
G1 X69.638 Y55.234 E35.938
G1 X69.199 Y55.505 E35.95775
G1 X68.724 Y55.704 E35.97746
G1 X68.223 Y55.828 E35.99721
G1 X67.678 Y55.873 E36.01814
G1 X31.934 Y55.873 E37.38606
G1 X31.42 Y55.833 E37.40579
G1 X30.919 Y55.714 E37.42549
G1 X30.442 Y55.519 E37.44522
G1 X30 Y55.253 E37.46496
G1 X29.583 Y54.899 E37.48589
G1 X29.48 Y54.796 E37.49147
G1 X29.145 Y54.405 E37.51117
G1 X28.874 Y53.966 E37.53091
G1 X28.675 Y53.491 E37.55062
G1 X28.551 Y52.99 E37.57038
G1 X28.506 Y52.445 E37.5913
G1 X28.506 Y16.701 E38.95922
G1 X28.546 Y16.187 E38.97895
G1 X28.624 Y15.86 E38.99182
G0 F972 X28.665 Y15.686
G0 X28.86 Y15.209
G0 F4320 X29.209 Y15.295
G1 F2400 E39.01838
G1 F1080 X29.474 Y14.886 E39.03703
G1 X29.727 Y14.597 E39.05173
G1 X29.83 Y14.494 E39.0573
G1 X30.202 Y14.179 E39.07596
G1 X30.62 Y13.929 E39.0946
G1 X31.074 Y13.75 E39.11327
G1 X31.55 Y13.648 E39.1319
G1 X31.934 Y13.623 E39.14663
G1 X67.678 Y13.623 E40.51455
G1 X68.164 Y13.663 E40.53321
G1 X68.637 Y13.782 E40.55188
G1 X69.084 Y13.976 E40.57053
G1 X69.493 Y14.241 E40.58918
G1 X69.782 Y14.494 E40.60388
G1 X69.885 Y14.597 E40.60945
G1 X70.2 Y14.969 E40.62811
G1 X70.45 Y15.387 E40.64675
G1 X70.629 Y15.841 E40.66542
G1 X70.731 Y16.317 E40.68405
G1 X70.756 Y16.701 E40.69878
G1 X70.756 Y52.445 E42.0667
G1 X70.716 Y52.931 E42.08536
G1 X70.597 Y53.404 E42.10403
G1 X70.403 Y53.851 E42.12268
G1 X70.138 Y54.26 E42.14133
G1 X69.885 Y54.549 E42.15603
G1 X69.782 Y54.652 E42.1616
G1 X69.41 Y54.967 E42.18026
G1 X68.992 Y55.217 E42.1989
G1 X68.538 Y55.396 E42.21757
G1 X68.062 Y55.498 E42.2362
G1 X67.678 Y55.523 E42.25093
G1 X31.934 Y55.523 E43.61885
G1 X31.448 Y55.483 E43.63751
G1 X30.975 Y55.364 E43.65618
G1 X30.528 Y55.17 E43.67483
G1 X30.119 Y54.905 E43.69348
G1 X29.83 Y54.652 E43.70818
G1 X29.727 Y54.549 E43.71375
G1 X29.412 Y54.177 E43.73241
G1 X29.162 Y53.759 E43.75105
G1 X28.983 Y53.305 E43.76972
G1 X28.881 Y52.829 E43.78835
G1 X28.856 Y52.445 E43.80308
G1 X28.856 Y16.701 E45.171
G1 X28.896 Y16.215 E45.18966
G1 X28.965 Y15.943 E45.2004
G0 F972 X29.015 Y15.742
G0 X29.209 Y15.295
G0 F4320 X29.558 Y15.388
G1 F2400 E45.22696
G1 F1080 X29.975 Y14.845 E45.25316
G1 X30.078 Y14.742 E45.25874
G1 X30.429 Y14.448 E45.27626
G1 X30.825 Y14.219 E45.29376
G1 X31.255 Y14.062 E45.31128
G1 X31.934 Y13.973 E45.33749
G1 X67.678 Y13.973 E46.70541
G1 X68.134 Y14.013 E46.72293
G1 X68.576 Y14.131 E46.74044
G1 X68.991 Y14.325 E46.75797
G1 X69.534 Y14.742 E46.78417
G1 X69.637 Y14.845 E46.78974
G1 X69.931 Y15.196 E46.80727
G1 X70.16 Y15.592 E46.82477
G1 X70.317 Y16.022 E46.84229
G1 X70.406 Y16.701 E46.8685
G1 X70.406 Y52.445 E48.23642
G1 X70.366 Y52.901 E48.25394
G1 X70.248 Y53.343 E48.27145
G1 X70.054 Y53.758 E48.28898
G1 X69.637 Y54.301 E48.31518
G1 X69.534 Y54.404 E48.32075
G1 X69.183 Y54.698 E48.33828
G1 X68.787 Y54.927 E48.35578
G1 X68.357 Y55.084 E48.3733
G1 X67.678 Y55.173 E48.39951
G1 X31.934 Y55.173 E49.76743
G1 X31.478 Y55.133 E49.78495
G1 X31.036 Y55.015 E49.80246
G1 X30.621 Y54.821 E49.81999
G1 X30.078 Y54.404 E49.84619
G1 X29.975 Y54.301 E49.85176
G1 X29.681 Y53.95 E49.86929
G1 X29.452 Y53.554 E49.88679
G1 X29.295 Y53.124 E49.90431
G1 X29.206 Y52.445 E49.93052
G1 X29.206 Y16.701 E51.29844
G1 X29.246 Y16.245 E51.31596
G1 X29.304 Y16.031 E51.32444
G0 F972 X29.364 Y15.803
G0 X29.558 Y15.388
G0 F4320 X29.907 Y15.487
G1 F2400 E51.351
G1 F1080 X30.222 Y15.092 E51.37034
G1 X30.325 Y14.989 E51.37591
G1 X30.654 Y14.718 E51.39222
G1 X31.027 Y14.512 E51.40853
G1 X31.432 Y14.379 E51.42484
G1 X31.934 Y14.323 E51.44417
G1 X67.678 Y14.323 E52.8121
G1 X68.102 Y14.363 E52.82839
G1 X68.512 Y14.481 E52.84472
G1 X68.892 Y14.674 E52.86103
G1 X69.287 Y14.989 E52.88037
G1 X69.39 Y15.092 E52.88594
G1 X69.661 Y15.421 E52.90225
G1 X69.867 Y15.794 E52.91856
G1 X70 Y16.199 E52.93487
G1 X70.056 Y16.701 E52.95421
G1 X70.056 Y52.445 E54.32213
G1 X70.016 Y52.869 E54.33842
G1 X69.898 Y53.279 E54.35475
G1 X69.705 Y53.659 E54.37106
G1 X69.39 Y54.054 E54.3904
G1 X69.287 Y54.157 E54.39597
G1 X68.958 Y54.428 E54.41228
G1 X68.585 Y54.634 E54.42859
G1 X68.18 Y54.767 E54.44491
G1 X67.678 Y54.823 E54.46424
G1 X31.934 Y54.823 E55.83216
G1 X31.51 Y54.783 E55.84846
G1 X31.1 Y54.665 E55.86478
G1 X30.72 Y54.472 E55.88109
G1 X30.325 Y54.157 E55.90043
G1 X30.222 Y54.054 E55.906
G1 X29.951 Y53.725 E55.92232
G1 X29.745 Y53.352 E55.93862
G1 X29.612 Y52.947 E55.95494
G1 X29.556 Y52.445 E55.97427
G1 X29.556 Y16.701 E57.34219
G1 X29.596 Y16.277 E57.35849
G1 X29.64 Y16.124 E57.36458
G0 F972 X29.714 Y15.867
G0 X29.907 Y15.487
G0 F4320 X30.064 Y15.937
G1 F2400 E57.39114
G1 F1080 X30.255 Y15.595 E57.40613
G1 X30.47 Y15.34 E57.41889
G1 X30.573 Y15.237 E57.42447
G1 X30.877 Y14.989 E57.43948
G1 X31.224 Y14.809 E57.45444
G1 X31.602 Y14.702 E57.46948
G1 X31.934 Y14.673 E57.48223
G1 X67.678 Y14.673 E58.85015
G1 X68.068 Y14.713 E58.86516
G1 X68.442 Y14.831 E58.88016
G1 X68.784 Y15.022 E58.89516
G1 X69.039 Y15.237 E58.90792
G1 X69.142 Y15.34 E58.91349
G1 X69.39 Y15.644 E58.92851
G1 X69.57 Y15.991 E58.94347
G1 X69.677 Y16.369 E58.9585
G1 X69.706 Y16.701 E58.97126
G1 X69.706 Y52.445 E60.33918
G1 X69.666 Y52.835 E60.35418
G1 X69.548 Y53.209 E60.36919
G1 X69.357 Y53.551 E60.38418
G1 X69.142 Y53.806 E60.39695
G1 X69.039 Y53.909 E60.40252
G1 X68.735 Y54.157 E60.41753
G1 X68.388 Y54.337 E60.43249
G1 X68.01 Y54.444 E60.44753
G1 X67.678 Y54.473 E60.46028
G1 X31.934 Y54.473 E61.8282
G1 X31.544 Y54.433 E61.84321
G1 X31.17 Y54.315 E61.85822
G1 X30.828 Y54.124 E61.87321
G1 X30.573 Y53.909 E61.88597
G1 X30.47 Y53.806 E61.89155
G1 X30.222 Y53.502 E61.90656
G1 X30.042 Y53.155 E61.92152
G1 X29.935 Y52.777 E61.93655
G1 X29.906 Y52.445 E61.94931
G1 X29.906 Y16.701 E63.31723
G1 X29.916 Y16.611 E63.3207
G0 F972 X29.946 Y16.311
G0 X30.064 Y15.937
G0 F4320 X30.413 Y16.015
G1 F2400 E63.34725
G1 F1080 X30.717 Y15.587 E63.36735
G1 X30.82 Y15.484 E63.37292
G1 X31.098 Y15.263 E63.38651
G1 X31.417 Y15.11 E63.40005
G1 X31.934 Y15.023 E63.42011
G1 X67.678 Y15.023 E64.78804
G1 X68.03 Y15.063 E64.80159
G1 X68.364 Y15.18 E64.81514
G1 X68.792 Y15.484 E64.83523
G1 X68.895 Y15.587 E64.8408
G1 X69.116 Y15.865 E64.85439
G1 X69.269 Y16.184 E64.86793
G1 X69.356 Y16.701 E64.888
G1 X69.356 Y52.445 E66.25592
G1 X69.316 Y52.797 E66.26948
G1 X69.199 Y53.131 E66.28302
G1 X68.895 Y53.559 E66.30311
G1 X68.792 Y53.662 E66.30868
G1 X68.514 Y53.883 E66.32228
G1 X68.195 Y54.036 E66.33582
