;FLAVOR:Marlin
;TIME:1266
;Filament used: 0.714454m
;Layer height: 0.2625
;MINX:36.95
;MINY:36.95
;MINZ:0.263
;MAXX:83.05
;MAXY:83.05
;MAXZ:2.893
;Generated with Cura_SteamEngine 4.2.1
M140 S65
M105
M190 S65
M104 S190
M105
M109 S190
M82 ;absolute extrusion mode
G21;(metric values)
G90;(absolute positioning)
M82;(set extruder to absolute mode)
M107;(start with the fan off)
G28;(Home the printer)
G92 E0;(Reset the extruder to 0)
G0 Z5 E5 F500;(Move up and prime the nozzle)
G0 X-1 Z0;(Move outside the printable area)
G1 Y60 E8 F500;(Draw a priming/wiping line to the rear)
G1 X-1;(Move a little closer to the print area)
G1 Y10 E16 F500;(draw more priming/wiping)
G1 E15 F250;(Small retract)
G92 E0;(Zero the extruder)
M141 S28
G92 E0
G92 E0
G1 F2400 E-2.5
;LAYER_COUNT:11
;LAYER:0
M107
G0 F4320 X38.894 Y38.521 Z0.263
;TYPE:SKIRT
G1 F2400 E0
G1 F1080 X39.279 Y38.196 E0.01928
G1 X39.552 Y37.988 E0.03242
G1 X40.082 Y37.635 E0.05679
G1 X40.652 Y37.35 E0.08118
G1 X41.253 Y37.14 E0.10554
G1 X41.876 Y37.006 E0.12993
G1 X42.628 Y36.95 E0.15879
G1 X50.122 Y36.95 E0.44558
G1 X50.758 Y36.99 E0.46997
G1 X51.383 Y37.109 E0.49432
G1 X51.989 Y37.306 E0.5187
G1 X52.565 Y37.577 E0.54306
G1 X53.103 Y37.918 E0.56744
G1 X53.711 Y38.436 E0.59801
G1 X53.814 Y38.539 E0.60358
G1 X54.235 Y39.017 E0.62796
G1 X54.593 Y39.544 E0.65234
G1 X54.882 Y40.111 E0.6767
G1 X55.098 Y40.71 E0.70106
G1 X55.237 Y41.332 E0.72546
G1 X55.3 Y42.128 E0.75601
G1 X55.3 Y44.2 E0.83531
G1 X65.035 Y44.2 E1.20787
G1 X65.035 Y42.128 E1.28716
G1 X65.075 Y41.492 E1.31155
G1 X65.194 Y40.867 E1.3359
G1 X65.391 Y40.261 E1.36029
G1 X65.662 Y39.685 E1.38465
G1 X66.003 Y39.147 E1.40902
G1 X66.521 Y38.539 E1.43959
G1 X66.624 Y38.436 E1.44517
G1 X67.102 Y38.015 E1.46954
G1 X67.629 Y37.657 E1.49392
G1 X68.196 Y37.368 E1.51828
G1 X68.795 Y37.152 E1.54265
G1 X69.417 Y37.013 E1.56704
G1 X70.213 Y36.95 E1.5976
G1 X77.369 Y36.95 E1.87146
G1 X78.005 Y36.99 E1.89584
G1 X78.63 Y37.109 E1.92019
G1 X79.236 Y37.306 E1.94458
G1 X79.812 Y37.577 E1.96894
G1 X80.35 Y37.918 E1.99332
G1 X80.639 Y38.144 E2.00736
G1 X81.071 Y38.508 E2.02898
G1 X81.531 Y38.948 E2.05334
G1 X81.904 Y39.402 E2.07582
G1 X82.078 Y39.641 E2.08714
G1 X82.42 Y40.178 E2.1115
G1 X82.691 Y40.754 E2.13586
G1 X82.889 Y41.36 E2.16026
G1 X83.009 Y41.985 E2.18462
G1 X83.05 Y42.628 E2.20927
G1 X83.05 Y47.303 E2.38819
G1 X83.01 Y47.939 E2.41257
G1 X82.891 Y48.564 E2.43692
G1 X82.694 Y49.17 E2.46131
G1 X82.423 Y49.746 E2.48567
G1 X82.082 Y50.284 E2.51005
G1 X81.564 Y50.892 E2.54061
G1 X81.461 Y50.995 E2.54619
G1 X80.983 Y51.416 E2.57057
G1 X80.456 Y51.774 E2.59495
G1 X79.889 Y52.063 E2.6193
G1 X79.29 Y52.279 E2.64367
G1 X78.668 Y52.418 E2.66806
G1 X77.872 Y52.481 E2.69862
G1 X77.84 Y52.481 E2.69985
G1 X77.84 Y65.95 E3.2153
G1 X77.872 Y65.95 E3.21653
G1 X78.508 Y65.99 E3.24092
G1 X79.133 Y66.109 E3.26526
G1 X79.739 Y66.306 E3.28965
G1 X80.315 Y66.577 E3.31401
G1 X80.853 Y66.918 E3.33839
G1 X81.461 Y67.436 E3.36896
G1 X81.564 Y67.539 E3.37453
G1 X81.985 Y68.017 E3.39891
G1 X82.343 Y68.544 E3.42329
G1 X82.632 Y69.111 E3.44764
G1 X82.848 Y69.71 E3.47201
G1 X82.987 Y70.332 E3.4964
G1 X83.05 Y71.128 E3.52696
G1 X83.05 Y77.371 E3.76588
G1 X83.01 Y78.007 E3.79027
G1 X82.891 Y78.632 E3.81462
G1 X82.694 Y79.238 E3.839
G1 X82.423 Y79.814 E3.86336
G1 X82.082 Y80.352 E3.88774
G1 X81.874 Y80.62 E3.90072
G1 X81.544 Y81.016 E3.92045
G1 X81.106 Y81.479 E3.94484
G1 X80.721 Y81.804 E3.96412
G1 X80.448 Y82.012 E3.97726
G1 X79.918 Y82.365 E4.00163
G1 X79.348 Y82.65 E4.02602
G1 X78.747 Y82.86 E4.05038
G1 X78.124 Y82.994 E4.07477
G1 X77.372 Y83.05 E4.10363
G1 X70.213 Y83.05 E4.3776
G1 X69.577 Y83.01 E4.40199
G1 X68.952 Y82.891 E4.42634
G1 X68.346 Y82.694 E4.45072
G1 X67.77 Y82.423 E4.47509
G1 X67.232 Y82.082 E4.49946
G1 X66.624 Y81.564 E4.53003
G1 X66.521 Y81.461 E4.53561
G1 X66.1 Y80.983 E4.55998
G1 X65.742 Y80.456 E4.58436
G1 X65.453 Y79.889 E4.60872
G1 X65.237 Y79.29 E4.63309
G1 X65.098 Y78.668 E4.65748
G1 X65.035 Y77.872 E4.68804
G1 X65.035 Y75.8 E4.76733
G1 X55.3 Y75.8 E5.13989
G1 X55.3 Y77.872 E5.21918
G1 X55.26 Y78.508 E5.24357
G1 X55.141 Y79.133 E5.26792
G1 X54.944 Y79.739 E5.29231
G1 X54.673 Y80.315 E5.31667
G1 X54.332 Y80.853 E5.34105
G1 X53.814 Y81.461 E5.37161
G1 X53.711 Y81.564 E5.37719
G1 X53.233 Y81.985 E5.40156
G1 X52.706 Y82.343 E5.42595
G1 X52.139 Y82.632 E5.4503
G1 X51.54 Y82.848 E5.47467
G1 X50.918 Y82.987 E5.49906
G1 X50.122 Y83.05 E5.52962
G1 X42.631 Y83.05 E5.8163
G1 X41.995 Y83.01 E5.84069
G1 X41.37 Y82.891 E5.86504
G1 X40.764 Y82.694 E5.88942
G1 X40.188 Y82.423 E5.91378
G1 X39.65 Y82.082 E5.93816
G1 X39.361 Y81.856 E5.9522
G1 X38.929 Y81.492 E5.97382
G1 X38.469 Y81.052 E5.99818
G1 X38.096 Y80.598 E6.02067
G1 X37.922 Y80.359 E6.03198
G1 X37.58 Y79.822 E6.05634
G1 X37.309 Y79.246 E6.08071
G1 X37.111 Y78.64 E6.1051
G1 X36.991 Y78.015 E6.12946
G1 X36.95 Y77.372 E6.15412
G1 X36.95 Y71.128 E6.39307
G1 X36.99 Y70.492 E6.41746
G1 X37.109 Y69.867 E6.44181
G1 X37.306 Y69.261 E6.4662
G1 X37.577 Y68.685 E6.49056
G1 X37.918 Y68.147 E6.51494
G1 X38.436 Y67.539 E6.5455
G1 X38.539 Y67.436 E6.55108
G1 X39.017 Y67.015 E6.57545
G1 X39.544 Y66.657 E6.59984
G1 X40.111 Y66.368 E6.62419
G1 X40.71 Y66.152 E6.64856
G1 X41.332 Y66.013 E6.67295
G1 X42.128 Y65.95 E6.70351
G1 X42.16 Y65.95 E6.70473
G1 X42.16 Y54.05 E7.16015
G1 X42.128 Y54.05 E7.16137
G1 X41.492 Y54.01 E7.18576
G1 X40.867 Y53.891 E7.21011
G1 X40.261 Y53.694 E7.23449
G1 X39.685 Y53.423 E7.25885
G1 X39.147 Y53.082 E7.28323
G1 X38.539 Y52.564 E7.3138
G1 X38.436 Y52.461 E7.31937
G1 X38.015 Y51.983 E7.34375
G1 X37.657 Y51.456 E7.36813
G1 X37.368 Y50.889 E7.39249
G1 X37.152 Y50.29 E7.41686
G1 X37.013 Y49.668 E7.44125
G1 X36.95 Y48.872 E7.4718
G1 X36.95 Y42.629 E7.71072
G1 X36.99 Y41.993 E7.73511
G1 X37.109 Y41.368 E7.75946
G1 X37.306 Y40.762 E7.78385
G1 X37.577 Y40.186 E7.80821
G1 X37.918 Y39.648 E7.83258
G1 X38.126 Y39.38 E7.84557
G1 X38.42 Y39.027 E7.86315
G0 F972 X38.456 Y38.984
G0 X38.894 Y38.521
G0 F4320 X39.148 Y38.763
G1 F2400 E7.88971
G1 F1080 X39.491 Y38.475 E7.90685
G1 X39.764 Y38.267 E7.91998
G1 X40.276 Y37.927 E7.9435
G1 X40.828 Y37.656 E7.96704
G1 X41.41 Y37.46 E7.99054
G1 X42.013 Y37.34 E8.01407
G1 X42.628 Y37.3 E8.03765
G1 X50.122 Y37.3 E8.32445
G1 X50.735 Y37.34 E8.34796
G1 X51.338 Y37.459 E8.37148
G1 X51.92 Y37.656 E8.39499
G1 X52.472 Y37.926 E8.41851
G1 X52.984 Y38.266 E8.44203
G1 X53.463 Y38.684 E8.46636
G1 X53.566 Y38.787 E8.47194
G1 X53.971 Y39.249 E8.49545
G1 X54.313 Y39.759 E8.51895
G1 X54.586 Y40.31 E8.54248
G1 X54.785 Y40.891 E8.56599
G1 X54.907 Y41.494 E8.58953
G1 X54.95 Y42.128 E8.61385
G1 X54.95 Y44.55 E8.70654
G1 X65.385 Y44.55 E9.10588
G1 X65.385 Y42.128 E9.19857
G1 X65.425 Y41.515 E9.22208
G1 X65.544 Y40.912 E9.24561
G1 X65.741 Y40.33 E9.26912
G1 X66.011 Y39.778 E9.29264
G1 X66.351 Y39.266 E9.31616
G1 X66.769 Y38.787 E9.34049
G1 X66.872 Y38.684 E9.34606
G1 X67.334 Y38.279 E9.36957
G1 X67.844 Y37.937 E9.39307
G1 X68.395 Y37.664 E9.41661
G1 X68.976 Y37.465 E9.44011
G1 X69.579 Y37.343 E9.46366
G1 X70.213 Y37.3 E9.48797
G1 X77.369 Y37.3 E9.76183
G1 X77.982 Y37.34 E9.78534
G1 X78.585 Y37.459 E9.80886
G1 X79.167 Y37.656 E9.83238
G1 X79.719 Y37.926 E9.8559
G1 X80.414 Y38.412 E9.88835
G1 X80.846 Y38.776 E9.90997
G1 X81.289 Y39.201 E9.93346
G1 X81.621 Y39.608 E9.95357
G1 X81.795 Y39.847 E9.96488
G1 X82.124 Y40.366 E9.9884
G1 X82.382 Y40.924 E10.01192
G1 X82.566 Y41.51 E10.03543
G1 X82.672 Y42.115 E10.05893
G1 X82.7 Y42.628 E10.0786
G1 X82.7 Y47.303 E10.25751
G1 X82.66 Y47.916 E10.28102
G1 X82.541 Y48.519 E10.30454
G1 X82.344 Y49.101 E10.32805
G1 X82.074 Y49.653 E10.35157
G1 X81.734 Y50.165 E10.37509
G1 X81.316 Y50.644 E10.39942
G1 X81.213 Y50.747 E10.405
G1 X80.751 Y51.152 E10.42851
G1 X80.241 Y51.494 E10.45201
G1 X79.69 Y51.767 E10.47554
G1 X79.109 Y51.966 E10.49904
G1 X78.506 Y52.088 E10.52259
G1 X77.872 Y52.131 E10.54691
G1 X77.49 Y52.131 E10.56153
G1 X77.49 Y66.3 E11.10377
G1 X77.872 Y66.3 E11.11839
G1 X78.485 Y66.34 E11.1419
G1 X79.088 Y66.459 E11.16542
G1 X79.67 Y66.656 E11.18894
G1 X80.222 Y66.926 E11.21245
G1 X80.734 Y67.266 E11.23598
G1 X81.213 Y67.684 E11.26031
G1 X81.316 Y67.787 E11.26588
G1 X81.721 Y68.249 E11.28939
G1 X82.063 Y68.759 E11.31289
G1 X82.336 Y69.31 E11.33643
G1 X82.535 Y69.891 E11.35993
G1 X82.657 Y70.494 E11.38347
G1 X82.7 Y71.128 E11.40779
G1 X82.7 Y77.371 E11.64671
G1 X82.66 Y77.984 E11.67022
G1 X82.541 Y78.587 E11.69374
G1 X82.344 Y79.169 E11.71726
G1 X82.074 Y79.721 E11.74077
G1 X81.605 Y80.396 E11.77223
G1 X81.275 Y80.792 E11.79196
G1 X80.852 Y81.237 E11.81545
G1 X80.509 Y81.525 E11.83259
G1 X80.236 Y81.733 E11.84573
G1 X79.724 Y82.073 E11.86925
G1 X79.172 Y82.344 E11.89278
G1 X78.59 Y82.54 E11.91628
G1 X77.987 Y82.66 E11.93981
G1 X77.372 Y82.7 E11.9634
G1 X70.213 Y82.7 E12.23737
G1 X69.6 Y82.66 E12.26088
G1 X68.997 Y82.541 E12.2844
G1 X68.415 Y82.344 E12.30792
G1 X67.863 Y82.074 E12.33144
G1 X67.351 Y81.734 E12.35496
G1 X66.872 Y81.316 E12.37929
G1 X66.769 Y81.213 E12.38486
G1 X66.364 Y80.751 E12.40837
G1 X66.022 Y80.241 E12.43187
G1 X65.749 Y79.69 E12.45541
G1 X65.55 Y79.109 E12.47891
G1 X65.428 Y78.506 E12.50245
G1 X65.385 Y77.872 E12.52677
G1 X65.385 Y75.45 E12.61946
G1 X54.95 Y75.45 E13.01881
G1 X54.95 Y77.872 E13.1115
G1 X54.91 Y78.485 E13.13501
G1 X54.791 Y79.088 E13.15853
G1 X54.594 Y79.67 E13.18204
G1 X54.324 Y80.222 E13.20556
G1 X53.984 Y80.734 E13.22908
G1 X53.566 Y81.213 E13.25341
G1 X53.463 Y81.316 E13.25899
G1 X53.001 Y81.721 E13.2825
G1 X52.491 Y82.063 E13.306
G1 X51.94 Y82.336 E13.32953
G1 X51.359 Y82.535 E13.35304
G1 X50.756 Y82.657 E13.37658
G1 X50.122 Y82.7 E13.4009
G1 X42.631 Y82.7 E13.68758
G1 X42.018 Y82.66 E13.71109
G1 X41.415 Y82.541 E13.73461
G1 X40.833 Y82.344 E13.75812
G1 X40.281 Y82.074 E13.78164
G1 X39.586 Y81.588 E13.8141
G1 X39.154 Y81.224 E13.83572
G1 X38.711 Y80.799 E13.85921
G1 X38.379 Y80.392 E13.87931
G1 X38.205 Y80.153 E13.89062
G1 X37.876 Y79.634 E13.91414
G1 X37.618 Y79.076 E13.93767
G1 X37.434 Y78.49 E13.96117
G1 X37.328 Y77.885 E13.98468
G1 X37.3 Y77.372 E14.00434
G1 X37.3 Y71.128 E14.2433
G1 X37.34 Y70.515 E14.26681
G1 X37.459 Y69.912 E14.29033
G1 X37.656 Y69.33 E14.31384
G1 X37.926 Y68.778 E14.33736
G1 X38.266 Y68.266 E14.36088
G1 X38.684 Y67.787 E14.38521
G1 X38.787 Y67.684 E14.39079
G1 X39.249 Y67.279 E14.4143
G1 X39.759 Y66.937 E14.4378
G1 X40.31 Y66.664 E14.46133
G1 X40.891 Y66.465 E14.48483
G1 X41.494 Y66.343 E14.50838
G1 X42.128 Y66.3 E14.5327
G1 X42.51 Y66.3 E14.54732
G1 X42.51 Y53.7 E15.02952
G1 X42.128 Y53.7 E15.04414
G1 X41.515 Y53.66 E15.06765
G1 X40.912 Y53.541 E15.09117
G1 X40.33 Y53.344 E15.11468
G1 X39.778 Y53.074 E15.1382
G1 X39.266 Y52.734 E15.16172
G1 X38.787 Y52.316 E15.18605
G1 X38.684 Y52.213 E15.19162
G1 X38.279 Y51.751 E15.21514
G1 X37.937 Y51.241 E15.23864
G1 X37.664 Y50.69 E15.26217
G1 X37.465 Y50.109 E15.28567
G1 X37.343 Y49.506 E15.30922
G1 X37.3 Y48.872 E15.33354
G1 X37.3 Y42.629 E15.57246
G1 X37.34 Y42.016 E15.59596
G1 X37.459 Y41.413 E15.61949
G1 X37.656 Y40.831 E15.643
G1 X37.926 Y40.279 E15.66652
G1 X38.395 Y39.604 E15.69797
G1 X38.674 Y39.27 E15.71463
G0 F972 X38.725 Y39.208
G0 X39.148 Y38.763
G0 F4320 X39.402 Y39.005
G1 F2400 E15.74119
G1 F1080 X39.704 Y38.753 E15.75624
G1 X39.977 Y38.545 E15.76938
G1 X40.47 Y38.219 E15.79199
G1 X41.003 Y37.963 E15.81462
G1 X41.565 Y37.781 E15.83723
G1 X42.147 Y37.676 E15.85986
G1 X42.628 Y37.65 E15.8783
G1 X50.122 Y37.65 E16.16509
G1 X50.712 Y37.69 E16.18772
G1 X51.291 Y37.809 E16.21035
G1 X51.849 Y38.005 E16.23298
G1 X52.375 Y38.275 E16.25561
G1 X52.86 Y38.613 E16.27823
G1 X53.216 Y38.931 E16.2965
G1 X53.319 Y39.034 E16.30207
G1 X53.707 Y39.48 E16.3247
G1 X54.033 Y39.974 E16.34735
G1 X54.288 Y40.507 E16.36996
G1 X54.47 Y41.069 E16.39257
G1 X54.574 Y41.651 E16.41519
G1 X54.6 Y42.128 E16.43347
G1 X54.6 Y44.9 E16.53956
G1 X65.735 Y44.9 E16.96569
G1 X65.735 Y42.128 E17.07178
G1 X65.775 Y41.538 E17.09441
G1 X65.894 Y40.959 E17.11703
G1 X66.09 Y40.401 E17.13966
G1 X66.36 Y39.875 E17.16229
G1 X66.698 Y39.39 E17.18492
G1 X67.016 Y39.034 E17.20318
G1 X67.119 Y38.931 E17.20876
G1 X67.565 Y38.543 E17.23138
G1 X68.059 Y38.217 E17.25403
G1 X68.592 Y37.962 E17.27664
G1 X69.154 Y37.78 E17.29925
G1 X69.736 Y37.676 E17.32188
G1 X70.213 Y37.65 E17.34016
G1 X77.369 Y37.65 E17.61402
G1 X77.959 Y37.69 E17.63665
G1 X78.538 Y37.809 E17.65927
G1 X79.096 Y38.005 E17.68191
G1 X79.622 Y38.275 E17.70453
G1 X80.188 Y38.679 E17.73114
G1 X80.62 Y39.043 E17.75276
G1 X81.045 Y39.454 E17.77539
G1 X81.338 Y39.814 E17.79315
G1 X81.512 Y40.053 E17.80447
G1 X81.827 Y40.553 E17.82708
G1 X82.071 Y41.092 E17.84973
G1 X82.241 Y41.658 E17.87234
G1 X82.333 Y42.242 E17.89497
G1 X82.35 Y42.628 E17.90975
G1 X82.35 Y47.303 E18.08867
G1 X82.31 Y47.893 E18.1113
G1 X82.191 Y48.472 E18.13392
G1 X81.995 Y49.03 E18.15655
G1 X81.725 Y49.556 E18.17918
G1 X81.387 Y50.041 E18.2018
G1 X81.069 Y50.397 E18.22007
G1 X80.966 Y50.5 E18.22565
G1 X80.52 Y50.888 E18.24827
G1 X80.026 Y51.214 E18.27092
G1 X79.493 Y51.469 E18.29353
G1 X78.931 Y51.651 E18.31614
G1 X78.349 Y51.755 E18.33877
G1 X77.872 Y51.781 E18.35705
G1 X77.14 Y51.781 E18.38506
G1 X77.14 Y66.65 E18.9541
G1 X77.872 Y66.65 E18.98211
G1 X78.462 Y66.69 E19.00474
G1 X79.041 Y66.809 E19.02736
G1 X79.599 Y67.005 E19.05
G1 X80.125 Y67.275 E19.07262
G1 X80.61 Y67.613 E19.09525
G1 X80.966 Y67.931 E19.11352
G1 X81.069 Y68.034 E19.11909
G1 X81.457 Y68.48 E19.14171
G1 X81.783 Y68.974 E19.16436
G1 X82.038 Y69.507 E19.18698
G1 X82.22 Y70.069 E19.20958
G1 X82.324 Y70.651 E19.23221
G1 X82.35 Y71.128 E19.25049
G1 X82.35 Y77.371 E19.48941
G1 X82.31 Y77.961 E19.51204
G1 X82.191 Y78.54 E19.53466
G1 X81.995 Y79.098 E19.5573
G1 X81.725 Y79.624 E19.57992
G1 X81.336 Y80.172 E19.60564
G1 X81.006 Y80.568 E19.62537
G1 X80.598 Y80.995 E19.64797
G1 X80.296 Y81.247 E19.66302
G1 X80.023 Y81.455 E19.67616
G1 X79.53 Y81.781 E19.69878
G1 X78.997 Y82.037 E19.72141
G1 X78.435 Y82.219 E19.74401
G1 X77.853 Y82.324 E19.76665
G1 X77.372 Y82.35 E19.78508
G1 X70.213 Y82.35 E20.05906
G1 X69.623 Y82.31 E20.08169
G1 X69.044 Y82.191 E20.10431
G1 X68.486 Y81.995 E20.12694
G1 X67.96 Y81.725 E20.14957
G1 X67.475 Y81.387 E20.17219
G1 X67.119 Y81.069 E20.19046
G1 X67.016 Y80.966 E20.19604
G1 X66.628 Y80.52 E20.21866
G1 X66.302 Y80.026 E20.24131
G1 X66.047 Y79.493 E20.26392
G1 X65.865 Y78.931 E20.28653
G1 X65.761 Y78.349 E20.30915
G1 X65.735 Y77.872 E20.32744
G1 X65.735 Y75.1 E20.43352
G1 X54.6 Y75.1 E20.85966
G1 X54.6 Y77.872 E20.96574
G1 X54.56 Y78.462 E20.98837
G1 X54.441 Y79.041 E21.01099
G1 X54.245 Y79.599 E21.03363
G1 X53.975 Y80.125 E21.05625
G1 X53.637 Y80.61 E21.07888
G1 X53.319 Y80.966 E21.09715
G1 X53.216 Y81.069 E21.10272
G1 X52.77 Y81.457 E21.12534
G1 X52.276 Y81.783 E21.14799
G1 X51.743 Y82.038 E21.17061
G1 X51.181 Y82.22 E21.19321
G1 X50.599 Y82.324 E21.21584
G1 X50.122 Y82.35 E21.23412
G1 X42.631 Y82.35 E21.5208
G1 X42.041 Y82.31 E21.54343
G1 X41.462 Y82.191 E21.56605
G1 X40.904 Y81.995 E21.58869
G1 X40.378 Y81.725 E21.61132
G1 X39.812 Y81.321 E21.63793
G1 X39.38 Y80.957 E21.65955
G1 X38.955 Y80.546 E21.68217
G1 X38.662 Y80.186 E21.69994
G1 X38.488 Y79.947 E21.71125
G1 X38.173 Y79.447 E21.73387
G1 X37.929 Y78.908 E21.75651
G1 X37.759 Y78.342 E21.77913
G1 X37.667 Y77.758 E21.80175
G1 X37.65 Y77.372 E21.81654
G1 X37.65 Y71.128 E22.0555
G1 X37.69 Y70.538 E22.07813
G1 X37.809 Y69.959 E22.10075
G1 X38.005 Y69.401 E22.12338
G1 X38.275 Y68.875 E22.14601
G1 X38.613 Y68.39 E22.16863
G1 X38.931 Y68.034 E22.1869
G1 X39.034 Y67.931 E22.19247
G1 X39.48 Y67.543 E22.2151
G1 X39.974 Y67.217 E22.23775
G1 X40.507 Y66.962 E22.26036
G1 X41.069 Y66.78 E22.28297
G1 X41.651 Y66.676 E22.30559
G1 X42.128 Y66.65 E22.32388
G1 X42.86 Y66.65 E22.35189
G1 X42.86 Y53.35 E22.86088
G1 X42.128 Y53.35 E22.88889
G1 X41.538 Y53.31 E22.91152
G1 X40.959 Y53.191 E22.93415
G1 X40.401 Y52.995 E22.95678
G1 X39.875 Y52.725 E22.97941
G1 X39.39 Y52.387 E23.00203
G1 X39.034 Y52.069 E23.0203
G1 X38.931 Y51.966 E23.02587
G1 X38.543 Y51.52 E23.0485
G1 X38.217 Y51.026 E23.07115
G1 X37.962 Y50.493 E23.09376
G1 X37.78 Y49.931 E23.11637
G1 X37.676 Y49.349 E23.13899
G1 X37.65 Y48.872 E23.15727
