;FLAVOR:Marlin
;TIME:1493
;Filament used: 0.84284m
;Layer height: 0.2625
;MINX:36.95
;MINY:36.95
;MINZ:0.263
;MAXX:83.05
;MAXY:83.05
;MAXZ:2.893
;Generated with Cura_SteamEngine 4.2.1
M140 S65
M105
M190 S65
M104 S190
M105
M109 S190
M82 ;absolute extrusion mode
G21;(metric values)
G90;(absolute positioning)
M82;(set extruder to absolute mode)
M107;(start with the fan off)
G28;(Home the printer)
G92 E0;(Reset the extruder to 0)
G0 Z5 E5 F500;(Move up and prime the nozzle)
G0 X-1 Z0;(Move outside the printable area)
G1 Y60 E8 F500;(Draw a priming/wiping line to the rear)
G1 X-1;(Move a little closer to the print area)
G1 Y10 E16 F500;(draw more priming/wiping)
G1 E15 F250;(Small retract)
G92 E0;(Zero the extruder)
M141 S28
G92 E0
G92 E0
G1 F2400 E-2.5
;LAYER_COUNT:11
;LAYER:0
M107
G0 F4320 X39.317 Y38.831 Z0.263
;TYPE:SKIRT
G1 F2400 E0
G1 F1080 X39.794 Y38.408 E0.0244
G1 X40.311 Y38.054 E0.04838
G1 X40.933 Y37.682 E0.07611
G1 X41.499 Y37.39 E0.10049
G1 X42.097 Y37.171 E0.12486
G1 X42.718 Y37.029 E0.14924
G1 X43.536 Y36.962 E0.18065
G1 X76.416 Y36.95 E1.43896
G1 X77.052 Y36.99 E1.46335
G1 X77.677 Y37.109 E1.4877
G1 X78.283 Y37.305 E1.51207
G1 X78.934 Y37.617 E1.5397
G1 X79.584 Y37.988 E1.56834
G1 X80.116 Y38.338 E1.59271
G1 X80.646 Y38.797 E1.61955
G1 X81.169 Y39.317 E1.64777
G1 X81.592 Y39.794 E1.67217
G1 X81.943 Y40.305 E1.6959
G1 X82.315 Y40.925 E1.72357
G1 X82.608 Y41.491 E1.74796
G1 X82.827 Y42.088 E1.77229
G1 X82.97 Y42.709 E1.79668
G1 X83.038 Y43.525 E1.82802
G1 X83.05 Y48.861 E2.03223
G1 X83.011 Y49.496 E2.05657
G1 X82.894 Y50.122 E2.08094
G1 X82.698 Y50.728 E2.10532
G1 X82.429 Y51.305 E2.12968
G1 X82.089 Y51.844 E2.15407
G1 X81.564 Y52.461 E2.18507
G1 X81.461 Y52.564 E2.19065
G1 X80.983 Y52.985 E2.21503
G1 X80.456 Y53.343 E2.23941
G1 X79.889 Y53.632 E2.26376
G1 X79.29 Y53.848 E2.28813
G1 X78.668 Y53.987 E2.31252
G1 X77.872 Y54.05 E2.34308
G1 X77.84 Y54.05 E2.34431
G1 X77.84 Y65.95 E2.79972
G1 X77.872 Y65.95 E2.80094
G1 X78.508 Y65.99 E2.82533
G1 X79.133 Y66.109 E2.84968
G1 X79.739 Y66.306 E2.87406
G1 X80.315 Y66.577 E2.89843
G1 X80.853 Y66.918 E2.9228
G1 X81.461 Y67.436 E2.95337
G1 X81.564 Y67.539 E2.95895
G1 X81.985 Y68.017 E2.98332
G1 X82.343 Y68.544 E3.0077
G1 X82.632 Y69.111 E3.03206
G1 X82.848 Y69.71 E3.05643
G1 X82.987 Y70.332 E3.08082
G1 X83.05 Y71.128 E3.11138
G1 X83.05 Y76.418 E3.31382
G1 X83.01 Y77.054 E3.33821
G1 X82.891 Y77.679 E3.36256
G1 X82.694 Y78.285 E3.38695
G1 X82.392 Y78.918 E3.41379
G1 X82.066 Y79.494 E3.43912
G1 X81.718 Y80.027 E3.46348
G1 X81.339 Y80.478 E3.48602
G1 X80.83 Y81.017 E3.51439
G1 X80.364 Y81.452 E3.53879
G1 X79.858 Y81.819 E3.56271
G1 X79.183 Y82.247 E3.5933
G1 X78.624 Y82.554 E3.61771
G1 X78.032 Y82.788 E3.64207
G1 X77.415 Y82.946 E3.66644
G1 X76.475 Y83.036 E3.70258
G1 X69.189 Y83.05 E3.98142
G1 X68.553 Y83.011 E4.0058
G1 X67.927 Y82.893 E4.03018
G1 X67.321 Y82.698 E4.05454
G1 X66.744 Y82.428 E4.07892
G1 X66.206 Y82.088 E4.10328
G1 X65.59 Y81.564 E4.13423
G1 X65.487 Y81.461 E4.1398
G1 X65.066 Y80.983 E4.16418
G1 X64.708 Y80.456 E4.18856
G1 X64.419 Y79.889 E4.21292
G1 X64.203 Y79.29 E4.23728
G1 X64.064 Y78.668 E4.26168
G1 X64.015 Y78.05 E4.2854
G1 X55.988 Y78.05 E4.59259
G1 X55.959 Y78.508 E4.61016
G1 X55.84 Y79.133 E4.6345
G1 X55.643 Y79.739 E4.65889
G1 X55.372 Y80.315 E4.68325
G1 X55.031 Y80.853 E4.70763
G1 X54.513 Y81.461 E4.7382
G1 X54.41 Y81.564 E4.74377
G1 X53.932 Y81.985 E4.76815
G1 X53.405 Y82.343 E4.79253
G1 X52.838 Y82.632 E4.81688
G1 X52.239 Y82.848 E4.84125
G1 X51.617 Y82.987 E4.86564
G1 X50.821 Y83.05 E4.8962
G1 X43.582 Y83.05 E5.17324
G1 X42.946 Y83.01 E5.19763
G1 X42.321 Y82.891 E5.22197
G1 X41.715 Y82.694 E5.24636
G1 X41.066 Y82.383 E5.2739
G1 X40.416 Y82.012 E5.30254
G1 X39.884 Y81.662 E5.32692
G1 X39.363 Y81.212 E5.35326
G1 X38.9 Y80.754 E5.37819
G1 X38.476 Y80.279 E5.40255
G1 X38.178 Y79.856 E5.42235
G1 X37.748 Y79.175 E5.45318
G1 X37.442 Y78.616 E5.47757
G1 X37.209 Y78.023 E5.50195
G1 X37.052 Y77.406 E5.52631
G1 X36.964 Y76.478 E5.56199
G1 X36.95 Y71.141 E5.76623
G1 X36.988 Y70.506 E5.79058
G1 X37.106 Y69.88 E5.81496
G1 X37.301 Y69.273 E5.83936
G1 X37.57 Y68.696 E5.86372
G1 X37.91 Y68.158 E5.88808
G1 X38.436 Y67.539 E5.91916
G1 X38.539 Y67.436 E5.92474
G1 X39.017 Y67.015 E5.94911
G1 X39.544 Y66.657 E5.9735
G1 X40.111 Y66.368 E5.99785
G1 X40.71 Y66.152 E6.02222
G1 X41.332 Y66.013 E6.04661
G1 X42.128 Y65.95 E6.07717
G1 X42.16 Y65.95 E6.07839
G1 X42.16 Y54.05 E6.53381
G1 X42.128 Y54.05 E6.53503
G1 X41.492 Y54.01 E6.55942
G1 X40.867 Y53.891 E6.58377
G1 X40.261 Y53.694 E6.60815
G1 X39.685 Y53.423 E6.63251
G1 X39.147 Y53.082 E6.65689
G1 X38.539 Y52.564 E6.68746
G1 X38.436 Y52.461 E6.69303
G1 X38.015 Y51.983 E6.71741
G1 X37.657 Y51.456 E6.74179
G1 X37.368 Y50.889 E6.76615
G1 X37.152 Y50.29 E6.79052
G1 X37.013 Y49.668 E6.81491
G1 X36.95 Y48.872 E6.84547
G1 X36.95 Y43.582 E7.04791
G1 X36.99 Y42.946 E7.0723
G1 X37.109 Y42.321 E7.09665
G1 X37.306 Y41.715 E7.12104
G1 X37.617 Y41.066 E7.14858
G1 X37.988 Y40.416 E7.17722
G1 X38.338 Y39.884 E7.20159
G1 X38.797 Y39.354 E7.22842
G1 X38.828 Y39.323 E7.2301
G0 F972 X39.317 Y38.831
G0 F4320 X39.565 Y39.078
G1 F2400 E7.25666
G1 F1080 X40.026 Y38.671 E7.28019
G1 X40.491 Y38.354 E7.30173
G1 X41.113 Y37.982 E7.32947
G1 X41.66 Y37.701 E7.353
G1 X42.238 Y37.494 E7.3765
G1 X42.839 Y37.364 E7.40003
G1 X43.536 Y37.312 E7.42678
G1 X76.416 Y37.3 E8.68509
G1 X77.029 Y37.34 E8.7086
G1 X77.632 Y37.459 E8.73212
G1 X78.215 Y37.655 E8.75566
G1 X78.76 Y37.921 E8.77887
G1 X79.41 Y38.292 E8.80751
G1 X79.923 Y38.631 E8.83105
G1 X80.399 Y39.045 E8.85519
G1 X80.922 Y39.565 E8.88341
G1 X81.329 Y40.026 E8.90695
G1 X81.643 Y40.485 E8.92823
G1 X82.015 Y41.105 E8.9559
G1 X82.296 Y41.651 E8.9794
G1 X82.504 Y42.23 E9.00295
G1 X82.635 Y42.83 E9.02645
G1 X82.688 Y43.525 E9.05312
G1 X82.7 Y48.861 E9.25733
G1 X82.661 Y49.475 E9.28088
G1 X82.544 Y50.078 E9.30438
G1 X82.348 Y50.66 E9.32789
G1 X82.079 Y51.213 E9.35142
G1 X81.741 Y51.726 E9.37493
G1 X81.316 Y52.213 E9.39967
G1 X81.213 Y52.316 E9.40524
G1 X80.751 Y52.721 E9.42876
G1 X80.241 Y53.063 E9.45226
G1 X79.69 Y53.336 E9.47579
G1 X79.109 Y53.535 E9.49929
G1 X78.506 Y53.657 E9.52284
G1 X77.872 Y53.7 E9.54715
G1 X77.49 Y53.7 E9.56177
G1 X77.49 Y66.3 E10.04398
G1 X77.872 Y66.3 E10.05859
G1 X78.485 Y66.34 E10.0821
G1 X79.088 Y66.459 E10.10563
G1 X79.67 Y66.656 E10.12914
G1 X80.222 Y66.926 E10.15266
G1 X80.734 Y67.266 E10.17618
G1 X81.213 Y67.684 E10.20051
G1 X81.316 Y67.787 E10.20608
G1 X81.721 Y68.249 E10.22959
G1 X82.063 Y68.759 E10.25309
G1 X82.336 Y69.31 E10.27663
G1 X82.535 Y69.891 E10.30013
G1 X82.657 Y70.494 E10.32367
G1 X82.7 Y71.128 E10.34799
G1 X82.7 Y76.418 E10.55044
G1 X82.66 Y77.031 E10.57395
G1 X82.541 Y77.634 E10.59747
G1 X82.344 Y78.216 E10.62099
G1 X82.087 Y78.745 E10.64349
G1 X81.761 Y79.321 E10.66882
G1 X81.424 Y79.835 E10.69235
G1 X81.084 Y80.238 E10.71252
G1 X80.575 Y80.777 E10.7409
G1 X80.125 Y81.195 E10.7644
G1 X79.67 Y81.523 E10.78587
G1 X78.995 Y81.951 E10.81645
G1 X78.456 Y82.246 E10.83997
G1 X77.883 Y82.468 E10.86349
G1 X77.286 Y82.614 E10.88701
G1 X76.474 Y82.686 E10.9182
G1 X69.188 Y82.7 E11.19704
G1 X68.575 Y82.661 E11.22055
G1 X67.972 Y82.543 E11.24406
G1 X67.389 Y82.348 E11.26759
G1 X66.837 Y82.079 E11.29109
G1 X66.324 Y81.74 E11.31462
G1 X65.838 Y81.316 E11.3393
G1 X65.735 Y81.213 E11.34487
G1 X65.33 Y80.751 E11.36839
G1 X64.988 Y80.241 E11.39189
G1 X64.715 Y79.69 E11.41542
G1 X64.516 Y79.109 E11.43892
G1 X64.394 Y78.506 E11.46247
G1 X64.351 Y77.872 E11.48679
G1 X64.351 Y77.7 E11.49337
G1 X55.649 Y77.7 E11.82639
G1 X55.649 Y77.872 E11.83298
G1 X55.609 Y78.485 E11.85649
G1 X55.49 Y79.088 E11.88001
G1 X55.293 Y79.67 E11.90352
G1 X55.023 Y80.222 E11.92704
G1 X54.683 Y80.734 E11.95056
G1 X54.265 Y81.213 E11.97489
G1 X54.162 Y81.316 E11.98046
G1 X53.7 Y81.721 E12.00398
G1 X53.19 Y82.063 E12.02748
G1 X52.639 Y82.336 E12.05101
G1 X52.058 Y82.535 E12.07451
G1 X51.455 Y82.657 E12.09806
G1 X50.821 Y82.7 E12.12238
G1 X43.582 Y82.7 E12.39941
G1 X42.969 Y82.66 E12.42292
G1 X42.366 Y82.541 E12.44644
G1 X41.784 Y82.344 E12.46996
G1 X41.24 Y82.079 E12.49311
G1 X40.59 Y81.708 E12.52176
G1 X40.077 Y81.369 E12.54529
G1 X39.609 Y80.963 E12.569
G1 X39.146 Y80.505 E12.59392
G1 X38.738 Y80.046 E12.61743
G1 X38.474 Y79.669 E12.63504
G1 X38.044 Y78.988 E12.66586
G1 X37.75 Y78.448 E12.68939
G1 X37.529 Y77.875 E12.71289
G1 X37.384 Y77.277 E12.73644
G1 X37.314 Y76.477 E12.76718
G1 X37.3 Y71.14 E12.97142
G1 X37.338 Y70.527 E12.99493
G1 X37.456 Y69.924 E13.01844
G1 X37.651 Y69.341 E13.04197
G1 X37.92 Y68.789 E13.06547
G1 X38.258 Y68.276 E13.08898
G1 X38.684 Y67.787 E13.1138
G1 X38.787 Y67.684 E13.11937
G1 X39.249 Y67.279 E13.14289
G1 X39.759 Y66.937 E13.16639
G1 X40.31 Y66.664 E13.18992
G1 X40.891 Y66.465 E13.21342
G1 X41.494 Y66.343 E13.23697
G1 X42.128 Y66.3 E13.26129
G1 X42.51 Y66.3 E13.2759
G1 X42.51 Y53.7 E13.75811
G1 X42.128 Y53.7 E13.77272
G1 X41.515 Y53.66 E13.79623
G1 X40.912 Y53.541 E13.81976
G1 X40.33 Y53.344 E13.84327
G1 X39.778 Y53.074 E13.86679
G1 X39.266 Y52.734 E13.89031
G1 X38.787 Y52.316 E13.91464
G1 X38.684 Y52.213 E13.92021
G1 X38.279 Y51.751 E13.94372
G1 X37.937 Y51.241 E13.96722
G1 X37.664 Y50.69 E13.99076
G1 X37.465 Y50.109 E14.01426
G1 X37.343 Y49.506 E14.03781
G1 X37.3 Y48.872 E14.06212
G1 X37.3 Y43.582 E14.26457
G1 X37.34 Y42.969 E14.28808
G1 X37.459 Y42.366 E14.3116
G1 X37.656 Y41.784 E14.33512
G1 X37.921 Y41.24 E14.35828
G1 X38.292 Y40.59 E14.38692
G1 X38.631 Y40.077 E14.41045
G1 X39.045 Y39.601 E14.43459
G1 X39.076 Y39.57 E14.43627
G0 F972 X39.565 Y39.078
G0 F4320 X39.814 Y39.324
G1 F2400 E14.46283
G1 F1080 X40.258 Y38.934 E14.48545
G1 X40.67 Y38.654 E14.50451
G1 X41.292 Y38.282 E14.53225
G1 X41.819 Y38.014 E14.55487
G1 X42.377 Y37.819 E14.57749
G1 X42.957 Y37.701 E14.60014
G1 X43.536 Y37.662 E14.62235
G1 X76.416 Y37.65 E15.88067
G1 X77.006 Y37.69 E15.9033
G1 X77.586 Y37.809 E15.92596
G1 X78.143 Y38.005 E15.94856
G1 X78.587 Y38.225 E15.96752
G1 X79.237 Y38.596 E15.99616
G1 X79.729 Y38.923 E16.01877
G1 X80.153 Y39.294 E16.04033
G1 X80.676 Y39.814 E16.06856
G1 X81.066 Y40.258 E16.09117
G1 X81.343 Y40.665 E16.11001
G1 X81.715 Y41.285 E16.13768
G1 X81.984 Y41.811 E16.16029
G1 X82.18 Y42.369 E16.18293
G1 X82.298 Y42.949 E16.20558
G1 X82.338 Y43.526 E16.22771
G1 X82.35 Y48.862 E16.43192
G1 X82.311 Y49.452 E16.45455
G1 X82.194 Y50.032 E16.47719
G1 X81.999 Y50.59 E16.49981
G1 X81.73 Y51.117 E16.52246
G1 X81.393 Y51.603 E16.54509
G1 X81.069 Y51.966 E16.56371
G1 X80.966 Y52.069 E16.56929
G1 X80.52 Y52.457 E16.59191
G1 X80.026 Y52.783 E16.61456
G1 X79.493 Y53.038 E16.63717
G1 X78.931 Y53.22 E16.65978
G1 X78.349 Y53.324 E16.68241
G1 X77.872 Y53.35 E16.70069
G1 X77.14 Y53.35 E16.7287
G1 X77.14 Y66.65 E17.23769
G1 X77.872 Y66.65 E17.26571
G1 X78.462 Y66.69 E17.28834
G1 X79.041 Y66.809 E17.31096
G1 X79.599 Y67.005 E17.33359
G1 X80.125 Y67.275 E17.35622
G1 X80.61 Y67.613 E17.37884
G1 X80.966 Y67.931 E17.39711
G1 X81.069 Y68.034 E17.40269
G1 X81.457 Y68.48 E17.42531
G1 X81.783 Y68.974 E17.44796
G1 X82.038 Y69.507 E17.47057
G1 X82.22 Y70.069 E17.49318
G1 X82.324 Y70.651 E17.51581
G1 X82.35 Y71.128 E17.53409
G1 X82.35 Y76.418 E17.73653
G1 X82.31 Y77.008 E17.75917
G1 X82.191 Y77.587 E17.78179
G1 X81.995 Y78.145 E17.80442
G1 X81.782 Y78.573 E17.82272
G1 X81.456 Y79.149 E17.84805
G1 X81.131 Y79.643 E17.87068
G1 X80.83 Y79.998 E17.88849
G1 X80.321 Y80.537 E17.91686
G1 X79.887 Y80.938 E17.93947
G1 X79.483 Y81.228 E17.9585
G1 X78.808 Y81.656 E17.98909
G1 X78.288 Y81.938 E18.01173
G1 X77.735 Y82.148 E18.03437
G1 X77.159 Y82.281 E18.05699
G1 X76.473 Y82.336 E18.08333
G1 X69.187 Y82.35 E18.36216
G1 X68.597 Y82.311 E18.38479
G1 X68.018 Y82.193 E18.40741
G1 X67.46 Y81.998 E18.43003
G1 X66.933 Y81.73 E18.45265
G1 X66.447 Y81.392 E18.47531
G1 X66.085 Y81.069 E18.49388
G1 X65.982 Y80.966 E18.49945
G1 X65.594 Y80.52 E18.52207
G1 X65.268 Y80.026 E18.54473
G1 X65.013 Y79.493 E18.56734
G1 X64.831 Y78.931 E18.58994
G1 X64.727 Y78.349 E18.61257
G1 X64.701 Y77.872 E18.63085
G1 X64.701 Y77.35 E18.65083
G1 X55.299 Y77.35 E19.01064
G1 X55.299 Y77.872 E19.03062
G1 X55.259 Y78.462 E19.05325
G1 X55.14 Y79.041 E19.07587
G1 X54.944 Y79.599 E19.09851
G1 X54.674 Y80.125 E19.12113
G1 X54.336 Y80.61 E19.14376
G1 X54.018 Y80.966 E19.16203
G1 X53.915 Y81.069 E19.1676
G1 X53.469 Y81.457 E19.19022
G1 X52.975 Y81.783 E19.21287
G1 X52.442 Y82.038 E19.23549
G1 X51.88 Y82.22 E19.25809
G1 X51.298 Y82.324 E19.28072
G1 X50.821 Y82.35 E19.299
G1 X43.582 Y82.35 E19.57604
G1 X42.992 Y82.31 E19.59867
G1 X42.413 Y82.191 E19.62129
G1 X41.855 Y81.995 E19.64392
G1 X41.413 Y81.775 E19.66282
G1 X40.763 Y81.404 E19.69146
G1 X40.271 Y81.077 E19.71407
G1 X39.855 Y80.714 E19.7352
G1 X39.392 Y80.256 E19.76012
G1 X39.001 Y79.813 E19.78273
G1 X38.77 Y79.482 E19.79818
G1 X38.34 Y78.801 E19.829
G1 X38.059 Y78.281 E19.85162
G1 X37.85 Y77.727 E19.87428
G1 X37.718 Y77.151 E19.8969
G1 X37.664 Y76.476 E19.92281
G1 X37.65 Y71.139 E20.12706
G1 X37.688 Y70.549 E20.14969
G1 X37.806 Y69.97 E20.1723
G1 X38.001 Y69.412 E20.19492
G1 X38.269 Y68.885 E20.21755
G1 X38.606 Y68.399 E20.24018
G1 X38.931 Y68.034 E20.25888
G1 X39.034 Y67.931 E20.26446
G1 X39.48 Y67.543 E20.28708
G1 X39.974 Y67.217 E20.30973
G1 X40.507 Y66.962 E20.33235
G1 X41.069 Y66.78 E20.35495
G1 X41.651 Y66.676 E20.37758
G1 X42.128 Y66.65 E20.39586
G1 X42.86 Y66.65 E20.42387
G1 X42.86 Y53.35 E20.93286
G1 X42.128 Y53.35 E20.96088
G1 X41.538 Y53.31 E20.98351
G1 X40.959 Y53.191 E21.00613
G1 X40.401 Y52.995 E21.02876
G1 X39.875 Y52.725 E21.05139
G1 X39.39 Y52.387 E21.07402
G1 X39.034 Y52.069 E21.09228
G1 X38.931 Y51.966 E21.09786
G1 X38.543 Y51.52 E21.12048
G1 X38.217 Y51.026 E21.14313
G1 X37.962 Y50.493 E21.16574
G1 X37.78 Y49.931 E21.18835
G1 X37.676 Y49.349 E21.21098
G1 X37.65 Y48.872 E21.22926
G1 X37.65 Y43.582 E21.43171
G1 X37.69 Y42.992 E21.45434
G1 X37.809 Y42.413 E21.47696
G1 X38.005 Y41.855 E21.49959
G1 X38.225 Y41.413 E21.51849
G1 X38.596 Y40.763 E21.54713
G1 X38.923 Y40.271 E21.56974
G1 X39.294 Y39.847 E21.5913
G1 X39.325 Y39.816 E21.59298
G0 F972 X39.814 Y39.324
G0 F4320 X40.062 Y39.571
G1 F2400 E21.61954
G1 F1080 X40.489 Y39.198 E21.64124
G1 X40.85 Y38.955 E21.65789
G1 X41.472 Y38.583 E21.68563
G1 X41.978 Y38.327 E21.70733
G1 X42.515 Y38.144 E21.72904
G1 X43.072 Y38.039 E21.75073
G1 X43.537 Y38.012 E21.76856
G1 X76.417 Y38 E23.02687
G1 X76.982 Y38.04 E23.04855
G1 X77.537 Y38.159 E23.07027
G1 X78.069 Y38.354 E23.09196
G1 X78.413 Y38.529 E23.10673
G1 X79.063 Y38.9 E23.13537
G1 X79.535 Y39.215 E23.15708
G1 X79.906 Y39.542 E23.17601
G1 X80.429 Y40.062 E23.20424
G1 X80.802 Y40.489 E23.22593
G1 X81.042 Y40.845 E23.24236
G1 X81.414 Y41.465 E23.27003
G1 X81.671 Y41.971 E23.29175
G1 X81.854 Y42.507 E23.31343
G1 X81.96 Y43.065 E23.33517
G1 X81.988 Y43.527 E23.35288
G1 X82 Y48.863 E23.55709
G1 X81.961 Y49.429 E23.5788
G1 X81.844 Y49.983 E23.60047
G1 X81.649 Y50.516 E23.62219
G1 X81.381 Y51.016 E23.6439
G1 X81.046 Y51.474 E23.66562
G1 X80.821 Y51.718 E23.67832
G1 X80.718 Y51.821 E23.68389
G1 X80.29 Y52.193 E23.70559
G1 X79.814 Y52.501 E23.72729
G1 X79.299 Y52.739 E23.749
G1 X78.756 Y52.902 E23.7707
G1 X78.195 Y52.987 E23.79241
G1 X77.872 Y53 E23.80479
G1 X76.79 Y53 E23.84619
G1 X76.79 Y67 E24.38197
G1 X77.872 Y67 E24.42338
G1 X78.438 Y67.04 E24.4451
G1 X78.992 Y67.159 E24.46678
G1 X79.524 Y67.355 E24.48848
G1 X80.024 Y67.623 E24.51019
G1 X80.48 Y67.96 E24.53189
G1 X80.718 Y68.179 E24.54427
G1 X80.821 Y68.282 E24.54984
G1 X81.193 Y68.71 E24.57154
G1 X81.501 Y69.186 E24.59324
G1 X81.739 Y69.701 E24.61495
G1 X81.902 Y70.244 E24.63665
G1 X81.987 Y70.805 E24.65836
G1 X82 Y71.128 E24.67073
G1 X82 Y76.418 E24.87318
G1 X81.96 Y76.984 E24.8949
G1 X81.841 Y77.538 E24.91658
G1 X81.645 Y78.07 E24.93828
G1 X81.478 Y78.401 E24.95247
G1 X81.152 Y78.977 E24.9778
G1 X80.838 Y79.449 E24.99949
G1 X80.575 Y79.758 E25.01502
G1 X80.066 Y80.297 E25.04339
G1 X79.649 Y80.68 E25.06506
G1 X79.295 Y80.932 E25.08169
G1 X78.62 Y81.36 E25.11228
G1 X78.121 Y81.629 E25.13397
G1 X77.589 Y81.826 E25.15568
G1 X77.035 Y81.945 E25.17737
G1 X76.473 Y81.986 E25.19893
G1 X69.187 Y82 E25.47777
G1 X68.621 Y81.961 E25.49948
