;FLAVOR:Marlin
;TIME:21505
;Filament used: 4.86044m
;Layer height: 0.13125
;MINX:31.251
;MINY:23.299
;MINZ:0.263
;MAXX:103.401
;MAXY:95.449
;MAXZ:16.638
;Generated with Cura_SteamEngine 4.2.1
M140 S70
M105
M190 S70
M104 S245
M105
M109 S245
M82 ;absolute extrusion mode
G21;(metric values)
G90;(absolute positioning)
M82;(set extruder to absolute mode)
M107;(start with the fan off)
G28;(Home the printer)
G92 E0;(Reset the extruder to 0)
G0 Z5 E5 F500;(Move up and prime the nozzle)
G0 X-1 Z0;(Move outside the printable area)
G1 Y60 E8 F500;(Draw a priming/wiping line to the rear)
G1 X-1;(Move a little closer to the print area)
G1 Y10 E16 F500;(draw more priming/wiping)
G1 E15 F250;(Small retract)
G92 E0;(Zero the extruder)
G92 E0
G92 E0
G1 F2040 E-4
;LAYER_COUNT:126
;LAYER:0
M107
G0 F4320 X32.625 Y26.902 Z0.263
;TYPE:SKIRT
G1 F2040 E0
G1 F720 X33.089 Y26.466 E0.02437
G1 X33.604 Y26.091 E0.04875
G1 X34.161 Y25.784 E0.07309
G1 X34.753 Y25.549 E0.09746
G1 X35.37 Y25.39 E0.12185
G1 X36.002 Y25.309 E0.14623
G1 X36.326 Y25.299 E0.15864
G1 X87.69 Y25.299 E2.12433
G1 X87.974 Y24.947 E2.14164
G1 X88.433 Y24.505 E2.16603
G1 X88.943 Y24.124 E2.19039
G1 X89.497 Y23.81 E2.21476
G1 X90.086 Y23.568 E2.23913
G1 X90.701 Y23.402 E2.26351
G1 X91.332 Y23.314 E2.28789
G1 X91.717 Y23.299 E2.30264
G1 X95.568 Y23.299 E2.45001
G1 X96.204 Y23.339 E2.4744
G1 X96.829 Y23.458 E2.49875
G1 X97.435 Y23.655 E2.52314
G1 X98.011 Y23.926 E2.5475
G1 X98.549 Y24.267 E2.57187
G1 X99.04 Y24.673 E2.59626
G1 X99.476 Y25.137 E2.62062
G1 X99.748 Y25.51 E2.63829
G1 X100.193 Y25.655 E2.6562
G1 X100.769 Y25.926 E2.68056
G1 X101.307 Y26.267 E2.70494
G1 X101.798 Y26.673 E2.72932
G1 X102.234 Y27.137 E2.75369
G1 X102.609 Y27.652 E2.77807
G1 X102.916 Y28.209 E2.80241
G1 X103.151 Y28.801 E2.82678
G1 X103.31 Y29.418 E2.85117
G1 X103.391 Y30.05 E2.87555
G1 X103.401 Y30.374 E2.88796
G1 X103.401 Y90.374 E5.18415
G1 X103.361 Y91.01 E5.20854
G1 X103.242 Y91.635 E5.23289
G1 X103.045 Y92.241 E5.25728
G1 X102.774 Y92.817 E5.28164
G1 X102.433 Y93.355 E5.30602
G1 X102.027 Y93.846 E5.3304
G1 X101.563 Y94.282 E5.35476
G1 X101.048 Y94.657 E5.37914
G1 X100.491 Y94.964 E5.40348
G1 X99.899 Y95.199 E5.42786
G1 X99.282 Y95.358 E5.45224
G1 X98.65 Y95.439 E5.47663
G1 X98.326 Y95.449 E5.48903
G1 X36.326 Y95.449 E7.86177
G1 X35.69 Y95.409 E7.88616
G1 X35.065 Y95.29 E7.91051
G1 X34.459 Y95.093 E7.93489
G1 X33.883 Y94.822 E7.95925
G1 X33.345 Y94.481 E7.98363
G1 X32.854 Y94.075 E8.00801
G1 X32.418 Y93.611 E8.03238
G1 X32.043 Y93.096 E8.05676
G1 X31.736 Y92.539 E8.0811
G1 X31.501 Y91.947 E8.10548
G1 X31.342 Y91.33 E8.12986
G1 X31.261 Y90.698 E8.15424
G1 X31.251 Y90.374 E8.16665
G1 X31.251 Y30.374 E10.46285
G1 X31.291 Y29.738 E10.48723
G1 X31.41 Y29.113 E10.51158
G1 X31.607 Y28.507 E10.53597
G1 X31.878 Y27.931 E10.56033
G1 X32.189 Y27.441 E10.58254
G0 F648 X32.219 Y27.393
G0 X32.625 Y26.902
G0 F4320 X32.97 Y27.048
G1 F2040 E10.6091
G1 F720 X33.43 Y26.641 E10.6326
G1 X33.939 Y26.296 E10.65614
G1 X34.488 Y26.021 E10.67964
G1 X35.069 Y25.819 E10.70318
G1 X35.67 Y25.695 E10.72666
G1 X36.326 Y25.649 E10.75183
G1 X87.864 Y25.649 E12.72418
G1 X87.923 Y25.557 E12.72837
G1 X88.321 Y25.089 E12.75188
G1 X88.776 Y24.676 E12.77539
G1 X89.281 Y24.325 E12.79893
G1 X89.827 Y24.044 E12.82243
G1 X90.405 Y23.835 E12.84595
G1 X91.005 Y23.703 E12.86946
G1 X91.717 Y23.649 E12.89679
G1 X95.568 Y23.649 E13.04417
G1 X96.181 Y23.689 E13.06768
G1 X96.784 Y23.808 E13.0912
G1 X97.366 Y24.005 E13.11471
G1 X97.918 Y24.275 E13.13823
G1 X98.43 Y24.615 E13.16175
G1 X98.894 Y25.018 E13.18527
G1 X99.301 Y25.478 E13.20878
G1 X99.522 Y25.804 E13.22385
G1 X99.542 Y25.808 E13.22463
G1 X100.124 Y26.005 E13.24814
G1 X100.676 Y26.275 E13.27166
G1 X101.188 Y26.615 E13.29518
G1 X101.652 Y27.018 E13.3187
G1 X102.059 Y27.478 E13.34221
G1 X102.404 Y27.987 E13.36574
G1 X102.679 Y28.536 E13.38924
G1 X102.881 Y29.117 E13.41278
G1 X103.005 Y29.718 E13.43626
G1 X103.051 Y30.374 E13.46143
G1 X103.051 Y90.374 E15.75763
G1 X103.011 Y90.987 E15.78114
G1 X102.892 Y91.59 E15.80466
G1 X102.695 Y92.172 E15.82817
G1 X102.425 Y92.724 E15.85169
G1 X102.085 Y93.236 E15.87521
G1 X101.682 Y93.7 E15.89873
G1 X101.222 Y94.107 E15.92224
G1 X100.713 Y94.452 E15.94577
G1 X100.164 Y94.727 E15.96927
G1 X99.583 Y94.929 E15.99281
G1 X98.982 Y95.053 E16.01629
G1 X98.326 Y95.099 E16.04146
G1 X36.326 Y95.099 E18.41419
G1 X35.713 Y95.059 E18.4377
G1 X35.11 Y94.94 E18.46123
G1 X34.528 Y94.743 E18.48474
G1 X33.976 Y94.473 E18.50826
G1 X33.464 Y94.133 E18.53178
G1 X33 Y93.73 E18.5553
G1 X32.593 Y93.27 E18.5788
G1 X32.248 Y92.761 E18.60234
G1 X31.973 Y92.212 E18.62583
G1 X31.771 Y91.631 E18.64937
G1 X31.647 Y91.03 E18.67286
G1 X31.601 Y90.374 E18.69803
G1 X31.601 Y30.374 E20.99422
G1 X31.641 Y29.761 E21.01773
G1 X31.76 Y29.158 E21.04125
G1 X31.957 Y28.576 E21.06477
G1 X32.227 Y28.024 E21.08829
G1 X32.523 Y27.578 E21.10877
G0 F648 X32.567 Y27.512
G0 X32.97 Y27.048
G0 F4320 X33.314 Y27.201
G1 F2040 E21.13533
G1 F720 X33.77 Y26.824 E21.15797
G1 X34.272 Y26.511 E21.18061
G1 X34.811 Y26.27 E21.20321
G1 X35.379 Y26.103 E21.22587
G1 X35.963 Y26.014 E21.24847
G1 X36.326 Y25.999 E21.26238
G1 X88.053 Y25.999 E23.24197
G1 X88.272 Y25.677 E23.25687
G1 X88.667 Y25.237 E23.2795
G1 X89.118 Y24.855 E23.30212
G1 X89.616 Y24.536 E23.32475
G1 X90.153 Y24.288 E23.34739
G1 X90.718 Y24.115 E23.37
G1 X91.302 Y24.019 E23.39265
G1 X91.717 Y23.999 E23.40855
G1 X95.568 Y23.999 E23.55593
G1 X96.158 Y24.039 E23.57856
G1 X96.737 Y24.158 E23.60118
G1 X97.295 Y24.354 E23.62381
G1 X97.821 Y24.624 E23.64644
G1 X98.306 Y24.962 E23.66906
G1 X98.741 Y25.362 E23.69168
G1 X99.118 Y25.818 E23.71432
G1 X99.306 Y26.119 E23.72791
G1 X99.495 Y26.158 E23.73529
G1 X100.053 Y26.354 E23.75792
G1 X100.579 Y26.624 E23.78055
G1 X101.064 Y26.962 E23.80317
G1 X101.499 Y27.362 E23.82579
G1 X101.876 Y27.818 E23.84843
G1 X102.189 Y28.32 E23.87107
G1 X102.43 Y28.859 E23.89367
G1 X102.597 Y29.427 E23.91633
G1 X102.686 Y30.011 E23.93893
G1 X102.701 Y30.374 E23.95284
G1 X102.701 Y90.374 E26.24903
G1 X102.661 Y90.964 E26.27167
G1 X102.542 Y91.543 E26.29429
G1 X102.346 Y92.101 E26.31692
G1 X102.076 Y92.627 E26.33955
G1 X101.738 Y93.112 E26.36217
G1 X101.338 Y93.547 E26.38479
G1 X100.882 Y93.924 E26.40743
G1 X100.38 Y94.237 E26.43007
G1 X99.841 Y94.478 E26.45267
G1 X99.273 Y94.645 E26.47532
G1 X98.689 Y94.734 E26.49793
G1 X98.326 Y94.749 E26.51183
G1 X36.326 Y94.749 E28.88457
G1 X35.736 Y94.709 E28.9072
G1 X35.157 Y94.59 E28.92982
G1 X34.599 Y94.394 E28.95246
G1 X34.073 Y94.124 E28.97508
G1 X33.588 Y93.786 E28.99771
G1 X33.153 Y93.386 E29.02032
G1 X32.776 Y92.93 E29.04297
G1 X32.463 Y92.428 E29.06561
G1 X32.222 Y91.889 E29.0882
G1 X32.055 Y91.321 E29.11086
G1 X31.966 Y90.737 E29.13347
G1 X31.951 Y90.374 E29.14737
G1 X31.951 Y30.374 E31.44357
G1 X31.991 Y29.784 E31.4662
G1 X32.11 Y29.205 E31.48882
G1 X32.306 Y28.647 E31.51145
G1 X32.576 Y28.121 E31.53408
G1 X32.855 Y27.721 E31.55274
G0 F648 X32.914 Y27.636
G0 X33.314 Y27.201
G0 F4320 X33.261 Y27.766
G1 F2040 E31.5793
G1 F720 X33.658 Y27.361 E31.60101
G1 X34.108 Y27.015 E31.62273
G1 X34.602 Y26.737 E31.64442
G1 X35.13 Y26.531 E31.66611
G1 X35.682 Y26.401 E31.68782
G1 X36.326 Y26.349 E31.71254
G1 X88.245 Y26.349 E33.69948
G1 X88.29 Y26.263 E33.7032
G1 X88.62 Y25.803 E33.72486
G1 X89.013 Y25.393 E33.7466
G1 X89.458 Y25.042 E33.76829
G1 X89.949 Y24.758 E33.78999
G1 X90.475 Y24.545 E33.81171
G1 X91.025 Y24.409 E33.83339
G1 X91.717 Y24.349 E33.85998
G1 X95.568 Y24.349 E34.00735
G1 X96.134 Y24.389 E34.02907
G1 X96.688 Y24.508 E34.05075
G1 X97.22 Y24.704 E34.07245
G1 X97.72 Y24.972 E34.09416
G1 X98.176 Y25.309 E34.11586
G1 X98.581 Y25.706 E34.13756
G1 X98.927 Y26.156 E34.15929
G1 X99.081 Y26.43 E34.17132
G1 X99.446 Y26.508 E34.1856
G1 X99.978 Y26.704 E34.2073
G1 X100.478 Y26.972 E34.22901
G1 X100.934 Y27.309 E34.25071
G1 X101.339 Y27.706 E34.27241
G1 X101.685 Y28.156 E34.29414
G1 X101.963 Y28.65 E34.31583
G1 X102.169 Y29.178 E34.33752
G1 X102.299 Y29.73 E34.35922
G1 X102.351 Y30.374 E34.38395
G1 X102.351 Y90.374 E36.68014
G1 X102.311 Y90.94 E36.70186
G1 X102.192 Y91.494 E36.72354
G1 X101.996 Y92.026 E36.74524
G1 X101.728 Y92.526 E36.76695
G1 X101.391 Y92.982 E36.78865
G1 X100.994 Y93.387 E36.81036
G1 X100.544 Y93.733 E36.83208
G1 X100.05 Y94.011 E36.85377
G1 X99.522 Y94.217 E36.87546
G1 X98.97 Y94.347 E36.89717
G1 X98.326 Y94.399 E36.92189
G1 X36.326 Y94.399 E39.29463
G1 X35.76 Y94.359 E39.31634
G1 X35.206 Y94.24 E39.33803
G1 X34.674 Y94.044 E39.35973
G1 X34.174 Y93.776 E39.38144
G1 X33.718 Y93.439 E39.40314
G1 X33.313 Y93.042 E39.42484
G1 X32.967 Y92.592 E39.44656
G1 X32.689 Y92.098 E39.46826
G1 X32.483 Y91.57 E39.48995
G1 X32.353 Y91.018 E39.51165
G1 X32.301 Y90.374 E39.53638
G1 X32.301 Y30.374 E41.83257
G1 X32.341 Y29.808 E41.85429
G1 X32.46 Y29.254 E41.87597
G1 X32.656 Y28.722 E41.89767
G1 X32.864 Y28.333 E41.91455
G0 F648 X32.924 Y28.222
G0 X33.261 Y27.766
G0 F4320 X33.607 Y27.902
G1 F2040 E41.94111
G1 F720 X34 Y27.529 E41.96185
G1 X34.444 Y27.218 E41.98259
G1 X34.928 Y26.975 E42.00332
G1 X35.443 Y26.807 E42.02405
G1 X35.977 Y26.716 E42.04478
G1 X36.326 Y26.699 E42.05815
G1 X88.455 Y26.699 E44.05313
G1 X88.639 Y26.365 E44.06772
G1 X88.968 Y25.935 E44.08844
G1 X89.357 Y25.557 E44.1092
G1 X89.797 Y25.241 E44.12993
G1 X90.278 Y24.992 E44.15066
G1 X90.791 Y24.818 E44.17139
G1 X91.324 Y24.72 E44.19213
G1 X91.717 Y24.699 E44.20719
G1 X95.568 Y24.699 E44.35457
G1 X96.108 Y24.739 E44.37529
G1 X96.637 Y24.858 E44.39604
G1 X97.142 Y25.053 E44.41676
G1 X97.614 Y25.321 E44.43753
G1 X98.04 Y25.655 E44.45825
G1 X98.413 Y26.048 E44.47898
G1 X98.724 Y26.492 E44.49973
G1 X98.847 Y26.738 E44.51025
G1 X98.866 Y26.739 E44.51098
G1 X99.395 Y26.858 E44.53173
G1 X99.9 Y27.053 E44.55245
G1 X100.372 Y27.321 E44.57322
G1 X100.798 Y27.655 E44.59394
G1 X101.171 Y28.048 E44.61467
G1 X101.482 Y28.492 E44.63542
G1 X101.725 Y28.976 E44.65614
G1 X101.893 Y29.491 E44.67688
G1 X101.984 Y30.025 E44.69761
G1 X102.001 Y30.374 E44.71098
G1 X102.001 Y90.374 E47.00717
G1 X101.961 Y90.914 E47.0279
G1 X101.842 Y91.443 E47.04865
G1 X101.647 Y91.948 E47.06937
G1 X101.379 Y92.42 E47.09014
G1 X101.045 Y92.846 E47.11085
G1 X100.652 Y93.219 E47.13159
G1 X100.208 Y93.53 E47.15233
G1 X99.724 Y93.773 E47.17306
G1 X99.209 Y93.941 E47.19379
G1 X98.675 Y94.032 E47.21452
G1 X98.326 Y94.049 E47.2279
G1 X36.326 Y94.049 E49.60063
G1 X35.786 Y94.009 E49.62135
G1 X35.257 Y93.89 E49.6421
G1 X34.752 Y93.695 E49.66282
G1 X34.28 Y93.427 E49.68359
G1 X33.854 Y93.093 E49.70431
G1 X33.481 Y92.7 E49.72505
G1 X33.17 Y92.256 E49.74579
G1 X32.927 Y91.772 E49.76652
G1 X32.759 Y91.257 E49.78725
G1 X32.668 Y90.723 E49.80798
G1 X32.651 Y90.374 E49.82135
G1 X32.651 Y30.374 E52.11755
G1 X32.691 Y29.834 E52.13827
G1 X32.81 Y29.305 E52.15902
G1 X33.005 Y28.8 E52.17974
G1 X33.198 Y28.461 E52.19467
G0 F648 X33.273 Y28.328
G0 X33.607 Y27.902
G0 F4320 X33.952 Y28.046
G1 F2040 E52.22123
G1 F720 X34.341 Y27.707 E52.24097
G1 X34.777 Y27.432 E52.2607
G1 X35.25 Y27.228 E52.28041
G1 X35.749 Y27.099 E52.30014
G1 X36.326 Y27.049 E52.3223
G1 X88.676 Y27.049 E54.32573
G1 X88.728 Y26.918 E54.33113
G1 X88.989 Y26.473 E54.35087
G1 X89.315 Y26.074 E54.37059
G1 X89.7 Y25.731 E54.39032
G1 X90.132 Y25.451 E54.41002
G1 X90.603 Y25.241 E54.42976
G1 X91.101 Y25.107 E54.4495
G1 X91.717 Y25.049 E54.47318
G1 X95.568 Y25.049 E54.62055
G1 X96.082 Y25.089 E54.64028
G1 X96.583 Y25.208 E54.65999
G1 X97.06 Y25.403 E54.67971
G1 X97.502 Y25.669 E54.69945
G1 X97.896 Y26 E54.71915
G1 X98.235 Y26.389 E54.73889
G1 X98.51 Y26.825 E54.75862
G1 X98.616 Y27.072 E54.76891
G1 X98.84 Y27.089 E54.7775
G1 X99.341 Y27.208 E54.79721
G1 X99.818 Y27.403 E54.81693
G1 X100.26 Y27.669 E54.83667
G1 X100.654 Y28 E54.85637
G1 X100.993 Y28.389 E54.87611
G1 X101.268 Y28.825 E54.89584
G1 X101.472 Y29.298 E54.91556
G1 X101.601 Y29.797 E54.93528
G1 X101.651 Y30.374 E54.95744
G1 X101.651 Y90.374 E57.25364
G1 X101.611 Y90.888 E57.27337
G1 X101.492 Y91.389 E57.29308
G1 X101.297 Y91.866 E57.3128
G1 X101.031 Y92.308 E57.33254
G1 X100.7 Y92.702 E57.35223
G1 X100.311 Y93.041 E57.37198
G1 X99.875 Y93.316 E57.39171
G1 X99.402 Y93.52 E57.41142
G1 X98.903 Y93.649 E57.43115
G1 X98.326 Y93.699 E57.45331
G1 X36.326 Y93.699 E59.82605
G1 X35.812 Y93.659 E59.84578
G1 X35.311 Y93.54 E59.86548
G1 X34.834 Y93.345 E59.88521
G1 X34.392 Y93.079 E59.90495
G1 X33.998 Y92.748 E59.92464
G1 X33.659 Y92.359 E59.94439
G1 X33.384 Y91.923 E59.96412
G1 X33.18 Y91.45 E59.98383
G1 X33.051 Y90.951 E60.00355
G1 X33.001 Y90.374 E60.02572
G1 X33.001 Y30.374 E62.32191
G1 X33.041 Y29.86 E62.34164
G1 X33.16 Y29.359 E62.36135
G1 X33.355 Y28.882 E62.38107
G1 X33.529 Y28.594 E62.39395
G0 F648 X33.621 Y28.44
G0 X33.952 Y28.046
G0 F4320 X34.297 Y28.199
G1 F2040 E62.42051
G1 F720 X34.679 Y27.896 E62.43917
G1 X35.106 Y27.661 E62.45782
G1 X35.565 Y27.498 E62.47646
G1 X36.045 Y27.412 E62.49512
G1 X36.326 Y27.399 E62.50589
G1 X88.91 Y27.399 E64.51828
G1 X89.078 Y27 E64.53484
G1 X89.338 Y26.588 E64.55349
G1 X89.662 Y26.223 E64.57217
G1 X90.04 Y25.916 E64.5908
G1 X90.464 Y25.676 E64.60945
G1 X90.922 Y25.507 E64.62813
G1 X91.401 Y25.416 E64.64679
G1 X91.717 Y25.399 E64.6589
G1 X95.568 Y25.399 E64.80628
G1 X96.054 Y25.439 E64.82494
G1 X96.527 Y25.558 E64.84361
G1 X96.974 Y25.752 E64.86225
G1 X97.383 Y26.017 E64.8809
G1 X97.743 Y26.345 E64.89954
G1 X98.046 Y26.727 E64.9182
G1 X98.281 Y27.154 E64.93686
G1 X98.369 Y27.403 E64.94696
G1 X98.812 Y27.439 E64.96397
G1 X99.285 Y27.558 E64.98264
G1 X99.732 Y27.752 E65.00129
G1 X100.141 Y28.017 E65.01994
G1 X100.501 Y28.345 E65.03857
G1 X100.804 Y28.727 E65.05723
G1 X101.039 Y29.154 E65.07589
G1 X101.202 Y29.613 E65.09453
G1 X101.288 Y30.093 E65.11319
G1 X101.301 Y30.374 E65.12395
G1 X101.301 Y90.374 E67.42015
G1 X101.261 Y90.86 E67.43881
G1 X101.142 Y91.333 E67.45748
G1 X100.948 Y91.78 E67.47613
G1 X100.683 Y92.189 E67.49478
G1 X100.355 Y92.549 E67.51342
G1 X99.973 Y92.852 E67.53208
G1 X99.546 Y93.087 E67.55073
G1 X99.087 Y93.25 E67.56937
G1 X98.607 Y93.336 E67.58803
G1 X98.326 Y93.349 E67.5988
G1 X36.326 Y93.349 E69.97153
G1 X35.84 Y93.309 E69.99019
G1 X35.367 Y93.19 E70.00886
G1 X34.92 Y92.996 E70.02751
G1 X34.511 Y92.731 E70.04616
G1 X34.151 Y92.403 E70.0648
G1 X33.848 Y92.021 E70.08346
G1 X33.613 Y91.594 E70.10211
G1 X33.45 Y91.135 E70.12075
G1 X33.364 Y90.655 E70.13941
G1 X33.351 Y90.374 E70.15018
G1 X33.351 Y30.374 E72.44637
G1 X33.391 Y29.888 E72.46504
G1 X33.51 Y29.415 E72.4837
G1 X33.704 Y28.968 E72.50235
G1 X33.857 Y28.732 E72.51311
G0 F648 X33.969 Y28.559
G0 X34.297 Y28.199
G0 F4320 X34.316 Y28.686
G1 F2040 E72.53967
G1 F720 X34.64 Y28.362 E72.55721
G1 X35.015 Y28.1 E72.57472
G1 X35.43 Y27.907 E72.59223
G1 X35.872 Y27.789 E72.60974
G1 X36.326 Y27.749 E72.62718
G1 X89.178 Y27.749 E74.64982
G1 X89.24 Y27.505 E74.65946
G1 X89.428 Y27.088 E74.67696
G1 X89.687 Y26.71 E74.6945
G1 X90.007 Y26.383 E74.71201
G1 X90.379 Y26.116 E74.72953
G1 X90.791 Y25.918 E74.74703
G1 X91.232 Y25.794 E74.76456
G1 X91.717 Y25.749 E74.7832
G1 X95.568 Y25.749 E74.93058
G1 X96.024 Y25.789 E74.94809
G1 X96.466 Y25.907 E74.9656
G1 X96.881 Y26.101 E74.98313
G1 X97.256 Y26.364 E75.00066
G1 X97.58 Y26.688 E75.0182
G1 X97.842 Y27.063 E75.03571
G1 X98.035 Y27.478 E75.05322
G1 X98.107 Y27.749 E75.06395
G1 X98.326 Y27.749 E75.07233
G1 X98.782 Y27.789 E75.08985
G1 X99.224 Y27.907 E75.10736
G1 X99.639 Y28.101 E75.12489
G1 X100.014 Y28.364 E75.14242
G1 X100.338 Y28.688 E75.15996
G1 X100.6 Y29.063 E75.17746
G1 X100.793 Y29.478 E75.19498
G1 X100.911 Y29.92 E75.21249
G1 X100.951 Y30.374 E75.22993
G1 X100.951 Y90.374 E77.52612
G1 X100.911 Y90.83 E77.54364
G1 X100.793 Y91.272 E77.56115
G1 X100.599 Y91.687 E77.57868
G1 X100.336 Y92.062 E77.59621
G1 X100.012 Y92.386 E77.61375
G1 X99.637 Y92.648 E77.63125
G1 X99.222 Y92.841 E77.64877
G1 X98.78 Y92.959 E77.66628
G1 X98.326 Y92.999 E77.68372
G1 X36.326 Y92.999 E80.05645
G1 X35.87 Y92.959 E80.07397
G1 X35.428 Y92.841 E80.09148
G1 X35.013 Y92.647 E80.10901
G1 X34.638 Y92.384 E80.12654
G1 X34.314 Y92.06 E80.14408
G1 X34.052 Y91.685 E80.16158
G1 X33.859 Y91.27 E80.1791
G1 X33.741 Y90.828 E80.19661
