;FLAVOR:Marlin
;TIME:9839
;Filament used: 4.37514m
;Layer height: 0.2625
;MINX:23.925
;MINY:23.925
;MINZ:0.263
;MAXX:96.075
;MAXY:96.075
;MAXZ:16.569
;Generated with Cura_SteamEngine 4.2.1
M140 S70
M105
M190 S70
M104 S245
M105
M109 S245
M82 ;absolute extrusion mode
G21;(metric values)
G90;(absolute positioning)
M82;(set extruder to absolute mode)
M107;(start with the fan off)
G28;(Home the printer)
G92 E0;(Reset the extruder to 0)
G0 Z5 E5 F500;(Move up and prime the nozzle)
G0 X-1 Z0;(Move outside the printable area)
G1 Y60 E8 F500;(Draw a priming/wiping line to the rear)
G1 X-1;(Move a little closer to the print area)
G1 Y10 E16 F500;(draw more priming/wiping)
G1 E15 F250;(Small retract)
G92 E0;(Zero the extruder)
G92 E0
G92 E0
G1 F2040 E-4
;LAYER_COUNT:63
;LAYER:0
M107
G0 F4320 X25.763 Y27.092 Z0.263
;TYPE:SKIRT
G1 F2040 E0
G1 F720 X26.278 Y26.717 E0.02438
G1 X26.835 Y26.41 E0.04872
G1 X27.427 Y26.175 E0.0731
G1 X28.044 Y26.016 E0.09748
G1 X28.676 Y25.935 E0.12186
G1 X29 Y25.925 E0.13427
G1 X53.74 Y25.925 E1.08107
G1 X54.013 Y25.584 E1.09778
G1 X54.471 Y25.141 E1.12217
G1 X54.98 Y24.759 E1.14653
G1 X55.533 Y24.443 E1.1709
G1 X56.121 Y24.199 E1.19526
G1 X56.736 Y24.031 E1.21966
G1 X57.366 Y23.941 E1.24402
G1 X57.767 Y23.925 E1.25937
G1 X62.232 Y23.925 E1.43025
G1 X62.868 Y23.965 E1.45464
G1 X63.493 Y24.084 E1.47899
G1 X64.099 Y24.281 E1.50337
G1 X64.675 Y24.552 E1.52773
G1 X65.213 Y24.893 E1.55211
G1 X65.704 Y25.299 E1.57649
G1 X66.14 Y25.763 E1.60086
G1 X66.258 Y25.925 E1.60853
G1 X91 Y25.925 E2.5554
G1 X91.636 Y25.965 E2.57979
G1 X92.261 Y26.084 E2.60414
G1 X92.867 Y26.281 E2.62853
G1 X93.443 Y26.552 E2.65289
G1 X93.981 Y26.893 E2.67727
G1 X94.472 Y27.299 E2.70165
G1 X94.908 Y27.763 E2.72601
G1 X95.283 Y28.278 E2.75039
G1 X95.59 Y28.835 E2.77473
G1 X95.825 Y29.427 E2.79911
G1 X95.984 Y30.044 E2.82349
G1 X96.065 Y30.676 E2.84788
G1 X96.075 Y31 E2.86028
G1 X96.075 Y91 E5.15648
G1 X96.035 Y91.636 E5.18087
G1 X95.916 Y92.261 E5.20522
G1 X95.719 Y92.867 E5.2296
G1 X95.448 Y93.443 E5.25396
G1 X95.107 Y93.981 E5.27834
G1 X94.701 Y94.472 E5.30272
G1 X94.237 Y94.908 E5.32709
G1 X93.722 Y95.283 E5.35147
G1 X93.165 Y95.59 E5.37581
G1 X92.573 Y95.825 E5.40019
G1 X91.956 Y95.984 E5.42457
G1 X91.324 Y96.065 E5.44895
G1 X91 Y96.075 E5.46136
G1 X29 Y96.075 E7.8341
G1 X28.364 Y96.035 E7.85848
G1 X27.739 Y95.916 E7.88283
G1 X27.133 Y95.719 E7.90722
G1 X26.557 Y95.448 E7.93158
G1 X26.019 Y95.107 E7.95596
G1 X25.528 Y94.701 E7.98034
G1 X25.092 Y94.237 E8.0047
G1 X24.717 Y93.722 E8.02909
G1 X24.41 Y93.165 E8.05343
G1 X24.175 Y92.573 E8.0778
G1 X24.016 Y91.956 E8.10218
G1 X23.935 Y91.324 E8.12657
G1 X23.925 Y91 E8.13897
G1 X23.925 Y31 E10.43517
G1 X23.965 Y30.364 E10.45956
G1 X24.084 Y29.739 E10.48391
G1 X24.281 Y29.133 E10.50829
G1 X24.552 Y28.557 E10.53265
G1 X24.893 Y28.019 E10.55703
G1 X25.263 Y27.572 E10.57924
G0 F648 X25.299 Y27.528
G0 X25.763 Y27.092
G0 F4320 X26.104 Y27.267
G1 F2040 E10.6058
G1 F720 X26.613 Y26.922 E10.62933
G1 X27.162 Y26.647 E10.65283
G1 X27.743 Y26.445 E10.67637
G1 X28.344 Y26.321 E10.69985
G1 X29 Y26.275 E10.72502
G1 X53.914 Y26.275 E11.67848
G1 X53.965 Y26.195 E11.68211
G1 X54.361 Y25.725 E11.70563
G1 X54.815 Y25.311 E11.72914
G1 X55.318 Y24.959 E11.75264
G1 X55.863 Y24.675 E11.77616
G1 X56.441 Y24.465 E11.79969
G1 X57.04 Y24.331 E11.82318
G1 X57.767 Y24.275 E11.85109
G1 X62.232 Y24.275 E12.02196
G1 X62.845 Y24.315 E12.04547
G1 X63.448 Y24.434 E12.06899
G1 X64.03 Y24.631 E12.09251
G1 X64.582 Y24.901 E12.11602
G1 X65.094 Y25.241 E12.13955
G1 X65.558 Y25.644 E12.16306
G1 X65.965 Y26.104 E12.18657
G1 X66.081 Y26.275 E12.19448
G1 X91 Y26.275 E13.14813
G1 X91.613 Y26.315 E13.17164
G1 X92.216 Y26.434 E13.19516
G1 X92.798 Y26.631 E13.21867
G1 X93.35 Y26.901 E13.24219
G1 X93.862 Y27.241 E13.26571
G1 X94.326 Y27.644 E13.28923
G1 X94.733 Y28.104 E13.31274
G1 X95.078 Y28.613 E13.33627
G1 X95.353 Y29.162 E13.35977
G1 X95.555 Y29.743 E13.38331
G1 X95.679 Y30.344 E13.40679
G1 X95.725 Y31 E13.43196
G1 X95.725 Y91 E15.72816
G1 X95.685 Y91.613 E15.75166
G1 X95.566 Y92.216 E15.77519
G1 X95.369 Y92.798 E15.7987
G1 X95.099 Y93.35 E15.82222
G1 X94.759 Y93.862 E15.84574
G1 X94.356 Y94.326 E15.86926
G1 X93.896 Y94.733 E15.89276
G1 X93.387 Y95.078 E15.9163
G1 X92.838 Y95.353 E15.9398
G1 X92.257 Y95.555 E15.96334
G1 X91.656 Y95.679 E15.98682
G1 X91 Y95.725 E16.01199
G1 X29 Y95.725 E18.38472
G1 X28.387 Y95.685 E18.40823
G1 X27.784 Y95.566 E18.43175
G1 X27.202 Y95.369 E18.45527
G1 X26.65 Y95.099 E18.47879
G1 X26.138 Y94.759 E18.50231
G1 X25.674 Y94.356 E18.52583
G1 X25.267 Y93.896 E18.54933
G1 X24.922 Y93.387 E18.57286
G1 X24.647 Y92.838 E18.59636
G1 X24.445 Y92.257 E18.6199
G1 X24.321 Y91.656 E18.64339
G1 X24.275 Y91 E18.66856
G1 X24.275 Y31 E20.96475
G1 X24.315 Y30.387 E20.98826
G1 X24.434 Y29.784 E21.01178
G1 X24.631 Y29.202 E21.0353
G1 X24.901 Y28.65 E21.05881
G1 X25.241 Y28.138 E21.08234
G1 X25.592 Y27.734 E21.10282
G0 F648 X25.644 Y27.674
G0 X26.104 Y27.267
G0 F4320 X25.988 Y27.827
G1 F2040 E21.12938
G1 F720 X26.444 Y27.45 E21.15202
G1 X26.946 Y27.137 E21.17466
G1 X27.485 Y26.896 E21.19725
G1 X28.053 Y26.729 E21.21991
G1 X28.637 Y26.64 E21.24252
G1 X29 Y26.625 E21.25642
G1 X54.104 Y26.625 E22.21715
G1 X54.314 Y26.314 E22.23151
G1 X54.707 Y25.873 E22.25412
G1 X55.157 Y25.489 E22.27676
G1 X55.654 Y25.169 E22.29938
G1 X56.19 Y24.919 E22.32201
G1 X56.755 Y24.744 E22.34465
G1 X57.338 Y24.646 E22.36727
G1 X57.767 Y24.625 E22.38371
G1 X62.232 Y24.625 E22.55459
G1 X62.822 Y24.665 E22.57722
G1 X63.401 Y24.784 E22.59984
G1 X63.959 Y24.98 E22.62247
G1 X64.485 Y25.25 E22.6451
G1 X64.97 Y25.588 E22.66772
G1 X65.405 Y25.988 E22.69034
G1 X65.782 Y26.444 E22.71298
G1 X65.895 Y26.625 E22.72115
G1 X91 Y26.625 E23.68192
G1 X91.59 Y26.665 E23.70455
G1 X92.169 Y26.784 E23.72717
G1 X92.727 Y26.98 E23.7498
G1 X93.253 Y27.25 E23.77243
G1 X93.738 Y27.588 E23.79505
G1 X94.173 Y27.988 E23.81767
G1 X94.55 Y28.444 E23.84031
G1 X94.863 Y28.946 E23.86295
G1 X95.104 Y29.485 E23.88555
G1 X95.271 Y30.053 E23.9082
G1 X95.36 Y30.637 E23.93081
G1 X95.375 Y31 E23.94472
G1 X95.375 Y91 E26.24091
G1 X95.335 Y91.59 E26.26354
G1 X95.216 Y92.169 E26.28616
G1 X95.02 Y92.727 E26.3088
G1 X94.75 Y93.253 E26.33143
G1 X94.412 Y93.738 E26.35405
G1 X94.012 Y94.173 E26.37667
G1 X93.556 Y94.55 E26.39931
G1 X93.054 Y94.863 E26.42195
G1 X92.515 Y95.104 E26.44454
G1 X91.947 Y95.271 E26.4672
G1 X91.363 Y95.36 E26.48981
G1 X91 Y95.375 E26.50371
G1 X29 Y95.375 E28.87645
G1 X28.41 Y95.335 E28.89908
G1 X27.831 Y95.216 E28.9217
G1 X27.273 Y95.02 E28.94434
G1 X26.747 Y94.75 E28.96696
G1 X26.262 Y94.412 E28.98959
G1 X25.827 Y94.012 E29.0122
G1 X25.45 Y93.556 E29.03484
G1 X25.137 Y93.054 E29.05748
G1 X24.896 Y92.515 E29.08008
G1 X24.729 Y91.947 E29.10274
G1 X24.64 Y91.363 E29.12534
G1 X24.625 Y91 E29.13925
G1 X24.625 Y31 E31.43545
G1 X24.665 Y30.41 E31.45808
G1 X24.784 Y29.831 E31.4807
G1 X24.98 Y29.273 E31.50333
G1 X25.25 Y28.747 E31.52596
G1 X25.529 Y28.347 E31.54462
G0 F648 X25.588 Y28.262
G0 X25.988 Y27.827
G0 F4320 X26.332 Y27.987
G1 F2040 E31.57118
G1 F720 X26.782 Y27.641 E31.59291
G1 X27.276 Y27.363 E31.6146
G1 X27.804 Y27.157 E31.63629
G1 X28.356 Y27.027 E31.65799
G1 X29 Y26.975 E31.68272
G1 X54.294 Y26.975 E32.65072
G1 X54.333 Y26.9 E32.65395
G1 X54.662 Y26.438 E32.67566
G1 X55.053 Y26.027 E32.69737
G1 X55.498 Y25.675 E32.71908
G1 X55.988 Y25.39 E32.74078
G1 X56.513 Y25.175 E32.76249
G1 X57.063 Y25.037 E32.78419
G1 X57.767 Y24.975 E32.81123
G1 X62.232 Y24.975 E32.98211
G1 X62.798 Y25.015 E33.00382
G1 X63.352 Y25.134 E33.02551
G1 X63.884 Y25.33 E33.04721
G1 X64.384 Y25.598 E33.06892
G1 X64.84 Y25.935 E33.09062
G1 X65.245 Y26.332 E33.11232
G1 X65.591 Y26.782 E33.13404
G1 X65.7 Y26.975 E33.14253
G1 X91 Y26.975 E34.11076
G1 X91.566 Y27.015 E34.13247
G1 X92.12 Y27.134 E34.15416
G1 X92.652 Y27.33 E34.17585
G1 X93.152 Y27.598 E34.19756
G1 X93.608 Y27.935 E34.21926
G1 X94.013 Y28.332 E34.24097
G1 X94.359 Y28.782 E34.26269
G1 X94.637 Y29.276 E34.28438
G1 X94.843 Y29.804 E34.30607
G1 X94.973 Y30.356 E34.32778
G1 X95.025 Y31 E34.3525
G1 X95.025 Y91 E36.6487
G1 X94.985 Y91.566 E36.67041
G1 X94.866 Y92.12 E36.6921
G1 X94.67 Y92.652 E36.7138
G1 X94.402 Y93.152 E36.73551
G1 X94.065 Y93.608 E36.75721
G1 X93.668 Y94.013 E36.77891
G1 X93.218 Y94.359 E36.80064
G1 X92.724 Y94.637 E36.82233
G1 X92.196 Y94.843 E36.84402
G1 X91.644 Y94.973 E36.86572
G1 X91 Y95.025 E36.89045
G1 X29 Y95.025 E39.26318
G1 X28.434 Y94.985 E39.2849
G1 X27.88 Y94.866 E39.30658
G1 X27.348 Y94.67 E39.32828
G1 X26.848 Y94.402 E39.34999
G1 X26.392 Y94.065 E39.37169
G1 X25.987 Y93.668 E39.3934
G1 X25.641 Y93.218 E39.41512
G1 X25.363 Y92.724 E39.43681
G1 X25.157 Y92.196 E39.4585
G1 X25.027 Y91.644 E39.4802
G1 X24.975 Y91 E39.50493
G1 X24.975 Y31 E41.80113
G1 X25.015 Y30.434 E41.82284
G1 X25.134 Y29.88 E41.84453
G1 X25.33 Y29.348 E41.86622
G1 X25.598 Y28.848 E41.88794
G1 X25.86 Y28.494 E41.90479
G0 F648 X25.935 Y28.392
G0 X26.332 Y27.987
G0 F4320 X26.674 Y28.155
G1 F2040 E41.93135
G1 F720 X27.118 Y27.844 E41.95209
G1 X27.602 Y27.601 E41.97282
G1 X28.117 Y27.433 E41.99355
G1 X28.651 Y27.342 E42.01428
G1 X29 Y27.325 E42.02765
G1 X54.506 Y27.325 E43.00377
G1 X54.683 Y27.001 E43.0179
G1 X55.011 Y26.569 E43.03865
G1 X55.398 Y26.19 E43.05938
G1 X55.837 Y25.873 E43.08011
G1 X56.318 Y25.623 E43.10085
G1 X56.83 Y25.446 E43.12159
G1 X57.363 Y25.347 E43.14233
G1 X57.767 Y25.325 E43.15782
G1 X62.232 Y25.325 E43.32869
G1 X62.772 Y25.365 E43.34941
G1 X63.301 Y25.484 E43.37016
G1 X63.806 Y25.679 E43.39088
G1 X64.278 Y25.947 E43.41165
G1 X64.704 Y26.281 E43.43237
G1 X65.077 Y26.674 E43.45311
G1 X65.388 Y27.118 E43.47385
G1 X65.492 Y27.325 E43.48272
G1 X91 Y27.325 E44.45891
G1 X91.54 Y27.365 E44.47963
G1 X92.069 Y27.484 E44.50038
G1 X92.574 Y27.679 E44.5211
G1 X93.046 Y27.947 E44.54187
G1 X93.472 Y28.281 E44.56259
G1 X93.845 Y28.674 E44.58332
G1 X94.156 Y29.118 E44.60407
G1 X94.399 Y29.602 E44.62479
G1 X94.567 Y30.117 E44.64552
G1 X94.658 Y30.651 E44.66625
G1 X94.675 Y31 E44.67963
G1 X94.675 Y91 E46.97582
G1 X94.635 Y91.54 E46.99655
G1 X94.516 Y92.069 E47.0173
G1 X94.321 Y92.574 E47.03801
G1 X94.053 Y93.046 E47.05879
G1 X93.719 Y93.472 E47.0795
G1 X93.326 Y93.845 E47.10024
G1 X92.882 Y94.156 E47.12098
G1 X92.398 Y94.399 E47.14171
G1 X91.883 Y94.567 E47.16244
G1 X91.349 Y94.658 E47.18317
G1 X91 Y94.675 E47.19654
G1 X29 Y94.675 E49.56928
G1 X28.46 Y94.635 E49.59
G1 X27.931 Y94.516 E49.61075
G1 X27.426 Y94.321 E49.63147
G1 X26.954 Y94.053 E49.65224
G1 X26.528 Y93.719 E49.67296
G1 X26.155 Y93.326 E49.69369
G1 X25.844 Y92.882 E49.71444
G1 X25.601 Y92.398 E49.73517
G1 X25.433 Y91.883 E49.7559
G1 X25.342 Y91.349 E49.77663
G1 X25.325 Y91 E49.79
G1 X25.325 Y31 E52.0862
G1 X25.365 Y30.46 E52.10692
G1 X25.484 Y29.931 E52.12767
G1 X25.679 Y29.426 E52.14839
G1 X25.947 Y28.954 E52.16916
G1 X26.187 Y28.648 E52.18404
G0 F648 X26.281 Y28.528
G0 X26.674 Y28.155
G0 F4320 X27.015 Y28.333
G1 F2040 E52.2106
G1 F720 X27.451 Y28.058 E52.23033
G1 X27.924 Y27.854 E52.25004
G1 X28.423 Y27.725 E52.26977
G1 X29 Y27.675 E52.29193
G1 X54.725 Y27.675 E53.27643
G1 X54.773 Y27.553 E53.28144
G1 X55.033 Y27.108 E53.30117
G1 X55.358 Y26.708 E53.32089
G1 X55.741 Y26.363 E53.34062
G1 X56.173 Y26.082 E53.36034
G1 X56.643 Y25.871 E53.38006
G1 X57.14 Y25.735 E53.39978
G1 X57.767 Y25.675 E53.42388
G1 X62.232 Y25.675 E53.59476
G1 X62.746 Y25.715 E53.61449
G1 X63.247 Y25.834 E53.63419
G1 X63.724 Y26.029 E53.65391
G1 X64.166 Y26.295 E53.67366
G1 X64.56 Y26.626 E53.69335
G1 X64.899 Y27.015 E53.7131
G1 X65.174 Y27.451 E53.73282
G1 X65.271 Y27.675 E53.74217
G1 X91 Y27.675 E54.72681
G1 X91.514 Y27.715 E54.74654
G1 X92.015 Y27.834 E54.76625
G1 X92.492 Y28.029 E54.78597
G1 X92.934 Y28.295 E54.80571
G1 X93.328 Y28.626 E54.82541
G1 X93.667 Y29.015 E54.84515
G1 X93.942 Y29.451 E54.86488
G1 X94.146 Y29.924 E54.88459
G1 X94.275 Y30.423 E54.90432
G1 X94.325 Y31 E54.92648
G1 X94.325 Y91 E57.22268
G1 X94.285 Y91.514 E57.24241
G1 X94.166 Y92.015 E57.26212
G1 X93.971 Y92.492 E57.28184
G1 X93.705 Y92.934 E57.30158
G1 X93.374 Y93.328 E57.32127
G1 X92.985 Y93.667 E57.34102
G1 X92.549 Y93.942 E57.36075
G1 X92.076 Y94.146 E57.38046
G1 X91.577 Y94.275 E57.40018
G1 X91 Y94.325 E57.42235
G1 X29 Y94.325 E59.79509
G1 X28.486 Y94.285 E59.81482
G1 X27.985 Y94.166 E59.83452
G1 X27.508 Y93.971 E59.85424
G1 X27.066 Y93.705 E59.87399
G1 X26.672 Y93.374 E59.89368
G1 X26.333 Y92.985 E59.91343
G1 X26.058 Y92.549 E59.93315
G1 X25.854 Y92.076 E59.95287
G1 X25.725 Y91.577 E59.97259
G1 X25.675 Y91 E59.99476
G1 X25.675 Y31 E62.29095
G1 X25.715 Y30.486 E62.31068
G1 X25.834 Y29.985 E62.33039
G1 X26.029 Y29.508 E62.35011
G1 X26.295 Y29.066 E62.36985
G1 X26.511 Y28.809 E62.3827
G0 F648 X26.626 Y28.672
G0 X27.015 Y28.333
G0 F4320 X26.971 Y28.825
G1 F2040 E62.40926
G1 F720 X27.353 Y28.522 E62.42792
G1 X27.78 Y28.287 E62.44657
G1 X28.239 Y28.124 E62.46521
G1 X28.719 Y28.038 E62.48388
G1 X29 Y28.025 E62.49464
G1 X54.961 Y28.025 E63.48817
G1 X55.124 Y27.634 E63.50438
G1 X55.382 Y27.221 E63.52301
G1 X55.705 Y26.856 E63.54167
G1 X56.083 Y26.548 E63.56033
G1 X56.506 Y26.306 E63.57898
G1 X56.963 Y26.136 E63.59764
G1 X57.441 Y26.043 E63.61627
G1 X57.767 Y26.025 E63.62877
G1 X62.232 Y26.025 E63.79964
G1 X62.718 Y26.065 E63.81831
G1 X63.191 Y26.184 E63.83697
G1 X63.638 Y26.378 E63.85562
G1 X64.047 Y26.643 E63.87427
G1 X64.407 Y26.971 E63.89291
G1 X64.71 Y27.353 E63.91157
G1 X64.945 Y27.78 E63.93022
G1 X65.032 Y28.025 E63.94017
G1 X91 Y28.025 E64.93396
G1 X91.486 Y28.065 E64.95263
G1 X91.959 Y28.184 E64.97129
G1 X92.406 Y28.378 E64.98994
G1 X92.815 Y28.643 E65.00859
G1 X93.175 Y28.971 E65.02723
G1 X93.478 Y29.353 E65.04589
G1 X93.713 Y29.78 E65.06454
G1 X93.876 Y30.239 E65.08318
G1 X93.962 Y30.719 E65.10184
G1 X93.975 Y31 E65.11261
G1 X93.975 Y91 E67.40881
G1 X93.935 Y91.486 E67.42747
G1 X93.816 Y91.959 E67.44613
G1 X93.622 Y92.406 E67.46478
G1 X93.357 Y92.815 E67.48343
G1 X93.029 Y93.175 E67.50207
G1 X92.647 Y93.478 E67.52073
G1 X92.22 Y93.713 E67.53938
G1 X91.761 Y93.876 E67.55802
G1 X91.281 Y93.962 E67.57669
G1 X91 Y93.975 E67.58745
G1 X29 Y93.975 E69.96019
G1 X28.514 Y93.935 E69.97885
G1 X28.041 Y93.816 E69.99752
G1 X27.594 Y93.622 E70.01616
G1 X27.185 Y93.357 E70.03481
G1 X26.825 Y93.029 E70.05345
G1 X26.522 Y92.647 E70.07211
G1 X26.287 Y92.22 E70.09077
G1 X26.124 Y91.761 E70.10941
G1 X26.038 Y91.281 E70.12807
G1 X26.025 Y91 E70.13883
G1 X26.025 Y31 E72.43503
G1 X26.065 Y30.514 E72.45369
G1 X26.184 Y30.041 E72.47236
G1 X26.378 Y29.594 E72.49101
G1 X26.531 Y29.358 E72.50177
G0 F648 X26.643 Y29.185
G0 X26.971 Y28.825
G0 F4320 X27.314 Y28.988
G1 F2040 E72.52833
G1 F720 X27.689 Y28.726 E72.54584
G1 X28.104 Y28.533 E72.56335
G1 X28.546 Y28.415 E72.58086
G1 X29 Y28.375 E72.5983
G1 X55.227 Y28.375 E73.60201
G1 X55.287 Y28.139 E73.61133
G1 X55.474 Y27.721 E73.62885
G1 X55.731 Y27.343 E73.64634
G1 X56.05 Y27.014 E73.66388
G1 X56.422 Y26.746 E73.68143
G1 X56.834 Y26.547 E73.69894
G1 X57.274 Y26.422 E73.71644
G1 X57.767 Y26.375 E73.73539
G1 X62.232 Y26.375 E73.90627
G1 X62.688 Y26.415 E73.92379
G1 X63.13 Y26.533 E73.9413
G1 X63.545 Y26.727 E73.95883
G1 X63.92 Y26.99 E73.97636
G1 X64.244 Y27.314 E73.99389
G1 X64.506 Y27.689 E74.0114
G1 X64.699 Y28.104 E74.02891
G1 X64.771 Y28.375 E74.03965
G1 X91 Y28.375 E75.04343
G1 X91.456 Y28.415 E75.06095
G1 X91.898 Y28.533 E75.07845
G1 X92.313 Y28.727 E75.09599
G1 X92.688 Y28.99 E75.11351
G1 X93.012 Y29.314 E75.13105
G1 X93.274 Y29.689 E75.14856
G1 X93.467 Y30.104 E75.16607
G1 X93.585 Y30.546 E75.18358
G1 X93.625 Y31 E75.20102
G1 X93.625 Y91 E77.49722
G1 X93.585 Y91.456 E77.51474
G1 X93.467 Y91.898 E77.53224
G1 X93.273 Y92.313 E77.54978
G1 X93.01 Y92.688 E77.5673
G1 X92.686 Y93.012 E77.58484
G1 X92.311 Y93.274 E77.60235
G1 X91.896 Y93.467 E77.61986
G1 X91.454 Y93.585 E77.63737
G1 X91 Y93.625 E77.65481
G1 X29 Y93.625 E80.02755
G1 X28.544 Y93.585 E80.04507
G1 X28.102 Y93.467 E80.06257
G1 X27.687 Y93.273 E80.08011
G1 X27.312 Y93.01 E80.09764
G1 X26.988 Y92.686 E80.11517
G1 X26.726 Y92.311 E80.13268
G1 X26.533 Y91.896 E80.15019
G1 X26.415 Y91.454 E80.1677
G1 X26.375 Y91 E80.18514
