;FLAVOR:Marlin
;TIME:14446
;Filament used: 13.7424m
;Layer height: 0.2625
;MINX:26.338
;MINY:26.338
;MINZ:0.263
;MAXX:93.663
;MAXY:93.663
;MAXZ:29.404
;Generated with Cura_SteamEngine 4.2.0
M140 S65
M105
M190 S65
M104 S190
M105
M109 S190
M82 ;absolute extrusion mode
G21;(metric values)
G90;(absolute positioning)
M82;(set extruder to absolute mode)
M107;(start with the fan off)
G28;(Home the printer)
G92 E0;(Reset the extruder to 0)
G0 Z5 E5 F500;(Move up and prime the nozzle)
G0 X-1 Z0;(Move outside the printable area)
G1 Y60 E8 F500;(Draw a priming/wiping line to the rear)
G1 X-1;(Move a little closer to the print area)
G1 Y10 E16 F500;(draw more priming/wiping)
G1 E15 F250;(Small retract)
G92 E0;(Zero the extruder)
M141 S28
G92 E0
G92 E0
G1 F2400 E-2.5
;LAYER_COUNT:108
;LAYER:0
M107
G0 F4320 X27.453 Y27.406 Z0.263
;TYPE:SKIRT
G1 F2400 E0
G1 F1800 X27.852 Y27.056 E0.02031
G1 X28.299 Y26.77 E0.04062
G1 X28.784 Y26.554 E0.06094
G1 X29.296 Y26.413 E0.08126
G1 X29.908 Y26.349 E0.10481
G1 X30.465 Y26.339 E0.12613
G1 X30.528 Y26.338 E0.12854
G1 X89.378 Y26.338 E2.38073
G1 X90.076 Y26.348 E2.40744
G1 X90.605 Y26.396 E2.42777
G1 X91.12 Y26.522 E2.44806
G1 X91.611 Y26.724 E2.46838
G1 X92.066 Y26.998 E2.48871
G1 X92.468 Y27.331 E2.50868
G1 X92.57 Y27.429 E2.5141
G1 X92.924 Y27.825 E2.53443
G1 X93.215 Y28.269 E2.55474
G1 X93.435 Y28.751 E2.57502
G1 X93.581 Y29.262 E2.59536
G1 X93.652 Y29.904 E2.62008
G1 X93.662 Y30.431 E2.64025
G1 X93.663 Y30.498 E2.64281
G1 X93.663 Y89.377 E4.89611
G1 X93.653 Y90.076 E4.92286
G1 X93.605 Y90.605 E4.94319
G1 X93.479 Y91.12 E4.96348
G1 X93.277 Y91.611 E4.9838
G1 X93.003 Y92.066 E5.00412
G1 X92.67 Y92.468 E5.0241
G1 X92.572 Y92.57 E5.02952
G1 X92.176 Y92.924 E5.04984
G1 X91.732 Y93.215 E5.07016
G1 X91.25 Y93.435 E5.09044
G1 X90.739 Y93.581 E5.11077
G1 X90.093 Y93.652 E5.13565
G1 X89.536 Y93.662 E5.15696
G1 X89.473 Y93.663 E5.15938
G1 X30.623 Y93.663 E7.41156
G1 X29.925 Y93.653 E7.43828
G1 X29.396 Y93.605 E7.45861
G1 X28.881 Y93.479 E7.4789
G1 X28.39 Y93.277 E7.49921
G1 X27.935 Y93.003 E7.51954
G1 X27.559 Y92.695 E7.53814
G1 X27.457 Y92.599 E7.5435
G1 X27.099 Y92.207 E7.56382
G1 X26.804 Y91.766 E7.58412
G1 X26.579 Y91.286 E7.60441
G1 X26.428 Y90.777 E7.62473
G1 X26.348 Y90.091 E7.65116
G1 X26.338 Y89.493 E7.67405
G1 X26.338 Y30.586 E9.92842
G1 X26.348 Y29.92 E9.95391
G1 X26.396 Y29.392 E9.9742
G1 X26.523 Y28.876 E9.99453
G1 X26.726 Y28.386 E10.01483
G1 X26.999 Y27.931 E10.03514
G0 F1620 X27.355 Y27.506
G0 X27.453 Y27.406
G0 F4320 X27.703 Y27.651
G1 F2400 E10.0617
G1 F1800 X28.083 Y27.32 E10.08098
G1 X28.511 Y27.054 E10.10027
G1 X28.975 Y26.858 E10.11955
G1 X29.464 Y26.739 E10.13881
G1 X29.914 Y26.699 E10.1561
G1 X30.471 Y26.689 E10.17742
G1 X30.528 Y26.688 E10.1796
G1 X89.373 Y26.688 E12.43159
G1 X90.071 Y26.698 E12.45831
G1 X90.573 Y26.745 E12.4776
G1 X91.06 Y26.871 E12.49685
G1 X91.522 Y27.073 E12.51615
G1 X91.946 Y27.344 E12.53541
G1 X92.226 Y27.583 E12.5495
G1 X92.328 Y27.681 E12.55491
G1 X92.662 Y28.058 E12.57419
G1 X92.933 Y28.483 E12.59348
G1 X93.133 Y28.945 E12.61274
G1 X93.257 Y29.433 E12.63201
G1 X93.302 Y29.911 E12.65038
G1 X93.312 Y30.438 E12.67056
G1 X93.313 Y30.498 E12.67285
G1 X93.313 Y89.372 E14.92596
G1 X93.303 Y90.071 E14.95271
G1 X93.256 Y90.573 E14.97201
G1 X93.13 Y91.06 E14.99126
G1 X92.928 Y91.522 E15.01055
G1 X92.657 Y91.946 E15.02981
G1 X92.418 Y92.226 E15.0439
G1 X92.32 Y92.328 E15.04931
G1 X91.943 Y92.662 E15.06859
G1 X91.518 Y92.933 E15.08788
G1 X91.056 Y93.133 E15.10715
G1 X90.568 Y93.257 E15.12641
G1 X90.087 Y93.302 E15.1449
G1 X89.53 Y93.312 E15.16622
G1 X89.473 Y93.313 E15.1684
G1 X30.628 Y93.313 E17.4204
G1 X29.93 Y93.303 E17.44711
G1 X29.428 Y93.256 E17.46641
G1 X28.941 Y93.13 E17.48566
G1 X28.479 Y92.928 E17.50496
G1 X28.055 Y92.657 E17.52422
G1 X27.799 Y92.44 E17.53706
G1 X27.697 Y92.344 E17.54242
G1 X27.359 Y91.971 E17.56168
G1 X27.084 Y91.549 E17.58096
G1 X26.879 Y91.089 E17.60023
G1 X26.75 Y90.602 E17.61951
G1 X26.698 Y90.085 E17.6394
G1 X26.688 Y89.487 E17.66229
G1 X26.688 Y30.591 E19.91623
G1 X26.698 Y29.925 E19.94172
G1 X26.746 Y29.424 E19.96099
G1 X26.872 Y28.936 E19.98027
G1 X27.074 Y28.475 E19.99954
G1 X27.261 Y28.184 E20.01277
G0 F1620 X27.346 Y28.051
G0 X27.605 Y27.751
G0 X27.703 Y27.651
G0 F4320 X30.038 Y30.039
;TYPE:SUPPORT
G1 F2400 E20.03933
G1 F1800 X89.962 Y30.038 E22.33262
G1 X89.963 Y89.962 E24.62591
G1 X30.039 Y89.963 E26.9192
G1 X30.038 Y30.733 E29.18593
G0 F1620 X30.038 Y30.039
G0 F4320 X34.366 Y33.75
G1 F2400 E29.21248
G1 F1800 X33.75 Y34.366 E29.24582
G1 X33.75 Y36.137 E29.3136
G1 X34.387 Y36.314 E29.3389
G1 X33.75 Y36.533 E29.36468
G1 X33.75 Y82.762 E31.13386
G1 X34.388 Y82.981 E31.15968
G1 X33.75 Y83.158 E31.18501
G1 X33.75 Y85.634 E31.27977
G1 X34.366 Y86.25 E31.31311
G1 X85.634 Y86.25 E33.27513
G1 X86.25 Y85.634 E33.30847
G1 X86.25 Y34.366 E35.2705
G1 X85.634 Y33.75 E35.30383
G1 X83.158 Y33.75 E35.39859
G1 X82.981 Y34.387 E35.42389
G1 X82.762 Y33.75 E35.44967
G1 X36.533 Y33.75 E37.21885
G1 X36.314 Y34.388 E37.24467
G1 X36.137 Y33.75 E37.27
G1 X35.06 Y33.75 E37.31122
G0 F1620 X34.366 Y33.75
G0 F4320 X34.995 Y33.61
G1 F2400 E37.33778
G1 F1800 X34.995 Y30.178 E37.46912
G0 F4320 X32.662 Y30.178
G1 F1800 X32.662 Y89.823 E39.75173
G0 F4320 X34.995 Y89.823
G1 F1800 X34.995 Y86.39 E39.88311
G0 F4320 X34.239 Y86.321
G1 F1800 X30.177 Y86.321 E40.03857
G0 F4320 X30.177 Y83.988
G1 F1800 X33.609 Y83.988 E40.16991
G0 F4320 X33.609 Y81.655
G1 F1800 X30.177 Y81.655 E40.30125
G0 F4320 X30.177 Y79.322
G1 F1800 X33.609 Y79.322 E40.43259
G0 F4320 X33.609 Y76.989
G1 F1800 X30.177 Y76.989 E40.56394
G0 F4320 X30.177 Y74.656
G1 F1800 X33.609 Y74.656 E40.69528
G0 F4320 X33.609 Y72.323
G1 F1800 X30.177 Y72.323 E40.82662
G0 F4320 X30.177 Y69.99
G1 F1800 X33.609 Y69.99 E40.95796
G0 F4320 X33.609 Y67.657
G1 F1800 X30.177 Y67.657 E41.08931
G0 F4320 X30.177 Y65.324
G1 F1800 X33.609 Y65.324 E41.22065
G0 F4320 X33.609 Y62.991
G1 F1800 X30.177 Y62.991 E41.35199
G0 F4320 X30.177 Y60.658
G1 F1800 X33.609 Y60.658 E41.48333
G0 F4320 X33.61 Y58.325
G1 F1800 X30.177 Y58.325 E41.61472
G0 F4320 X30.177 Y55.992
G1 F1800 X33.61 Y55.992 E41.7461
G0 F4320 X33.61 Y53.659
G1 F1800 X30.177 Y53.659 E41.87748
G0 F4320 X30.177 Y51.326
G1 F1800 X33.61 Y51.326 E42.00886
G0 F4320 X33.61 Y48.993
G1 F1800 X30.177 Y48.993 E42.14024
G0 F4320 X30.177 Y46.66
G1 F1800 X33.61 Y46.66 E42.27162
G0 F4320 X33.61 Y44.327
G1 F1800 X30.177 Y44.327 E42.403
G0 F4320 X30.177 Y41.994
G1 F1800 X33.61 Y41.994 E42.53438
G0 F4320 X33.61 Y39.661
G1 F1800 X30.177 Y39.661 E42.66576
G0 F4320 X30.177 Y37.328
G1 F1800 X33.61 Y37.328 E42.79714
G0 F4320 X33.61 Y34.995
G1 F1800 X30.177 Y34.995 E42.92852
G0 F4320 X30.177 Y32.662
G1 F1800 X89.823 Y32.662 E45.21117
G0 F4320 X89.823 Y30.329
G1 F1800 X30.177 Y30.329 E47.49382
G0 F4320 X30.329 Y30.178
G1 F1800 X30.329 Y89.823 E49.77643
G0 F4320 X30.177 Y88.654
G1 F1800 X89.823 Y88.654 E52.05908
G0 F4320 X88.654 Y89.823
G1 F1800 X88.654 Y30.178 E54.34169
G0 F4320 X86.321 Y30.178
G1 F1800 X86.321 Y34.24 E54.49714
G0 F4320 X86.39 Y34.995
G1 F1800 X89.823 Y34.995 E54.62852
G0 F4320 X89.823 Y37.328
G1 F1800 X86.39 Y37.328 E54.7599
G0 F4320 X86.39 Y39.661
G1 F1800 X89.823 Y39.661 E54.89129
G0 F4320 X89.823 Y41.994
G1 F1800 X86.39 Y41.994 E55.02267
G0 F4320 X86.39 Y44.327
G1 F1800 X89.823 Y44.327 E55.15405
G0 F4320 X89.823 Y46.66
G1 F1800 X86.39 Y46.66 E55.28543
G0 F4320 X86.39 Y48.993
G1 F1800 X89.823 Y48.993 E55.41681
G0 F4320 X89.823 Y51.326
G1 F1800 X86.39 Y51.326 E55.54819
G0 F4320 X86.39 Y53.659
G1 F1800 X89.823 Y53.659 E55.67957
G0 F4320 X89.823 Y55.992
G1 F1800 X86.39 Y55.992 E55.81095
G0 F4320 X86.39 Y58.325
G1 F1800 X89.823 Y58.325 E55.94233
G0 F4320 X89.823 Y60.658
G1 F1800 X86.39 Y60.658 E56.07371
G0 F4320 X86.39 Y62.991
G1 F1800 X89.823 Y62.991 E56.20509
G0 F4320 X89.823 Y65.324
G1 F1800 X86.39 Y65.324 E56.33647
G0 F4320 X86.39 Y67.657
G1 F1800 X89.823 Y67.657 E56.46785
G0 F4320 X89.823 Y69.99
G1 F1800 X86.39 Y69.99 E56.59923
G0 F4320 X86.39 Y72.323
G1 F1800 X89.823 Y72.323 E56.73062
G0 F4320 X89.823 Y74.656
G1 F1800 X86.39 Y74.656 E56.862
G0 F4320 X86.39 Y76.989
G1 F1800 X89.823 Y76.989 E56.99338
G0 F4320 X89.823 Y79.322
G1 F1800 X86.39 Y79.322 E57.12476
G0 F4320 X86.39 Y81.655
G1 F1800 X89.823 Y81.655 E57.25614
G0 F4320 X89.823 Y83.988
G1 F1800 X86.39 Y83.988 E57.38752
G0 F4320 X86.321 Y85.76
G1 F1800 X86.321 Y89.823 E57.54301
G0 F4320 X83.988 Y89.823
G1 F1800 X83.988 Y86.39 E57.67439
G0 F4320 X85.76 Y86.321
G1 F1800 X89.823 Y86.321 E57.82988
G0 F4320 X81.655 Y86.39
G1 F1800 X81.655 Y89.823 E57.96126
G0 F4320 X79.322 Y89.823
G1 F1800 X79.322 Y86.39 E58.09264
G0 F4320 X76.989 Y86.39
G1 F1800 X76.989 Y89.823 E58.22402
G0 F4320 X74.656 Y89.823
G1 F1800 X74.656 Y86.39 E58.3554
G0 F4320 X72.323 Y86.39
G1 F1800 X72.323 Y89.823 E58.48678
G0 F4320 X69.99 Y89.823
G1 F1800 X69.99 Y86.39 E58.61817
G0 F4320 X67.657 Y86.39
G1 F1800 X67.657 Y89.823 E58.74955
G0 F4320 X65.324 Y89.823
G1 F1800 X65.324 Y86.39 E58.88093
G0 F4320 X62.991 Y86.39
G1 F1800 X62.991 Y89.823 E59.01231
G0 F4320 X60.658 Y89.823
G1 F1800 X60.658 Y86.39 E59.14369
G0 F4320 X58.325 Y86.39
G1 F1800 X58.325 Y89.823 E59.27507
G0 F4320 X55.992 Y89.823
G1 F1800 X55.992 Y86.39 E59.40645
G0 F4320 X53.659 Y86.39
G1 F1800 X53.659 Y89.823 E59.53783
G0 F4320 X51.326 Y89.823
G1 F1800 X51.326 Y86.39 E59.66921
G0 F4320 X48.993 Y86.39
G1 F1800 X48.993 Y89.823 E59.80059
G0 F4320 X46.66 Y89.823
G1 F1800 X46.66 Y86.39 E59.93197
G0 F4320 X44.327 Y86.39
G1 F1800 X44.327 Y89.823 E60.06335
G0 F4320 X41.994 Y89.823
G1 F1800 X41.994 Y86.39 E60.19473
G0 F4320 X39.661 Y86.39
G1 F1800 X39.661 Y89.823 E60.32611
G0 F4320 X37.328 Y89.823
G1 F1800 X37.328 Y86.39 E60.4575
G1 F2400 E57.9575
G0 F4320 X34.454 Y86.036
G0 X33.968 Y36.689
G0 X37.023 Y35.664
G0 X36.304 Y35.089
G0 X36.689 Y33.968
G0 X37.328 Y33.61
G1 F2400 E60.4575
G1 F1800 X37.328 Y30.178 E60.58884
G0 F4320 X39.661 Y30.178
G1 F1800 X39.661 Y33.61 E60.72018
G0 F4320 X41.994 Y33.61
G1 F1800 X41.994 Y30.178 E60.85152
G0 F4320 X44.327 Y30.178
G1 F1800 X44.327 Y33.61 E60.98287
G0 F4320 X46.66 Y33.61
G1 F1800 X46.66 Y30.178 E61.11421
G0 F4320 X48.993 Y30.178
G1 F1800 X48.993 Y33.61 E61.24555
G0 F4320 X51.326 Y33.61
G1 F1800 X51.326 Y30.178 E61.37689
G0 F4320 X53.659 Y30.178
G1 F1800 X53.659 Y33.61 E61.50824
G0 F4320 X55.992 Y33.61
G1 F1800 X55.992 Y30.178 E61.63958
G0 F4320 X58.325 Y30.178
G1 F1800 X58.325 Y33.61 E61.77092
G0 F4320 X60.658 Y33.61
G1 F1800 X60.658 Y30.178 E61.90226
G0 F4320 X62.991 Y30.178
G1 F1800 X62.991 Y33.61 E62.0336
G0 F4320 X65.324 Y33.61
G1 F1800 X65.324 Y30.178 E62.16495
G0 F4320 X67.657 Y30.178
G1 F1800 X67.657 Y33.61 E62.29629
G0 F4320 X69.99 Y33.61
G1 F1800 X69.99 Y30.178 E62.42763
G0 F4320 X72.323 Y30.178
G1 F1800 X72.323 Y33.61 E62.55897
G0 F4320 X74.656 Y33.61
G1 F1800 X74.656 Y30.178 E62.69032
G0 F4320 X76.989 Y30.178
G1 F1800 X76.989 Y33.61 E62.82166
G0 F4320 X79.322 Y33.61
G1 F1800 X79.322 Y30.178 E62.953
G0 F4320 X81.655 Y30.178
G1 F1800 X81.655 Y33.61 E63.08434
G0 F4320 X83.988 Y33.61
G1 F1800 X83.988 Y30.178 E63.21569
G1 F2400 E60.71569
G0 F4320 X36.689 Y33.968
G0 X36.304 Y35.089
G0 X38.231 Y36.824
G0 X58.047 Y37.037
G1 F2400 E63.21569
G1 F1800 X58.047 Y55.992 E63.94109
G1 X57.364 Y56.344 E63.9705
G1 X56.643 Y57.006 E64.00796
G1 X56.102 Y57.774 E64.04391
G1 X55.996 Y58.047 E64.05512
G1 X37.037 Y58.047 E64.78068
G1 X37.037 Y38.32 E65.53563
G1 X36.875 Y37.935 E65.55161
G1 X35.816 Y36.876 E65.60893
G1 X35.41 Y36.359 E65.63409
G1 X35.717 Y35.851 E65.6568
G1 X35.849 Y35.719 E65.66395
G1 X36.358 Y35.409 E65.68675
G1 X36.888 Y35.826 E65.71256
G1 X38.143 Y37.037 E65.7793
G1 X57.353 Y37.037 E66.51447
G0 F1620 X58.047 Y37.037
G0 F4320 X57.907 Y37.328
G1 F2400 E66.54103
G1 F1800 X36.465 Y37.328 E67.36161
G0 F4320 X37.328 Y36.446
G1 F1800 X37.328 Y57.907 E68.18292
G0 F4320 X37.177 Y55.992
G1 F1800 X57.74 Y55.992 E68.96987
G0 F4320 X57.907 Y53.659
G1 F1800 X37.177 Y53.659 E69.76321
G0 F4320 X37.177 Y51.326
G1 F1800 X57.907 Y51.326 E70.55654
G0 F4320 X57.907 Y48.993
G1 F1800 X37.177 Y48.993 E71.34988
G0 F4320 X37.177 Y46.66
G1 F1800 X57.907 Y46.66 E72.14321
G0 F4320 X57.907 Y44.327
G1 F1800 X37.177 Y44.327 E72.93655
G0 F4320 X37.177 Y41.994
G1 F1800 X57.907 Y41.994 E73.72989
G0 F4320 X57.907 Y39.661
G1 F1800 X37.177 Y39.661 E74.52322
G0 F4320 X39.661 Y37.177
G1 F1800 X39.661 Y57.907 E75.31656
G0 F4320 X41.994 Y57.907
G1 F1800 X41.994 Y37.177 E76.10989
G0 F4320 X44.327 Y37.177
G1 F1800 X44.327 Y57.907 E76.90323
G0 F4320 X46.66 Y57.907
G1 F1800 X46.66 Y37.177 E77.69656
G0 F4320 X48.993 Y37.177
G1 F1800 X48.993 Y57.907 E78.4899
G0 F4320 X51.326 Y57.907
G1 F1800 X51.326 Y37.177 E79.28324
G0 F4320 X53.659 Y37.177
G1 F1800 X53.659 Y57.907 E80.07657
G0 F4320 X55.992 Y57.689
G1 F1800 X55.992 Y37.177 E80.86157
G1 F2400 E78.36157
G0 F4320 X38.231 Y36.824
G0 X36.304 Y35.089
G0 X36.689 Y33.968
G0 X82.606 Y33.968
G0 X82.991 Y35.089
G0 X81.24 Y36.696
G0 X61.247 Y37.037
G1 F2400 E80.86157
G1 F1800 X80.975 Y37.037 E81.61656
G1 X81.36 Y36.875 E81.63254
G1 X82.419 Y35.816 E81.68986
G1 X82.936 Y35.41 E81.71501
G1 X83.444 Y35.717 E81.73773
G1 X83.576 Y35.849 E81.74487
G1 X83.666 Y35.999 E81.75157
G1 X83.719 Y36.167 E81.75831
G1 X83.732 Y36.355 E81.76552
G1 X83.701 Y36.519 E81.77191
G1 X83.629 Y36.68 E81.77866
G1 X82.963 Y37.469 E81.81817
G1 X82.974 Y58.047 E82.60569
G1 X63.3 Y58.047 E83.35861
G1 X63.201 Y57.772 E83.3698
G1 X62.657 Y56.997 E83.40604
G1 X61.941 Y56.359 E83.44274
G1 X61.247 Y55.997 E83.47269
G1 X61.247 Y37.731 E84.17173
G0 F1620 X61.247 Y37.037
G0 F4320 X61.387 Y37.328
G1 F2400 E84.19829
G1 F1800 X82.898 Y37.328 E85.02151
G0 F4320 X81.655 Y36.777
G1 F1800 X81.655 Y57.907 E85.83016
G0 F4320 X82.833 Y55.992
G1 F1800 X61.542 Y55.992 E86.64496
G0 F4320 X62.991 Y57.229
G1 F1800 X62.991 Y37.177 E87.41235
G0 F4320 X65.324 Y37.177
G1 F1800 X65.324 Y57.907 E88.20569
G0 F4320 X67.657 Y57.907
G1 F1800 X67.657 Y37.177 E88.99902
G0 F4320 X69.99 Y37.177
G1 F1800 X69.99 Y57.907 E89.79236
G0 F4320 X72.323 Y57.907
G1 F1800 X72.323 Y37.177 E90.5857
G0 F4320 X74.656 Y37.177
G1 F1800 X74.656 Y57.907 E91.37903
G0 F4320 X76.989 Y57.907
G1 F1800 X76.989 Y37.177 E92.17237
G0 F4320 X79.322 Y37.177
G1 F1800 X79.322 Y57.907 E92.9657
G0 F4320 X82.832 Y53.659
G1 F1800 X61.387 Y53.659 E93.7864
G0 F4320 X61.387 Y51.326
G1 F1800 X82.831 Y51.326 E94.60706
G0 F4320 X82.83 Y48.993
G1 F1800 X61.387 Y48.993 E95.42769
G0 F4320 X61.387 Y46.66
G1 F1800 X82.828 Y46.66 E96.24823
G0 F4320 X82.827 Y44.327
G1 F1800 X61.387 Y44.327 E97.06874
G0 F4320 X61.387 Y41.994
G1 F1800 X82.826 Y41.994 E97.88921
G0 F4320 X82.825 Y39.661
G1 F1800 X61.387 Y39.661 E98.70964
G1 F2400 E96.20964
G1 F60 Z1.263
G0 F4320 X63.297 Y61.246 Z1.263
G1 F60 Z0.263
G1 F2400 E98.70964
G1 F1800 X82.975 Y61.238 E99.46272
G1 X82.986 Y81.9 E100.25345
G1 X83.638 Y82.631 E100.29094
G1 X83.701 Y82.77 E100.29678
G1 X83.732 Y82.938 E100.30331
G1 X83.719 Y83.128 E100.3106
G1 X83.667 Y83.296 E100.31733
G1 X83.578 Y83.444 E100.32394
G1 X83.446 Y83.576 E100.33109
G1 X83.294 Y83.669 E100.33791
G1 X83.131 Y83.719 E100.34443
G1 X82.939 Y83.732 E100.3518
G1 X82.775 Y83.701 E100.35818
G1 X82.616 Y83.63 E100.36485
G1 X81.826 Y82.963 E100.40441
G1 X61.247 Y82.963 E101.19197
G1 X61.247 Y63.31 E101.94409
G1 X61.942 Y62.932 E101.97437
G1 X62.631 Y62.324 E102.00953
G1 X62.963 Y61.848 E102.03174
G0 F1620 X63.199 Y61.51
G0 X63.297 Y61.246
G0 F4320 X62.991 Y62.052
G1 F2400 E102.0583
G1 F1800 X62.991 Y82.823 E102.85321
G0 F4320 X61.386 Y81.655
G1 F1800 X82.846 Y81.655 E103.67448
G0 F4320 X81.655 Y82.823
G1 F1800 X81.655 Y61.378 E104.49518
G0 F4320 X82.836 Y62.991
G1 F1800 X62.086 Y62.991 E105.28928
G0 F4320 X61.386 Y65.324
G1 F1800 X82.838 Y65.324 E106.11025
G0 F4320 X82.839 Y67.657
G1 F1800 X61.386 Y67.657 E106.93125
G0 F4320 X61.386 Y69.99
G1 F1800 X82.84 Y69.99 E107.7523
G0 F4320 X82.841 Y72.323
G1 F1800 X61.386 Y72.323 E108.57338
G0 F4320 X61.386 Y74.656
G1 F1800 X82.843 Y74.656 E109.39454
G0 F4320 X82.844 Y76.989
G1 F1800 X61.386 Y76.989 E110.21573
G0 F4320 X61.386 Y79.322
G1 F1800 X82.845 Y79.322 E111.03697
G0 F4320 X79.322 Y82.823
