;FLAVOR:Marlin
;TIME:5978
;Filament used: 2.16327m
;Layer height: 0.2625
;MINX:24.525
;MINY:24.525
;MINZ:0.263
;MAXX:95.475
;MAXY:95.475
;MAXZ:1.841
;Generated with Cura_SteamEngine 4.2.1
M140 S70
M105
M190 S70
M104 S245
M105
M109 S245
M82 ;absolute extrusion mode
G21;(metric values)
G90;(absolute positioning)
M82;(set extruder to absolute mode)
M107;(start with the fan off)
G28;(Home the printer)
G92 E0;(Reset the extruder to 0)
G0 Z5 E5 F500;(Move up and prime the nozzle)
G0 X-1 Z0;(Move outside the printable area)
G1 Y60 E8 F500;(Draw a priming/wiping line to the rear)
G1 X-1;(Move a little closer to the print area)
G1 Y10 E16 F500;(draw more priming/wiping)
G1 E15 F250;(Small retract)
G92 E0;(Zero the extruder)
G92 E0
G92 E0
G1 F2040 E-4
;LAYER_COUNT:7
;LAYER:0
M107
G0 F4320 X26.363 Y30.692 Z0.263
;TYPE:SKIRT
G1 F2040 E0
G1 F720 X26.878 Y30.317 E0.02438
G1 X27.435 Y30.01 E0.04872
G1 X28.027 Y29.775 E0.0731
G1 X28.644 Y29.616 E0.09748
G1 X29.276 Y29.535 E0.12186
G1 X29.6 Y29.525 E0.13427
G1 X34.85 Y29.525 E0.33519
G1 X34.885 Y28.964 E0.3567
G1 X35.004 Y28.339 E0.38105
G1 X35.201 Y27.733 E0.40543
G1 X35.472 Y27.157 E0.42979
G1 X35.813 Y26.619 E0.45417
G1 X36.219 Y26.128 E0.47855
G1 X36.683 Y25.692 E0.50292
G1 X37.198 Y25.317 E0.5273
G1 X37.755 Y25.01 E0.55164
G1 X38.347 Y24.775 E0.57602
G1 X38.964 Y24.616 E0.6004
G1 X39.596 Y24.535 E0.62478
G1 X39.92 Y24.525 E0.63719
G1 X85.4 Y24.525 E2.37771
G1 X86.036 Y24.565 E2.40209
G1 X86.661 Y24.684 E2.42644
G1 X87.267 Y24.881 E2.45083
G1 X87.843 Y25.152 E2.47519
G1 X88.381 Y25.493 E2.49957
G1 X88.872 Y25.899 E2.52395
G1 X89.308 Y26.363 E2.54832
G1 X89.683 Y26.878 E2.5727
G1 X89.99 Y27.435 E2.59704
G1 X90.225 Y28.027 E2.62141
G1 X90.384 Y28.644 E2.6458
G1 X90.465 Y29.276 E2.67018
G1 X90.475 Y29.6 E2.68258
G1 X90.475 Y34.85 E2.8835
G1 X91.036 Y34.885 E2.90501
G1 X91.661 Y35.004 E2.92936
G1 X92.267 Y35.201 E2.95375
G1 X92.843 Y35.472 E2.97811
G1 X93.381 Y35.813 E3.00249
G1 X93.872 Y36.219 E3.02687
G1 X94.308 Y36.683 E3.05123
G1 X94.683 Y37.198 E3.07562
G1 X94.99 Y37.755 E3.09996
G1 X95.225 Y38.347 E3.12433
G1 X95.384 Y38.964 E3.14871
G1 X95.465 Y39.596 E3.1731
G1 X95.475 Y39.92 E3.1855
G1 X95.475 Y85.4 E4.92602
G1 X95.435 Y86.036 E4.95041
G1 X95.316 Y86.661 E4.97476
G1 X95.119 Y87.267 E4.99914
G1 X94.848 Y87.843 E5.02351
G1 X94.507 Y88.381 E5.04788
G1 X94.101 Y88.872 E5.07226
G1 X93.637 Y89.308 E5.09663
G1 X93.122 Y89.683 E5.12101
G1 X92.565 Y89.99 E5.14535
G1 X91.973 Y90.225 E5.16973
G1 X91.356 Y90.384 E5.19411
G1 X90.724 Y90.465 E5.2185
G1 X90.4 Y90.475 E5.2309
G1 X85.15 Y90.475 E5.43182
G1 X85.115 Y91.036 E5.45333
G1 X84.996 Y91.661 E5.47768
G1 X84.799 Y92.267 E5.50206
G1 X84.528 Y92.843 E5.52642
G1 X84.187 Y93.381 E5.5508
G1 X83.781 Y93.872 E5.57518
G1 X83.317 Y94.308 E5.59955
G1 X82.802 Y94.683 E5.62393
G1 X82.245 Y94.99 E5.64827
G1 X81.653 Y95.225 E5.67265
G1 X81.036 Y95.384 E5.69703
G1 X80.404 Y95.465 E5.72141
G1 X80.08 Y95.475 E5.73382
G1 X34.6 Y95.475 E7.47434
G1 X33.964 Y95.435 E7.49872
G1 X33.339 Y95.316 E7.52307
G1 X32.733 Y95.119 E7.54746
G1 X32.157 Y94.848 E7.57182
G1 X31.619 Y94.507 E7.5962
G1 X31.128 Y94.101 E7.62058
G1 X30.692 Y93.637 E7.64495
G1 X30.317 Y93.122 E7.66933
G1 X30.01 Y92.565 E7.69367
G1 X29.775 Y91.973 E7.71804
G1 X29.616 Y91.356 E7.74243
G1 X29.535 Y90.724 E7.76681
G1 X29.525 Y90.4 E7.77922
G1 X29.525 Y85.15 E7.98013
G1 X28.964 Y85.115 E8.00164
G1 X28.339 Y84.996 E8.02599
G1 X27.733 Y84.799 E8.05038
G1 X27.157 Y84.528 E8.07474
G1 X26.619 Y84.187 E8.09912
G1 X26.128 Y83.781 E8.1235
G1 X25.692 Y83.317 E8.14787
G1 X25.317 Y82.802 E8.17225
G1 X25.01 Y82.245 E8.19659
G1 X24.775 Y81.653 E8.22096
G1 X24.616 Y81.036 E8.24535
G1 X24.535 Y80.404 E8.26973
G1 X24.525 Y80.08 E8.28214
G1 X24.525 Y34.6 E10.02265
G1 X24.565 Y33.964 E10.04704
G1 X24.684 Y33.339 E10.07139
G1 X24.881 Y32.733 E10.09577
G1 X25.152 Y32.157 E10.12014
G1 X25.493 Y31.619 E10.14451
G1 X25.863 Y31.172 E10.16672
G0 F648 X25.899 Y31.128
G0 X26.363 Y30.692
G0 F4320 X26.704 Y30.867
G1 F2040 E10.19328
G1 F720 X27.213 Y30.522 E10.21681
G1 X27.762 Y30.247 E10.24031
G1 X28.343 Y30.045 E10.26385
G1 X28.944 Y29.921 E10.28733
G1 X29.6 Y29.875 E10.3125
G1 X35.195 Y29.875 E10.52662
G1 X35.195 Y29.6 E10.53715
G1 X35.235 Y28.987 E10.56066
G1 X35.354 Y28.384 E10.58418
G1 X35.551 Y27.802 E10.60769
G1 X35.821 Y27.25 E10.63121
G1 X36.161 Y26.738 E10.65473
G1 X36.564 Y26.274 E10.67825
G1 X37.024 Y25.867 E10.70176
G1 X37.533 Y25.522 E10.72529
G1 X38.082 Y25.247 E10.74879
G1 X38.663 Y25.045 E10.77233
G1 X39.264 Y24.921 E10.79581
G1 X39.92 Y24.875 E10.82098
G1 X85.4 Y24.875 E12.56149
G1 X86.013 Y24.915 E12.585
G1 X86.616 Y25.034 E12.60853
G1 X87.198 Y25.231 E12.63204
G1 X87.75 Y25.501 E12.65556
G1 X88.262 Y25.841 E12.67908
G1 X88.726 Y26.244 E12.7026
G1 X89.133 Y26.704 E12.7261
G1 X89.478 Y27.213 E12.74964
G1 X89.753 Y27.762 E12.77313
G1 X89.955 Y28.343 E12.79668
G1 X90.079 Y28.944 E12.82016
G1 X90.125 Y29.6 E12.84533
G1 X90.125 Y35.195 E13.05945
G1 X90.4 Y35.195 E13.06997
G1 X91.013 Y35.235 E13.09348
G1 X91.616 Y35.354 E13.117
G1 X92.198 Y35.551 E13.14052
G1 X92.75 Y35.821 E13.16403
G1 X93.262 Y36.161 E13.18755
G1 X93.726 Y36.564 E13.21107
G1 X94.133 Y37.024 E13.23458
G1 X94.478 Y37.533 E13.25811
G1 X94.753 Y38.082 E13.28161
G1 X94.955 Y38.663 E13.30515
G1 X95.079 Y39.264 E13.32864
G1 X95.125 Y39.92 E13.3538
G1 X95.125 Y85.4 E15.09432
G1 X95.085 Y86.013 E15.11783
G1 X94.966 Y86.616 E15.14135
G1 X94.769 Y87.198 E15.16487
G1 X94.499 Y87.75 E15.18838
G1 X94.159 Y88.262 E15.2119
G1 X93.756 Y88.726 E15.23542
G1 X93.296 Y89.133 E15.25893
G1 X92.787 Y89.478 E15.28246
G1 X92.238 Y89.753 E15.30596
G1 X91.657 Y89.955 E15.3295
G1 X91.056 Y90.079 E15.35298
G1 X90.4 Y90.125 E15.37815
G1 X84.805 Y90.125 E15.59227
G1 X84.805 Y90.4 E15.6028
G1 X84.765 Y91.013 E15.62631
G1 X84.646 Y91.616 E15.64983
G1 X84.449 Y92.198 E15.67334
G1 X84.179 Y92.75 E15.69686
G1 X83.839 Y93.262 E15.72038
G1 X83.436 Y93.726 E15.7439
G1 X82.976 Y94.133 E15.7674
G1 X82.467 Y94.478 E15.79094
G1 X81.918 Y94.753 E15.81444
G1 X81.337 Y94.955 E15.83798
G1 X80.736 Y95.079 E15.86146
G1 X80.08 Y95.125 E15.88663
G1 X34.6 Y95.125 E17.62714
G1 X33.987 Y95.085 E17.65065
G1 X33.384 Y94.966 E17.67418
G1 X32.802 Y94.769 E17.69769
G1 X32.25 Y94.499 E17.72121
G1 X31.738 Y94.159 E17.74473
G1 X31.274 Y93.756 E17.76825
G1 X30.867 Y93.296 E17.79175
G1 X30.522 Y92.787 E17.81529
G1 X30.247 Y92.238 E17.83878
G1 X30.045 Y91.657 E17.86232
G1 X29.921 Y91.056 E17.88581
G1 X29.875 Y90.4 E17.91098
G1 X29.875 Y84.805 E18.1251
G1 X29.6 Y84.805 E18.13562
G1 X28.987 Y84.765 E18.15913
G1 X28.384 Y84.646 E18.18265
G1 X27.802 Y84.449 E18.20617
G1 X27.25 Y84.179 E18.22968
G1 X26.738 Y83.839 E18.2532
G1 X26.274 Y83.436 E18.27672
G1 X25.867 Y82.976 E18.30023
G1 X25.522 Y82.467 E18.32376
G1 X25.247 Y81.918 E18.34726
G1 X25.045 Y81.337 E18.3708
G1 X24.921 Y80.736 E18.39429
G1 X24.875 Y80.08 E18.41945
G1 X24.875 Y34.6 E20.15997
G1 X24.915 Y33.987 E20.18348
G1 X25.034 Y33.384 E20.207
G1 X25.231 Y32.802 E20.23052
G1 X25.501 Y32.25 E20.25403
G1 X25.841 Y31.738 E20.27755
G1 X26.192 Y31.334 E20.29803
G0 F648 X26.244 Y31.274
G0 X26.704 Y30.867
G0 F4320 X26.588 Y31.427
G1 F2040 E20.32459
G1 F720 X27.044 Y31.05 E20.34724
G1 X27.546 Y30.737 E20.36988
G1 X28.085 Y30.496 E20.39247
G1 X28.653 Y30.329 E20.41513
G1 X29.237 Y30.24 E20.43774
G1 X29.6 Y30.225 E20.45164
G1 X35.545 Y30.225 E20.67916
G1 X35.545 Y29.6 E20.70307
G1 X35.585 Y29.01 E20.72571
G1 X35.704 Y28.431 E20.74833
G1 X35.9 Y27.873 E20.77096
G1 X36.17 Y27.347 E20.79359
G1 X36.508 Y26.862 E20.81621
G1 X36.908 Y26.427 E20.83883
G1 X37.364 Y26.05 E20.86147
G1 X37.866 Y25.737 E20.88411
G1 X38.405 Y25.496 E20.90671
G1 X38.973 Y25.329 E20.92936
G1 X39.557 Y25.24 E20.95197
G1 X39.92 Y25.225 E20.96587
G1 X85.4 Y25.225 E22.70639
G1 X85.99 Y25.265 E22.72902
G1 X86.569 Y25.384 E22.75164
G1 X87.127 Y25.58 E22.77428
G1 X87.653 Y25.85 E22.7969
G1 X88.138 Y26.188 E22.81953
G1 X88.573 Y26.588 E22.84214
G1 X88.95 Y27.044 E22.86479
G1 X89.263 Y27.546 E22.88743
G1 X89.504 Y28.085 E22.91002
G1 X89.671 Y28.653 E22.93268
G1 X89.76 Y29.237 E22.95529
G1 X89.775 Y29.6 E22.96919
G1 X89.775 Y35.545 E23.19671
G1 X90.4 Y35.545 E23.22062
G1 X90.99 Y35.585 E23.24326
G1 X91.569 Y35.704 E23.26588
G1 X92.127 Y35.9 E23.28851
G1 X92.653 Y36.17 E23.31114
G1 X93.138 Y36.508 E23.33376
G1 X93.573 Y36.908 E23.35638
G1 X93.95 Y37.364 E23.37902
G1 X94.263 Y37.866 E23.40166
G1 X94.504 Y38.405 E23.42426
G1 X94.671 Y38.973 E23.44691
G1 X94.76 Y39.557 E23.46952
G1 X94.775 Y39.92 E23.48342
G1 X94.775 Y85.4 E25.22394
G1 X94.735 Y85.99 E25.24657
G1 X94.616 Y86.569 E25.26919
G1 X94.42 Y87.127 E25.29183
G1 X94.15 Y87.653 E25.31446
G1 X93.812 Y88.138 E25.33708
G1 X93.412 Y88.573 E25.35969
G1 X92.956 Y88.95 E25.38234
G1 X92.454 Y89.263 E25.40498
G1 X91.915 Y89.504 E25.42757
G1 X91.347 Y89.671 E25.45023
G1 X90.763 Y89.76 E25.47284
G1 X90.4 Y89.775 E25.48674
G1 X84.455 Y89.775 E25.71426
G1 X84.455 Y90.4 E25.73818
G1 X84.415 Y90.99 E25.76081
G1 X84.296 Y91.569 E25.78343
G1 X84.1 Y92.127 E25.80606
G1 X83.83 Y92.653 E25.82869
G1 X83.492 Y93.138 E25.85131
G1 X83.092 Y93.573 E25.87393
G1 X82.636 Y93.95 E25.89657
G1 X82.134 Y94.263 E25.91921
G1 X81.595 Y94.504 E25.94181
G1 X81.027 Y94.671 E25.96446
G1 X80.443 Y94.76 E25.98707
G1 X80.08 Y94.775 E26.00098
G1 X34.6 Y94.775 E27.74149
G1 X34.01 Y94.735 E27.76412
G1 X33.431 Y94.616 E27.78674
G1 X32.873 Y94.42 E27.80938
G1 X32.347 Y94.15 E27.83201
G1 X31.862 Y93.812 E27.85463
G1 X31.427 Y93.412 E27.87725
G1 X31.05 Y92.956 E27.89989
G1 X30.737 Y92.454 E27.92253
G1 X30.496 Y91.915 E27.94512
G1 X30.329 Y91.347 E27.96778
G1 X30.24 Y90.763 E27.99039
G1 X30.225 Y90.4 E28.00429
G1 X30.225 Y84.455 E28.23181
G1 X29.6 Y84.455 E28.25573
G1 X29.01 Y84.415 E28.27836
G1 X28.431 Y84.296 E28.30098
G1 X27.873 Y84.1 E28.32361
G1 X27.347 Y83.83 E28.34624
G1 X26.862 Y83.492 E28.36886
G1 X26.427 Y83.092 E28.39148
G1 X26.05 Y82.636 E28.41412
G1 X25.737 Y82.134 E28.43676
G1 X25.496 Y81.595 E28.45936
G1 X25.329 Y81.027 E28.48201
G1 X25.24 Y80.443 E28.50462
G1 X25.225 Y80.08 E28.51853
G1 X25.225 Y34.6 E30.25904
G1 X25.265 Y34.01 E30.28167
G1 X25.384 Y33.431 E30.3043
G1 X25.58 Y32.873 E30.32693
G1 X25.85 Y32.347 E30.34956
G1 X26.129 Y31.947 E30.36822
G0 F648 X26.188 Y31.862
G0 X26.588 Y31.427
G0 F4320 X26.932 Y31.587
G1 F2040 E30.39478
G1 F720 X27.382 Y31.241 E30.4165
G1 X27.876 Y30.963 E30.4382
G1 X28.404 Y30.757 E30.45989
G1 X28.956 Y30.627 E30.48159
G1 X29.6 Y30.575 E30.50632
G1 X35.895 Y30.575 E30.74722
G1 X35.895 Y29.6 E30.78454
G1 X35.935 Y29.034 E30.80625
G1 X36.054 Y28.48 E30.82794
G1 X36.25 Y27.948 E30.84964
G1 X36.518 Y27.448 E30.87135
G1 X36.855 Y26.992 E30.89305
G1 X37.252 Y26.587 E30.91475
G1 X37.702 Y26.241 E30.93647
G1 X38.196 Y25.963 E30.95817
G1 X38.724 Y25.757 E30.97986
G1 X39.276 Y25.627 E31.00156
G1 X39.92 Y25.575 E31.02628
G1 X85.4 Y25.575 E32.7668
G1 X85.966 Y25.615 E32.78852
G1 X86.52 Y25.734 E32.8102
G1 X87.052 Y25.93 E32.8319
G1 X87.552 Y26.198 E32.85361
G1 X88.008 Y26.535 E32.87531
G1 X88.413 Y26.932 E32.89701
G1 X88.759 Y27.382 E32.91874
G1 X89.037 Y27.876 E32.94043
G1 X89.243 Y28.404 E32.96212
G1 X89.373 Y28.956 E32.98382
G1 X89.425 Y29.6 E33.00855
G1 X89.425 Y35.895 E33.24946
G1 X90.4 Y35.895 E33.28677
G1 X90.966 Y35.935 E33.30849
G1 X91.52 Y36.054 E33.33017
G1 X92.052 Y36.25 E33.35187
G1 X92.552 Y36.518 E33.37358
G1 X93.008 Y36.855 E33.39528
G1 X93.413 Y37.252 E33.41698
G1 X93.759 Y37.702 E33.43871
G1 X94.037 Y38.196 E33.4604
G1 X94.243 Y38.724 E33.48209
G1 X94.373 Y39.276 E33.50379
G1 X94.425 Y39.92 E33.52852
G1 X94.425 Y85.4 E35.26904
G1 X94.385 Y85.966 E35.29075
G1 X94.266 Y86.52 E35.31244
G1 X94.07 Y87.052 E35.33413
G1 X93.802 Y87.552 E35.35584
G1 X93.465 Y88.008 E35.37754
G1 X93.068 Y88.413 E35.39925
G1 X92.618 Y88.759 E35.42097
G1 X92.124 Y89.037 E35.44266
G1 X91.596 Y89.243 E35.46435
G1 X91.044 Y89.373 E35.48606
G1 X90.4 Y89.425 E35.51078
G1 X84.105 Y89.425 E35.75169
G1 X84.105 Y90.4 E35.78901
G1 X84.065 Y90.966 E35.81072
G1 X83.946 Y91.52 E35.83241
G1 X83.75 Y92.052 E35.8541
G1 X83.482 Y92.552 E35.87581
G1 X83.145 Y93.008 E35.89751
G1 X82.748 Y93.413 E35.91922
G1 X82.298 Y93.759 E35.94094
G1 X81.804 Y94.037 E35.96263
G1 X81.276 Y94.243 E35.98432
G1 X80.724 Y94.373 E36.00603
G1 X80.08 Y94.425 E36.03075
G1 X34.6 Y94.425 E37.77127
G1 X34.034 Y94.385 E37.79298
G1 X33.48 Y94.266 E37.81467
G1 X32.948 Y94.07 E37.83637
G1 X32.448 Y93.802 E37.85808
G1 X31.992 Y93.465 E37.87978
G1 X31.587 Y93.068 E37.90148
G1 X31.241 Y92.618 E37.9232
G1 X30.963 Y92.124 E37.9449
G1 X30.757 Y91.596 E37.96659
G1 X30.627 Y91.044 E37.98829
G1 X30.575 Y90.4 E38.01302
G1 X30.575 Y84.105 E38.25393
G1 X29.6 Y84.105 E38.29124
G1 X29.034 Y84.065 E38.31295
G1 X28.48 Y83.946 E38.33464
G1 X27.948 Y83.75 E38.35634
G1 X27.448 Y83.482 E38.37805
G1 X26.992 Y83.145 E38.39975
G1 X26.587 Y82.748 E38.42145
G1 X26.241 Y82.298 E38.44317
G1 X25.963 Y81.804 E38.46487
G1 X25.757 Y81.276 E38.48656
G1 X25.627 Y80.724 E38.50826
G1 X25.575 Y80.08 E38.53299
G1 X25.575 Y34.6 E40.2735
G1 X25.615 Y34.034 E40.29522
G1 X25.734 Y33.48 E40.3169
G1 X25.93 Y32.948 E40.3386
G1 X26.198 Y32.448 E40.36031
G1 X26.46 Y32.094 E40.37717
G0 F648 X26.535 Y31.992
G0 X26.932 Y31.587
G0 F4320 X27.274 Y31.755
G1 F2040 E40.40372
G1 F720 X27.718 Y31.444 E40.42447
G1 X28.202 Y31.201 E40.4452
G1 X28.717 Y31.033 E40.46593
G1 X29.251 Y30.942 E40.48666
G1 X29.6 Y30.925 E40.50003
G1 X36.245 Y30.925 E40.75433
G1 X36.245 Y29.6 E40.80504
G1 X36.285 Y29.06 E40.82576
G1 X36.404 Y28.531 E40.84652
G1 X36.599 Y28.026 E40.86723
G1 X36.867 Y27.554 E40.888
G1 X37.201 Y27.128 E40.90872
G1 X37.594 Y26.755 E40.92946
G1 X38.038 Y26.444 E40.9502
G1 X38.522 Y26.201 E40.97093
G1 X39.037 Y26.033 E40.99166
G1 X39.571 Y25.942 E41.01239
G1 X39.92 Y25.925 E41.02576
G1 X85.4 Y25.925 E42.76628
G1 X85.94 Y25.965 E42.787
G1 X86.469 Y26.084 E42.80775
G1 X86.974 Y26.279 E42.82847
G1 X87.446 Y26.547 E42.84924
G1 X87.872 Y26.881 E42.86996
G1 X88.245 Y27.274 E42.89069
G1 X88.556 Y27.718 E42.91144
G1 X88.799 Y28.202 E42.93217
G1 X88.967 Y28.717 E42.9529
G1 X89.058 Y29.251 E42.97363
G1 X89.075 Y29.6 E42.987
G1 X89.075 Y36.245 E43.2413
G1 X90.4 Y36.245 E43.29201
G1 X90.94 Y36.285 E43.31273
G1 X91.469 Y36.404 E43.33348
G1 X91.974 Y36.599 E43.3542
G1 X92.446 Y36.867 E43.37497
G1 X92.872 Y37.201 E43.39569
G1 X93.245 Y37.594 E43.41643
G1 X93.556 Y38.038 E43.43717
G1 X93.799 Y38.522 E43.4579
G1 X93.967 Y39.037 E43.47863
G1 X94.058 Y39.571 E43.49936
G1 X94.075 Y39.92 E43.51273
G1 X94.075 Y85.4 E45.25325
G1 X94.035 Y85.94 E45.27397
G1 X93.916 Y86.469 E45.29472
G1 X93.721 Y86.974 E45.31544
G1 X93.453 Y87.446 E45.33621
G1 X93.119 Y87.872 E45.35693
G1 X92.726 Y88.245 E45.37766
G1 X92.282 Y88.556 E45.39841
G1 X91.798 Y88.799 E45.41913
G1 X91.283 Y88.967 E45.43987
G1 X90.749 Y89.058 E45.4606
G1 X90.4 Y89.075 E45.47397
G1 X83.755 Y89.075 E45.72827
G1 X83.755 Y90.4 E45.77898
G1 X83.715 Y90.94 E45.7997
G1 X83.596 Y91.469 E45.82045
G1 X83.401 Y91.974 E45.84117
G1 X83.133 Y92.446 E45.86194
G1 X82.799 Y92.872 E45.88266
G1 X82.406 Y93.245 E45.90339
G1 X81.962 Y93.556 E45.92414
G1 X81.478 Y93.799 E45.94487
G1 X80.963 Y93.967 E45.9656
G1 X80.429 Y94.058 E45.98633
G1 X80.08 Y94.075 E45.9997
G1 X34.6 Y94.075 E47.74022
G1 X34.06 Y94.035 E47.76094
G1 X33.531 Y93.916 E47.78169
G1 X33.026 Y93.721 E47.80241
G1 X32.554 Y93.453 E47.82318
G1 X32.128 Y93.119 E47.8439
G1 X31.755 Y92.726 E47.86463
G1 X31.444 Y92.282 E47.88538
G1 X31.201 Y91.798 E47.9061
G1 X31.033 Y91.283 E47.92683
G1 X30.942 Y90.749 E47.94756
G1 X30.925 Y90.4 E47.96094
G1 X30.925 Y83.755 E48.21524
G1 X29.6 Y83.755 E48.26595
G1 X29.06 Y83.715 E48.28667
G1 X28.531 Y83.596 E48.30742
G1 X28.026 Y83.401 E48.32814
G1 X27.554 Y83.133 E48.34891
G1 X27.128 Y82.799 E48.36963
G1 X26.755 Y82.406 E48.39036
G1 X26.444 Y81.962 E48.41111
G1 X26.201 Y81.478 E48.43183
G1 X26.033 Y80.963 E48.45257
G1 X25.942 Y80.429 E48.4733
G1 X25.925 Y80.08 E48.48667
G1 X25.925 Y34.6 E50.22719
G1 X25.965 Y34.06 E50.24791
G1 X26.084 Y33.531 E50.26866
G1 X26.279 Y33.026 E50.28938
G1 X26.547 Y32.554 E50.31015
G1 X26.787 Y32.248 E50.32503
