;FLAVOR:Marlin
;TIME:5737
;Filament used: 3.37878m
;Layer height: 0.2625
;MINX:19.707
;MINY:24.47
;MINZ:0.263
;MAXX:100.293
;MAXY:95.53
;MAXZ:5.734
;Generated with Cura_SteamEngine 4.2.1
M140 S65
M105
M190 S65
M104 S190
M105
M109 S190
M82 ;absolute extrusion mode
G21;(metric values)
G90;(absolute positioning)
M82;(set extruder to absolute mode)
M107;(start with the fan off)
G28;(Home the printer)
G92 E0;(Reset the extruder to 0)
G0 Z5 E5 F500;(Move up and prime the nozzle)
G0 X-1 Z0;(Move outside the printable area)
G1 Y60 E8 F500;(Draw a priming/wiping line to the rear)
G1 X-1;(Move a little closer to the print area)
G1 Y10 E16 F500;(draw more priming/wiping)
G1 E15 F250;(Small retract)
G92 E0;(Zero the extruder)
M141 S28
G92 E0
G92 E0
G1 F2400 E-2.5
;LAYER_COUNT:18
;LAYER:0
M107
G0 F4320 X25.956 Y26.059 Z0.263
;TYPE:SKIRT
G1 F2400 E0
G1 F1080 X26.059 Y25.956 E0.00557
G1 X26.537 Y25.535 E0.02995
G1 X27.064 Y25.177 E0.05433
G1 X27.631 Y24.888 E0.07869
G1 X28.23 Y24.672 E0.10306
G1 X28.852 Y24.533 E0.12745
G1 X29.648 Y24.47 E0.15801
G1 X90.352 Y24.47 E2.48114
G1 X90.988 Y24.51 E2.50553
G1 X91.613 Y24.629 E2.52988
G1 X92.219 Y24.826 E2.55427
G1 X92.795 Y25.097 E2.57863
G1 X93.333 Y25.438 E2.603
G1 X93.941 Y25.956 E2.63357
G1 X94.044 Y26.059 E2.63915
G1 X94.465 Y26.537 E2.66352
G1 X94.823 Y27.064 E2.68791
G1 X95.112 Y27.631 E2.71226
G1 X95.328 Y28.23 E2.73663
G1 X95.467 Y28.852 E2.76102
G1 X95.53 Y29.648 E2.79158
G1 X95.53 Y39.976 E3.18683
G1 X95.751 Y39.99 E3.1953
G1 X96.376 Y40.109 E3.21965
G1 X96.982 Y40.306 E3.24404
G1 X97.558 Y40.577 E3.2684
G1 X98.096 Y40.918 E3.29278
G1 X98.704 Y41.436 E3.32335
G1 X98.807 Y41.539 E3.32892
G1 X99.228 Y42.017 E3.3533
G1 X99.586 Y42.544 E3.37768
G1 X99.875 Y43.111 E3.40203
G1 X100.091 Y43.71 E3.4264
G1 X100.23 Y44.332 E3.45079
G1 X100.293 Y45.128 E3.48135
G1 X100.293 Y74.872 E4.61965
G1 X100.253 Y75.508 E4.64404
G1 X100.134 Y76.133 E4.66839
G1 X99.937 Y76.739 E4.69277
G1 X99.666 Y77.315 E4.71714
G1 X99.325 Y77.853 E4.74151
G1 X98.807 Y78.461 E4.77208
G1 X98.704 Y78.564 E4.77766
G1 X98.226 Y78.985 E4.80203
G1 X97.699 Y79.343 E4.82641
G1 X97.132 Y79.632 E4.85077
G1 X96.533 Y79.848 E4.87514
G1 X95.911 Y79.987 E4.89953
G1 X95.53 Y80.017 E4.91415
G1 X95.53 Y90.352 E5.30967
G1 X95.49 Y90.988 E5.33406
G1 X95.371 Y91.613 E5.35841
G1 X95.174 Y92.219 E5.3828
G1 X94.903 Y92.795 E5.40716
G1 X94.562 Y93.333 E5.43153
G1 X94.044 Y93.941 E5.4621
G1 X93.941 Y94.044 E5.46768
G1 X93.463 Y94.465 E5.49205
G1 X92.936 Y94.823 E5.51644
G1 X92.369 Y95.112 E5.54079
G1 X91.77 Y95.328 E5.56516
G1 X91.148 Y95.467 E5.58955
G1 X90.352 Y95.53 E5.62011
G1 X29.648 Y95.53 E7.94325
G1 X29.012 Y95.49 E7.96763
G1 X28.387 Y95.371 E7.99198
G1 X27.781 Y95.174 E8.01637
G1 X27.205 Y94.903 E8.04073
G1 X26.667 Y94.562 E8.06511
G1 X26.059 Y94.044 E8.09567
G1 X25.956 Y93.941 E8.10125
G1 X25.535 Y93.463 E8.12563
G1 X25.177 Y92.936 E8.15001
G1 X24.888 Y92.369 E8.17436
G1 X24.672 Y91.77 E8.19873
G1 X24.533 Y91.148 E8.22312
G1 X24.47 Y90.352 E8.25368
G1 X24.47 Y80.024 E8.64893
G1 X24.249 Y80.01 E8.65741
G1 X23.624 Y79.891 E8.68176
G1 X23.018 Y79.694 E8.70614
G1 X22.442 Y79.423 E8.7305
G1 X21.904 Y79.082 E8.75488
G1 X21.296 Y78.564 E8.78545
G1 X21.193 Y78.461 E8.79102
G1 X20.772 Y77.983 E8.8154
G1 X20.414 Y77.456 E8.83978
G1 X20.125 Y76.889 E8.86414
G1 X19.909 Y76.29 E8.8885
G1 X19.77 Y75.668 E8.9129
G1 X19.707 Y74.872 E8.94345
G1 X19.707 Y45.128 E10.08175
G1 X19.747 Y44.492 E10.10614
G1 X19.866 Y43.867 E10.13049
G1 X20.063 Y43.261 E10.15488
G1 X20.334 Y42.685 E10.17924
G1 X20.675 Y42.147 E10.20361
G1 X21.193 Y41.539 E10.23418
G1 X21.296 Y41.436 E10.23976
G1 X21.774 Y41.015 E10.26413
G1 X22.301 Y40.657 E10.28852
G1 X22.868 Y40.368 E10.31287
G1 X23.467 Y40.152 E10.33724
G1 X24.089 Y40.013 E10.36163
G1 X24.47 Y39.983 E10.37626
G1 X24.47 Y29.648 E10.77178
G1 X24.51 Y29.012 E10.79616
G1 X24.629 Y28.387 E10.82051
G1 X24.826 Y27.781 E10.8449
G1 X25.097 Y27.205 E10.86926
G1 X25.438 Y26.667 E10.89364
G1 X25.506 Y26.587 E10.89765
G0 F972 X25.956 Y26.059
G0 F4320 X26.204 Y26.307
G1 F2400 E10.92421
G1 F1080 X26.307 Y26.204 E10.92979
G1 X26.769 Y25.799 E10.9533
G1 X27.279 Y25.457 E10.9768
G1 X27.83 Y25.184 E11.00033
G1 X28.411 Y24.985 E11.02384
G1 X29.014 Y24.863 E11.04738
G1 X29.648 Y24.82 E11.0717
G1 X90.352 Y24.82 E13.39484
G1 X90.965 Y24.86 E13.41835
G1 X91.568 Y24.979 E13.44187
G1 X92.15 Y25.176 E13.46538
G1 X92.702 Y25.446 E13.4889
G1 X93.214 Y25.786 E13.51242
G1 X93.693 Y26.204 E13.53675
G1 X93.796 Y26.307 E13.54233
G1 X94.201 Y26.769 E13.56584
G1 X94.543 Y27.279 E13.58934
G1 X94.816 Y27.83 E13.61287
G1 X95.015 Y28.411 E13.63637
G1 X95.137 Y29.014 E13.65992
G1 X95.18 Y29.648 E13.68424
G1 X95.18 Y40.304 E14.09204
G1 X95.728 Y40.34 E14.11306
G1 X96.331 Y40.459 E14.13658
G1 X96.913 Y40.656 E14.1601
G1 X97.465 Y40.926 E14.18361
G1 X97.977 Y41.266 E14.20713
G1 X98.456 Y41.684 E14.23146
G1 X98.559 Y41.787 E14.23704
G1 X98.964 Y42.249 E14.26055
G1 X99.306 Y42.759 E14.28405
G1 X99.579 Y43.31 E14.30758
G1 X99.778 Y43.891 E14.33109
G1 X99.9 Y44.494 E14.35463
G1 X99.943 Y45.128 E14.37895
G1 X99.943 Y74.872 E15.51725
G1 X99.903 Y75.485 E15.54076
G1 X99.784 Y76.088 E15.56428
G1 X99.587 Y76.67 E15.5878
G1 X99.317 Y77.222 E15.61131
G1 X98.977 Y77.734 E15.63483
G1 X98.559 Y78.213 E15.65916
G1 X98.456 Y78.316 E15.66474
G1 X97.994 Y78.721 E15.68825
G1 X97.484 Y79.063 E15.71175
G1 X96.933 Y79.336 E15.73528
G1 X96.352 Y79.535 E15.75879
G1 X95.749 Y79.657 E15.78233
G1 X95.18 Y79.696 E15.80416
G1 X95.18 Y90.352 E16.21196
G1 X95.14 Y90.965 E16.23547
G1 X95.021 Y91.568 E16.25899
G1 X94.824 Y92.15 E16.28251
G1 X94.554 Y92.702 E16.30602
G1 X94.214 Y93.214 E16.32955
G1 X93.796 Y93.693 E16.35388
G1 X93.693 Y93.796 E16.35945
G1 X93.231 Y94.201 E16.38296
G1 X92.721 Y94.543 E16.40646
G1 X92.17 Y94.816 E16.43
G1 X91.589 Y95.015 E16.4535
G1 X90.986 Y95.137 E16.47704
G1 X90.352 Y95.18 E16.50136
G1 X29.648 Y95.18 E18.8245
G1 X29.035 Y95.14 E18.84801
G1 X28.432 Y95.021 E18.87153
G1 X27.85 Y94.824 E18.89505
G1 X27.298 Y94.554 E18.91856
G1 X26.786 Y94.214 E18.94208
G1 X26.307 Y93.796 E18.96641
G1 X26.204 Y93.693 E18.97199
G1 X25.799 Y93.231 E18.9955
G1 X25.457 Y92.721 E19.019
G1 X25.184 Y92.17 E19.04253
G1 X24.985 Y91.589 E19.06604
G1 X24.863 Y90.986 E19.08958
G1 X24.82 Y90.352 E19.1139
G1 X24.82 Y79.696 E19.5217
G1 X24.272 Y79.66 E19.54272
G1 X23.669 Y79.541 E19.56624
G1 X23.087 Y79.344 E19.58976
G1 X22.535 Y79.074 E19.61327
G1 X22.023 Y78.734 E19.6368
G1 X21.544 Y78.316 E19.66113
G1 X21.441 Y78.213 E19.6667
G1 X21.036 Y77.751 E19.69021
G1 X20.694 Y77.241 E19.71371
G1 X20.421 Y76.69 E19.73724
G1 X20.222 Y76.109 E19.76075
G1 X20.1 Y75.506 E19.78429
G1 X20.057 Y74.872 E19.80861
G1 X20.057 Y45.128 E20.94691
G1 X20.097 Y44.515 E20.97042
G1 X20.216 Y43.912 E20.99394
G1 X20.413 Y43.33 E21.01746
G1 X20.683 Y42.778 E21.04097
G1 X21.023 Y42.266 E21.0645
G1 X21.441 Y41.787 E21.08883
G1 X21.544 Y41.684 E21.0944
G1 X22.006 Y41.279 E21.11791
G1 X22.516 Y40.937 E21.14141
G1 X23.067 Y40.664 E21.16495
G1 X23.648 Y40.465 E21.18845
G1 X24.251 Y40.343 E21.21199
G1 X24.82 Y40.304 E21.23382
G1 X24.82 Y29.648 E21.64162
G1 X24.86 Y29.035 E21.66513
G1 X24.979 Y28.432 E21.68866
G1 X25.176 Y27.85 E21.71217
G1 X25.446 Y27.298 E21.73569
G1 X25.754 Y26.835 E21.75697
G0 F972 X25.786 Y26.786
G0 X26.204 Y26.307
G0 F4320 X26.451 Y26.554
G1 F2400 E21.78353
G1 F1080 X26.554 Y26.451 E21.7891
G1 X27 Y26.063 E21.81172
G1 X27.494 Y25.737 E21.83438
G1 X28.027 Y25.482 E21.85699
G1 X28.589 Y25.3 E21.8796
G1 X29.171 Y25.196 E21.90222
G1 X29.648 Y25.17 E21.9205
G1 X90.352 Y25.17 E24.24364
G1 X90.942 Y25.21 E24.26627
G1 X91.521 Y25.329 E24.28889
G1 X92.079 Y25.525 E24.31153
G1 X92.605 Y25.795 E24.33416
G1 X93.09 Y26.133 E24.35678
G1 X93.446 Y26.451 E24.37505
G1 X93.549 Y26.554 E24.38062
G1 X93.937 Y27 E24.40324
G1 X94.263 Y27.494 E24.4259
G1 X94.518 Y28.027 E24.44851
G1 X94.7 Y28.589 E24.47112
G1 X94.804 Y29.171 E24.49374
G1 X94.83 Y29.648 E24.51202
G1 X94.83 Y40.65 E24.93307
G1 X95.115 Y40.65 E24.94398
G1 X95.705 Y40.69 E24.96661
G1 X96.284 Y40.809 E24.98923
G1 X96.842 Y41.005 E25.01186
G1 X97.368 Y41.275 E25.03449
G1 X97.853 Y41.613 E25.05711
G1 X98.209 Y41.931 E25.07538
G1 X98.312 Y42.034 E25.08096
G1 X98.7 Y42.48 E25.10358
G1 X99.026 Y42.974 E25.12623
G1 X99.281 Y43.507 E25.14884
G1 X99.463 Y44.069 E25.17145
G1 X99.567 Y44.651 E25.19407
G1 X99.593 Y45.128 E25.21236
G1 X99.593 Y74.872 E26.35066
G1 X99.553 Y75.462 E26.37329
G1 X99.434 Y76.041 E26.39591
G1 X99.238 Y76.599 E26.41854
G1 X98.968 Y77.125 E26.44117
G1 X98.63 Y77.61 E26.46379
G1 X98.312 Y77.966 E26.48206
G1 X98.209 Y78.069 E26.48764
G1 X97.763 Y78.457 E26.51026
G1 X97.269 Y78.783 E26.53291
G1 X96.736 Y79.038 E26.55552
G1 X96.174 Y79.22 E26.57813
G1 X95.592 Y79.324 E26.60076
G1 X95.115 Y79.35 E26.61904
G1 X94.83 Y79.35 E26.62995
G1 X94.83 Y90.352 E27.05099
G1 X94.79 Y90.942 E27.07362
G1 X94.671 Y91.521 E27.09624
G1 X94.475 Y92.079 E27.11888
G1 X94.205 Y92.605 E27.14151
G1 X93.867 Y93.09 E27.16413
G1 X93.549 Y93.446 E27.1824
G1 X93.446 Y93.549 E27.18797
G1 X93 Y93.937 E27.21059
G1 X92.506 Y94.263 E27.23325
G1 X91.973 Y94.518 E27.25586
G1 X91.411 Y94.7 E27.27847
G1 X90.829 Y94.804 E27.30109
G1 X90.352 Y94.83 E27.31937
G1 X29.648 Y94.83 E29.64251
G1 X29.058 Y94.79 E29.66514
G1 X28.479 Y94.671 E29.68776
G1 X27.921 Y94.475 E29.7104
G1 X27.395 Y94.205 E29.73302
G1 X26.91 Y93.867 E29.75565
G1 X26.554 Y93.549 E29.77392
G1 X26.451 Y93.446 E29.77949
G1 X26.063 Y93 E29.80211
G1 X25.737 Y92.506 E29.82477
G1 X25.482 Y91.973 E29.84738
G1 X25.3 Y91.411 E29.86998
G1 X25.196 Y90.829 E29.89261
G1 X25.17 Y90.352 E29.91089
G1 X25.17 Y79.35 E30.33194
G1 X24.885 Y79.35 E30.34285
G1 X24.295 Y79.31 E30.36548
G1 X23.716 Y79.191 E30.3881
G1 X23.158 Y78.995 E30.41073
G1 X22.632 Y78.725 E30.43336
G1 X22.147 Y78.387 E30.45598
G1 X21.791 Y78.069 E30.47425
G1 X21.688 Y77.966 E30.47982
G1 X21.3 Y77.52 E30.50245
G1 X20.974 Y77.026 E30.5251
G1 X20.719 Y76.493 E30.54771
G1 X20.537 Y75.931 E30.57032
G1 X20.433 Y75.349 E30.59294
G1 X20.407 Y74.872 E30.61123
G1 X20.407 Y45.128 E31.74953
G1 X20.447 Y44.538 E31.77216
G1 X20.566 Y43.959 E31.79478
G1 X20.762 Y43.401 E31.81741
G1 X21.032 Y42.875 E31.84004
G1 X21.37 Y42.39 E31.86266
G1 X21.688 Y42.034 E31.88093
G1 X21.791 Y41.931 E31.88651
G1 X22.237 Y41.543 E31.90913
G1 X22.731 Y41.217 E31.93178
G1 X23.264 Y40.962 E31.95439
G1 X23.826 Y40.78 E31.977
G1 X24.408 Y40.676 E31.99963
G1 X24.885 Y40.65 E32.01791
G1 X25.17 Y40.65 E32.02882
G1 X25.17 Y29.648 E32.44986
G1 X25.21 Y29.058 E32.47249
G1 X25.329 Y28.479 E32.49511
G1 X25.525 Y27.921 E32.51775
G1 X25.795 Y27.395 E32.54037
G1 X26.009 Y27.088 E32.5547
G0 F972 X26.133 Y26.91
G0 X26.451 Y26.554
G0 F4320 X26.699 Y26.802
G1 F2400 E32.58126
G1 F1080 X26.802 Y26.699 E32.58683
G1 X27.23 Y26.327 E32.60853
G1 X27.706 Y26.019 E32.63023
G1 X28.221 Y25.781 E32.65194
G1 X28.764 Y25.618 E32.67364
G1 X29.325 Y25.533 E32.69535
G1 X29.648 Y25.52 E32.70772
G1 X90.352 Y25.52 E35.03086
G1 X90.918 Y25.56 E35.05258
G1 X91.472 Y25.679 E35.07426
G1 X92.004 Y25.875 E35.09596
G1 X92.504 Y26.143 E35.11767
G1 X92.96 Y26.48 E35.13937
G1 X93.198 Y26.699 E35.15175
G1 X93.301 Y26.802 E35.15732
G1 X93.673 Y27.23 E35.17902
G1 X93.981 Y27.706 E35.20072
G1 X94.219 Y28.221 E35.22243
G1 X94.382 Y28.764 E35.24413
G1 X94.467 Y29.325 E35.26584
G1 X94.48 Y29.648 E35.27822
G1 X94.48 Y41 E35.71266
G1 X95.115 Y41 E35.73696
G1 X95.681 Y41.04 E35.75867
G1 X96.235 Y41.159 E35.78036
G1 X96.767 Y41.355 E35.80205
G1 X97.267 Y41.623 E35.82376
G1 X97.723 Y41.96 E35.84546
G1 X97.961 Y42.179 E35.85784
G1 X98.064 Y42.282 E35.86342
G1 X98.436 Y42.71 E35.88512
G1 X98.744 Y43.186 E35.90682
G1 X98.982 Y43.701 E35.92853
G1 X99.145 Y44.244 E35.95022
G1 X99.23 Y44.805 E35.97194
G1 X99.243 Y45.128 E35.98431
G1 X99.243 Y74.872 E37.12261
G1 X99.203 Y75.438 E37.14433
G1 X99.084 Y75.992 E37.16601
G1 X98.888 Y76.524 E37.18771
G1 X98.62 Y77.024 E37.20942
G1 X98.283 Y77.48 E37.23112
G1 X98.064 Y77.718 E37.2435
G1 X97.961 Y77.821 E37.24907
G1 X97.533 Y78.193 E37.27077
G1 X97.057 Y78.501 E37.29247
G1 X96.542 Y78.739 E37.31418
G1 X95.999 Y78.902 E37.33588
G1 X95.438 Y78.987 E37.35759
G1 X95.115 Y79 E37.36996
G1 X94.48 Y79 E37.39426
G1 X94.48 Y90.352 E37.82871
G1 X94.44 Y90.918 E37.85042
G1 X94.321 Y91.472 E37.87211
G1 X94.125 Y92.004 E37.8938
G1 X93.857 Y92.504 E37.91551
G1 X93.52 Y92.96 E37.93721
G1 X93.301 Y93.198 E37.94959
G1 X93.198 Y93.301 E37.95516
G1 X92.77 Y93.673 E37.97687
G1 X92.294 Y93.981 E37.99856
G1 X91.779 Y94.219 E38.02028
G1 X91.236 Y94.382 E38.04197
G1 X90.675 Y94.467 E38.06369
G1 X90.352 Y94.48 E38.07606
G1 X29.648 Y94.48 E40.3992
G1 X29.082 Y94.44 E40.42091
G1 X28.528 Y94.321 E40.4426
G1 X27.996 Y94.125 E40.46429
G1 X27.496 Y93.857 E40.486
G1 X27.04 Y93.52 E40.5077
G1 X26.802 Y93.301 E40.52008
G1 X26.699 Y93.198 E40.52566
G1 X26.327 Y92.77 E40.54736
G1 X26.019 Y92.294 E40.56906
G1 X25.781 Y91.779 E40.59077
G1 X25.618 Y91.236 E40.61246
G1 X25.533 Y90.675 E40.63418
G1 X25.52 Y90.352 E40.64655
G1 X25.52 Y79 E41.08099
G1 X24.885 Y79 E41.10529
G1 X24.319 Y78.96 E41.12701
G1 X23.765 Y78.841 E41.14869
G1 X23.233 Y78.645 E41.17039
G1 X22.733 Y78.377 E41.1921
G1 X22.277 Y78.04 E41.2138
G1 X22.039 Y77.821 E41.22618
G1 X21.936 Y77.718 E41.23175
G1 X21.564 Y77.29 E41.25345
G1 X21.256 Y76.814 E41.27515
G1 X21.018 Y76.299 E41.29686
G1 X20.855 Y75.756 E41.31856
G1 X20.77 Y75.195 E41.34027
G1 X20.757 Y74.872 E41.35264
G1 X20.757 Y45.128 E42.49095
G1 X20.797 Y44.562 E42.51266
G1 X20.916 Y44.008 E42.53435
G1 X21.112 Y43.476 E42.55604
G1 X21.38 Y42.976 E42.57775
G1 X21.717 Y42.52 E42.59945
G1 X21.936 Y42.282 E42.61183
G1 X22.039 Y42.179 E42.6174
G1 X22.467 Y41.807 E42.63911
G1 X22.943 Y41.499 E42.6608
G1 X23.458 Y41.261 E42.68252
G1 X24.001 Y41.098 E42.70421
G1 X24.562 Y41.013 E42.72593
G1 X24.885 Y41 E42.7383
G1 X25.52 Y41 E42.7626
G1 X25.52 Y29.648 E43.19704
G1 X25.56 Y29.082 E43.21875
G1 X25.679 Y28.528 E43.24044
G1 X25.875 Y27.996 E43.26214
G1 X26.143 Y27.496 E43.28385
G1 X26.26 Y27.338 E43.29137
G0 F972 X26.48 Y27.04
G0 X26.699 Y26.802
G0 F4320 X26.946 Y27.049
G1 F2400 E43.31793
G1 F1080 X27.049 Y26.946 E43.32351
G1 X27.46 Y26.593 E43.34424
G1 X27.918 Y26.303 E43.36499
G1 X28.413 Y26.084 E43.3857
G1 X28.936 Y25.94 E43.40646
G1 X29.648 Y25.87 E43.43384
G1 X90.352 Y25.87 E45.75698
G1 X90.892 Y25.91 E45.7777
G1 X91.421 Y26.029 E45.79845
G1 X91.926 Y26.224 E45.81917
G1 X92.398 Y26.492 E45.83994
G1 X92.951 Y26.946 E45.86732
G1 X93.054 Y27.049 E45.8729
G1 X93.407 Y27.46 E45.89363
G1 X93.697 Y27.918 E45.91438
G1 X93.916 Y28.413 E45.93509
G1 X94.06 Y28.936 E45.95585
G1 X94.13 Y29.648 E45.98323
G1 X94.13 Y41.35 E46.43107
G1 X95.115 Y41.35 E46.46876
G1 X95.655 Y41.39 E46.48948
G1 X96.184 Y41.509 E46.51023
G1 X96.689 Y41.704 E46.53095
G1 X97.161 Y41.972 E46.55172
G1 X97.714 Y42.426 E46.57911
G1 X97.817 Y42.529 E46.58468
G1 X98.17 Y42.94 E46.60541
G1 X98.46 Y43.398 E46.62616
G1 X98.679 Y43.893 E46.64688
G1 X98.823 Y44.416 E46.66764
G1 X98.893 Y45.128 E46.69501
G1 X98.893 Y74.872 E47.83332
G1 X98.853 Y75.412 E47.85404
G1 X98.734 Y75.941 E47.87479
G1 X98.539 Y76.446 E47.89551
G1 X98.271 Y76.918 E47.91628
G1 X97.817 Y77.471 E47.94366
G1 X97.714 Y77.574 E47.94923
G1 X97.303 Y77.927 E47.96997
G1 X96.845 Y78.217 E47.99071
G1 X96.35 Y78.436 E48.01143
G1 X95.827 Y78.58 E48.03219
G1 X95.115 Y78.65 E48.05957
G1 X94.13 Y78.65 E48.09726
G1 X94.13 Y90.352 E48.5451
G1 X94.09 Y90.892 E48.56582
G1 X93.971 Y91.421 E48.58657
G1 X93.776 Y91.926 E48.60729
G1 X93.508 Y92.398 E48.62806
G1 X93.054 Y92.951 E48.65544
G1 X92.951 Y93.054 E48.66102
G1 X92.54 Y93.407 E48.68175
G1 X92.082 Y93.697 E48.7025
G1 X91.587 Y93.916 E48.72321
G1 X91.064 Y94.06 E48.74397
G1 X90.352 Y94.13 E48.77135
G1 X29.648 Y94.13 E51.09449
G1 X29.108 Y94.09 E51.11521
G1 X28.579 Y93.971 E51.13596
G1 X28.074 Y93.776 E51.15668
G1 X27.602 Y93.508 E51.17745
G1 X27.049 Y93.054 E51.20483
G1 X26.946 Y92.951 E51.21041
G1 X26.593 Y92.54 E51.23114
G1 X26.303 Y92.082 E51.25189
G1 X26.084 Y91.587 E51.2726
G1 X25.94 Y91.064 E51.29336
G1 X25.87 Y90.352 E51.32074
G1 X25.87 Y78.65 E51.76858
G1 X24.885 Y78.65 E51.80627
