;FLAVOR:Marlin
;TIME:2021
;Filament used: 1.63844m
;Layer height: 0.2625
;MINX:26.075
;MINY:31.075
;MINZ:0.263
;MAXX:93.925
;MAXY:88.925
;MAXZ:2.841
;Generated with Cura_SteamEngine 4.2.0
M140 S65
M105
M190 S65
M104 S190
M105
M109 S190
M82 ;absolute extrusion mode
G21;(metric values)
G90;(absolute positioning)
M82;(set extruder to absolute mode)
M107;(start with the fan off)
G28;(Home the printer)
G92 E0;(Reset the extruder to 0)
G0 Z5 E5 F500;(Move up and prime the nozzle)
G0 X-1 Z0;(Move outside the printable area)
G1 Y60 E8 F500;(Draw a priming/wiping line to the rear)
G1 X-1;(Move a little closer to the print area)
G1 Y10 E16 F500;(draw more priming/wiping)
G1 E15 F250;(Small retract)
G92 E0;(Zero the extruder)
M141 S28
G92 E0
G92 E0
G1 F2400 E-2.5
;LAYER_COUNT:7
;LAYER:0
M107
G0 F4320 X31.99 Y32.246 Z0.263
;TYPE:SKIRT
G1 F2400 E0
G1 F1800 X32.375 Y31.88 E0.02033
G1 X32.81 Y31.576 E0.04064
G1 X33.286 Y31.341 E0.06095
G1 X33.791 Y31.18 E0.08124
G1 X34.497 Y31.087 E0.10849
G1 X34.822 Y31.077 E0.12093
G1 X34.93 Y31.075 E0.12507
G1 X84.743 Y31.075 E2.03141
G1 X85.444 Y31.085 E2.05824
G1 X85.973 Y31.133 E2.07857
G1 X86.488 Y31.259 E2.09886
G1 X86.979 Y31.461 E2.11918
G1 X87.434 Y31.735 E2.1395
G1 X88 Y32.236 E2.16843
G1 X88.564 Y32.855 E2.20048
G1 X88.605 Y32.901 E2.20284
G1 X89.262 Y33.648 E2.24091
G1 X91.117 Y35.638 E2.34502
G1 X92.894 Y37.442 E2.44193
G1 X93.236 Y37.847 E2.46222
G1 X93.515 Y38.299 E2.48254
G1 X93.722 Y38.787 E2.50283
G1 X93.853 Y39.301 E2.52313
G1 X93.902 Y39.726 E2.5395
G1 X93.92 Y40.061 E2.55234
G1 X93.925 Y40.25 E2.55958
G1 X93.925 Y69.243 E3.66914
G1 X93.915 Y69.96 E3.69658
G1 X93.867 Y70.489 E3.71691
G1 X93.664 Y71.218 E3.74587
G1 X93.214 Y72.345 E3.79231
G1 X92.234 Y74.889 E3.89664
G1 X91.321 Y77.472 E4.00149
G1 X90.488 Y80.061 E4.10557
G1 X89.717 Y82.712 E4.21123
G1 X89.033 Y85.342 E4.31522
G1 X88.816 Y86.229 E4.35017
G1 X88.651 Y86.733 E4.37047
G1 X88.413 Y87.207 E4.39076
G1 X88.106 Y87.64 E4.41108
G1 X87.738 Y88.022 E4.43138
G1 X87.316 Y88.344 E4.45169
G1 X86.851 Y88.6 E4.47201
G1 X86.353 Y88.783 E4.49231
G1 X85.833 Y88.888 E4.51261
G1 X85.49 Y88.915 E4.52578
G1 X85.168 Y88.924 E4.53811
G1 X85.07 Y88.925 E4.54186
G1 X35.254 Y88.925 E6.44831
G1 X34.593 Y88.915 E6.47361
G1 X34.064 Y88.867 E6.49394
G1 X33.549 Y88.74 E6.51424
G1 X33.058 Y88.537 E6.53457
G1 X32.604 Y88.263 E6.55487
G1 X32.416 Y88.107 E6.56422
G1 X32.185 Y87.921 E6.57557
G1 X31.827 Y87.53 E6.59585
G1 X31.531 Y87.089 E6.61618
G1 X31.305 Y86.609 E6.63648
G1 X31.185 Y86.235 E6.65152
G1 X31.096 Y85.892 E6.66508
G1 X31.085 Y85.85 E6.66674
G1 X30.608 Y83.915 E6.74301
G1 X29.878 Y81.272 E6.84794
G1 X29.08 Y78.671 E6.95206
G1 X28.206 Y76.087 E7.05646
G1 X27.263 Y73.538 E7.16047
G1 X26.458 Y71.539 E7.24294
G1 X26.436 Y71.483 E7.24524
G1 X26.318 Y71.175 E7.25786
G1 X26.166 Y70.667 E7.27816
G1 X26.087 Y70.023 E7.30299
G1 X26.077 Y69.699 E7.31539
G1 X26.075 Y69.59 E7.31956
G1 X26.075 Y40.577 E8.42989
G1 X26.085 Y39.879 E8.45661
G1 X26.133 Y39.35 E8.47693
G1 X26.259 Y38.835 E8.49722
G1 X26.461 Y38.344 E8.51754
G1 X26.735 Y37.889 E8.53787
G1 X27.089 Y37.465 E8.55901
G1 X28.009 Y36.524 E8.60937
G1 X29.956 Y34.496 E8.71696
G1 X31.525 Y32.76 E8.80651
G0 F1620 X31.99 Y32.246
G0 F4320 X32.25 Y32.481
G1 F2400 E8.83307
G1 F1800 X32.616 Y32.135 E8.85235
G1 X33.032 Y31.852 E8.8716
G1 X33.488 Y31.638 E8.89088
G1 X33.972 Y31.499 E8.91015
G1 X34.507 Y31.437 E8.93076
G1 X34.832 Y31.427 E8.9432
G1 X34.93 Y31.425 E8.94695
G1 X84.738 Y31.425 E10.8531
G1 X85.439 Y31.435 E10.87993
G1 X85.941 Y31.482 E10.89923
G1 X86.428 Y31.608 E10.91848
G1 X86.89 Y31.809 E10.93776
G1 X87.314 Y32.081 E10.95704
G1 X87.741 Y32.472 E10.9792
G1 X88.305 Y33.091 E11.01125
G1 X88.342 Y33.132 E11.01336
G1 X89.007 Y33.887 E11.05186
G1 X90.86 Y35.875 E11.15587
G1 X92.644 Y37.687 E11.25318
G1 X92.968 Y38.073 E11.27247
G1 X93.227 Y38.505 E11.29174
G1 X93.414 Y38.973 E11.31103
G1 X93.525 Y39.464 E11.3303
G1 X93.552 Y39.745 E11.3411
G1 X93.57 Y40.08 E11.35394
G1 X93.575 Y40.25 E11.36045
G1 X93.575 Y69.238 E12.46982
G1 X93.565 Y69.955 E12.49726
G1 X93.518 Y70.457 E12.51655
G1 X93.339 Y71.088 E12.54166
G1 X92.903 Y72.18 E12.58665
G1 X91.898 Y74.789 E12.69365
G1 X90.982 Y77.38 E12.79882
G1 X90.164 Y79.923 E12.90106
G1 X89.384 Y82.603 E13.00787
G1 X88.682 Y85.303 E13.11464
G1 X88.476 Y86.145 E13.14781
G1 X88.318 Y86.624 E13.16712
G1 X88.086 Y87.071 E13.18639
G1 X87.787 Y87.476 E13.20565
G1 X87.427 Y87.828 E13.22492
G1 X87.016 Y88.119 E13.2442
G1 X86.564 Y88.342 E13.26348
G1 X86.083 Y88.49 E13.28274
G1 X85.481 Y88.565 E13.30596
G1 X85.159 Y88.574 E13.31829
G1 X85.07 Y88.575 E13.32169
G1 X35.259 Y88.575 E15.22796
G1 X34.598 Y88.565 E15.25326
G1 X34.097 Y88.517 E15.27252
G1 X33.609 Y88.391 E15.29181
G1 X33.148 Y88.189 E15.31107
G1 X32.724 Y87.917 E15.33035
G1 X32.672 Y87.87 E15.33303
G1 X32.333 Y87.576 E15.3502
G1 X32.01 Y87.19 E15.36946
G1 X31.751 Y86.758 E15.38874
G1 X31.524 Y86.147 E15.41368
G1 X31.435 Y85.804 E15.42725
G1 X31.425 Y85.766 E15.42875
G1 X30.942 Y83.805 E15.50604
G1 X30.219 Y81.185 E15.61005
G1 X29.421 Y78.588 E15.71403
G1 X28.537 Y75.975 E15.8196
G1 X27.579 Y73.385 E15.92528
G1 X26.783 Y71.408 E16.00684
G1 X26.763 Y71.358 E16.0089
G1 X26.645 Y71.05 E16.02152
G1 X26.503 Y70.567 E16.04079
G1 X26.437 Y70.012 E16.06218
G1 X26.427 Y69.688 E16.07458
G1 X26.425 Y69.59 E16.07834
G1 X26.425 Y40.582 E17.18847
G1 X26.435 Y39.884 E17.21519
G1 X26.482 Y39.382 E17.23448
G1 X26.608 Y38.895 E17.25373
G1 X26.81 Y38.433 E17.27303
G1 X27.081 Y38.009 E17.29229
G1 X27.34 Y37.709 E17.30745
G1 X28.239 Y36.789 E17.35668
G1 X30.237 Y34.708 E17.46709
G1 X31.785 Y32.996 E17.55542
G0 F1620 X32.25 Y32.481
G1 F2400 E15.05542
G1 F60 Z1.263
;MESH:fuselage_servoholder.stl
G0 F4320 X42.725 Y79.475 Z1.263
;TYPE:WALL-INNER
G1 F60 Z0.263
G1 F2400 E17.58198
G1 F1800 X56.075 Y79.475 E18.09288
G1 X56.075 Y53.725 E19.07833
G1 X42.725 Y53.725 E19.58923
G1 X42.725 Y78.781 E20.54813
G0 F1620 X42.725 Y79.475
G1 F2400 E18.04813
G1 F60 Z1.263
G0 F4320 X42.89 Y79.31 Z1.263
G0 X63.925 Y79.475
G1 F60 Z0.263
G1 F2400 E20.57468
G1 F1800 X77.275 Y79.475 E21.08559
G1 X77.275 Y53.725 E22.07104
G1 X63.925 Y53.725 E22.58194
G1 X63.925 Y78.781 E23.54084
G0 F1620 X63.925 Y79.475
G1 F2400 E21.04084
G1 F60 Z1.263
G0 F4320 X64.09 Y79.31 Z1.263
G0 X84.525 Y69.045
G1 F60 Z0.263
G1 F2400 E23.56739
G1 F1800 X84.525 Y84.525 E24.15981
G1 X35.475 Y84.525 E26.03695
G1 X35.475 Y69.045 E26.62937
G1 X30.475 Y69.045 E26.82072
G1 X30.475 Y40.795 E27.90185
G1 X35.475 Y40.795 E28.0932
G1 X35.475 Y35.475 E28.29679
G1 X84.525 Y35.475 E30.17393
G1 X84.525 Y40.795 E30.37753
G1 X89.525 Y40.795 E30.56888
G1 X89.525 Y69.045 E31.65001
G1 X85.219 Y69.045 E31.8148
G0 F1620 X84.525 Y69.045
G0 F4320 X84.875 Y69.395
G1 F2400 E31.84136
G1 F1800 X84.875 Y84.875 E32.43377
G1 X35.125 Y84.875 E34.3377
G1 X35.125 Y69.395 E34.93012
G1 X30.125 Y69.395 E35.12147
G1 X30.125 Y40.445 E36.22939
G1 X35.125 Y40.445 E36.42074
G1 X35.125 Y35.125 E36.62433
G1 X84.875 Y35.125 E38.52826
G1 X84.875 Y40.445 E38.73186
G1 X89.875 Y40.445 E38.92321
G1 X89.875 Y69.395 E40.03112
G1 X85.569 Y69.395 E40.19591
G0 F1620 X84.875 Y69.395
G1 F2400 E37.69591
G1 F60 Z1.263
G0 F4320 X84.778 Y69.298 Z1.263
G0 X64.275 Y79.125
G1 F60 Z0.263
G1 F2400 E40.22247
G1 F1800 X76.925 Y79.125 E40.70659
G1 X76.925 Y54.075 E41.66525
G1 X64.275 Y54.075 E42.14937
G1 X64.275 Y78.431 E43.08147
G0 F1620 X64.275 Y79.125
G1 F2400 E40.58147
G1 F60 Z1.263
G0 F4320 X64.178 Y79.222 Z1.263
G0 X43.075 Y79.125
G1 F60 Z0.263
G1 F2400 E43.10803
G1 F1800 X55.725 Y79.125 E43.59214
G1 X55.725 Y54.075 E44.5508
G1 X43.075 Y54.075 E45.03492
G1 X43.075 Y78.431 E45.96702
G0 F1620 X43.075 Y79.125
G0 F4320 X43.4 Y78.8
;TYPE:WALL-OUTER
G1 F2400 E45.99358
G1 F1800 X55.4 Y78.8 E46.45282
G1 X55.4 Y54.4 E47.38661
G1 X43.4 Y54.4 E47.84585
G1 X43.4 Y78.106 E48.75307
G0 F1620 X43.4 Y78.8
G0 F4320 X43.6 Y78.8
G1 F2400 E46.25307
G1 F60 Z1.263
G0 F4320 X43.6 Y79.31 Z1.263
G0 X64.6 Y78.8
G1 F60 Z0.263
G1 F2400 E48.77963
G1 F1800 X76.6 Y78.8 E49.23887
G1 X76.6 Y54.4 E50.17266
G1 X64.6 Y54.4 E50.6319
G1 X64.6 Y78.106 E51.53913
G0 F1620 X64.6 Y78.8
G0 F4320 X64.8 Y78.8
G1 F2400 E49.03913
G1 F60 Z1.263
G0 F4320 X64.8 Y79.31 Z1.263
G0 X85.2 Y69.72
G1 F60 Z0.263
G1 F2400 E51.56568
G1 F1800 X85.2 Y85.2 E52.1581
G1 X34.8 Y85.2 E54.08691
G1 X34.8 Y69.72 E54.67933
G1 X29.8 Y69.72 E54.87068
G1 X29.8 Y40.12 E56.00347
G1 X34.8 Y40.12 E56.19482
G1 X34.8 Y34.8 E56.39841
G1 X85.2 Y34.8 E58.32722
G1 X85.2 Y40.12 E58.53081
G1 X90.2 Y40.12 E58.72216
G1 X90.2 Y69.72 E59.85495
G1 X85.894 Y69.72 E60.01974
G0 F1620 X85.2 Y69.72
G0 F4320 X85.2 Y69.92
G0 X84.925 Y69.92
G0 X84.41 Y68.93
G0 X84.185 Y68.705
;TYPE:SKIN
G1 F2400 E60.0463
G1 F1800 X84.185 Y84.185 E60.63872
G1 X35.815 Y84.185 E62.48984
G1 X35.815 Y68.705 E63.08226
G1 X30.815 Y68.705 E63.27361
G1 X30.815 Y41.135 E64.32871
G1 X35.815 Y41.135 E64.52006
G1 X35.815 Y35.815 E64.72366
G1 X84.185 Y35.815 E66.57477
G1 X84.185 Y41.135 E66.77837
G1 X89.185 Y41.135 E66.96972
G1 X89.185 Y68.705 E68.02482
G1 X84.879 Y68.705 E68.18961
G0 F1620 X84.185 Y68.705
G1 F2400 E65.68961
G1 F60 Z1.263
G0 F4320 X84.69 Y69.107 Z1.263
G0 X77.615 Y79.815
G1 F60 Z0.263
G1 F2400 E68.21617
G1 F1800 X77.615 Y53.385 E69.22765
G1 X63.585 Y53.385 E69.76457
G1 X63.585 Y79.815 E70.77605
G1 X76.921 Y79.815 E71.28642
G0 F1620 X77.615 Y79.815
G1 F2400 E68.78642
G1 F60 Z1.263
G0 F4320 X77.11 Y79.413 Z1.263
G0 X56.415 Y79.815
G1 F60 Z0.263
G1 F2400 E71.31298
G1 F1800 X56.415 Y53.385 E72.32445
G1 X42.385 Y53.385 E72.86138
G1 X42.385 Y79.815 E73.87285
G1 X55.721 Y79.815 E74.38322
G0 F1620 X56.415 Y79.815
G1 F2400 E71.88322
G1 F60 Z1.263
G0 F4320 X55.91 Y79.413 Z1.263
G0 X36.509 Y84.026
G1 F60 Z0.263
G1 F2400 E74.40978
G1 F1800 X35.971 Y83.489 E74.43887
G0 F4320 X35.971 Y82.994
G1 F1800 X37.004 Y84.026 E74.49475
G0 F4320 X37.499 Y84.026
G1 F1800 X35.971 Y82.499 E74.57742
G0 F4320 X35.971 Y82.004
G1 F1800 X37.994 Y84.026 E74.68688
G0 F4320 X38.489 Y84.026
G1 F1800 X35.971 Y81.509 E74.82313
G0 F4320 X35.971 Y81.014
G1 F1800 X38.984 Y84.026 E74.98618
G0 F4320 X39.479 Y84.026
G1 F1800 X35.971 Y80.519 E75.17601
G0 F4320 X35.971 Y80.024
G1 F1800 X39.974 Y84.026 E75.39263
G0 F4320 X40.469 Y84.026
G1 F1800 X35.971 Y79.529 E75.63605
G0 F4320 X35.971 Y79.034
G1 F1800 X40.964 Y84.026 E75.90625
G0 F4320 X41.459 Y84.026
G1 F1800 X35.971 Y78.539 E76.20324
G0 F4320 X35.971 Y78.044
G1 F1800 X41.954 Y84.026 E76.52703
G0 F4320 X42.449 Y84.026
G1 F1800 X35.971 Y77.549 E76.8776
G0 F4320 X35.971 Y77.054
G1 F1800 X42.944 Y84.026 E77.25497
G0 F4320 X43.438 Y84.026
G1 F1800 X35.971 Y76.559 E77.65909
G0 F4320 X35.971 Y76.064
G1 F1800 X43.933 Y84.026 E78.09001
G0 F4320 X44.428 Y84.026
G1 F1800 X35.971 Y75.569 E78.54772
G0 F4320 X35.971 Y75.074
G1 F1800 X44.923 Y84.026 E79.03222
G0 F4320 X45.418 Y84.026
G1 F1800 X35.971 Y74.579 E79.54351
G0 F4320 X35.971 Y74.084
G1 F1800 X45.913 Y84.026 E80.08159
G0 F4320 X46.408 Y84.026
G1 F1800 X42.353 Y79.971 E80.30105
G0 F4320 X42.227 Y79.845
G1 F1800 X35.971 Y73.59 E80.63961
G0 F4320 X35.971 Y73.095
G1 F1800 X42.227 Y79.35 E80.97817
G0 F4320 X42.227 Y78.855
G1 F1800 X35.971 Y72.6 E81.31673
G0 F4320 X35.971 Y72.105
G1 F1800 X42.227 Y78.36 E81.65529
G0 F4320 X42.227 Y77.865
G1 F1800 X35.971 Y71.61 E81.99385
G0 F4320 X35.971 Y71.115
G1 F1800 X42.227 Y77.37 E82.33241
G0 F4320 X42.227 Y76.875
G1 F1800 X35.971 Y70.62 E82.67097
G0 F4320 X35.971 Y70.125
G1 F1800 X42.227 Y76.38 E83.00953
G0 F4320 X42.227 Y75.885
G1 F1800 X35.971 Y69.63 E83.34809
G0 F4320 X35.971 Y69.135
G1 F1800 X42.227 Y75.391 E83.68667
G0 F4320 X42.227 Y74.896
G1 F1800 X35.971 Y68.64 E84.02526
G0 F4320 X35.878 Y68.546
G1 F1800 X30.971 Y63.64 E84.29081
G0 F4320 X30.971 Y63.145
G1 F1800 X42.227 Y74.401 E84.90001
G0 F4320 X42.227 Y73.906
G1 F1800 X30.971 Y62.65 E85.5092
G0 F4320 X30.971 Y62.155
G1 F1800 X42.227 Y73.411 E86.1184
G0 F4320 X42.227 Y72.916
G1 F1800 X30.971 Y61.66 E86.72759
G0 F4320 X30.971 Y61.165
G1 F1800 X42.227 Y72.421 E87.33679
G0 F4320 X42.227 Y71.926
G1 F1800 X30.971 Y60.67 E87.94598
G0 F4320 X30.971 Y60.175
G1 F1800 X42.227 Y71.431 E88.55518
G0 F4320 X42.227 Y70.936
G1 F1800 X30.971 Y59.68 E89.16438
G0 F4320 X30.971 Y59.185
G1 F1800 X42.227 Y70.441 E89.77357
G0 F4320 X42.227 Y69.946
G1 F1800 X30.971 Y58.69 E90.38277
G0 F4320 X30.971 Y58.195
G1 F1800 X42.227 Y69.451 E90.99196
G0 F4320 X42.227 Y68.956
G1 F1800 X30.971 Y57.7 E91.60116
G0 F4320 X30.971 Y57.205
G1 F1800 X42.227 Y68.461 E92.21035
G0 F4320 X42.227 Y67.966
G1 F1800 X30.971 Y56.71 E92.81955
G0 F4320 X30.971 Y56.215
G1 F1800 X42.227 Y67.471 E93.42875
G0 F4320 X42.227 Y66.976
G1 F1800 X30.971 Y55.72 E94.03794
G0 F4320 X30.971 Y55.225
G1 F1800 X42.227 Y66.481 E94.64714
G0 F4320 X42.227 Y65.986
G1 F1800 X30.971 Y54.73 E95.25633
G0 F4320 X30.971 Y54.235
G1 F1800 X42.227 Y65.491 E95.86553
G0 F4320 X42.227 Y64.996
G1 F1800 X30.971 Y53.74 E96.47473
G0 F4320 X30.971 Y53.245
G1 F1800 X42.227 Y64.501 E97.08392
G0 F4320 X42.227 Y64.006
G1 F1800 X30.971 Y52.75 E97.69312
G0 F4320 X30.971 Y52.255
G1 F1800 X42.227 Y63.511 E98.30231
G0 F4320 X42.227 Y63.016
G1 F1800 X30.971 Y51.76 E98.91151
G0 F4320 X30.971 Y51.265
G1 F1800 X42.227 Y62.521 E99.5207
G0 F4320 X42.227 Y62.026
G1 F1800 X30.971 Y50.77 E100.1299
G0 F4320 X30.971 Y50.275
G1 F1800 X42.227 Y61.531 E100.7391
G0 F4320 X42.227 Y61.036
G1 F1800 X30.971 Y49.781 E101.34826
G0 F4320 X30.971 Y49.286
G1 F1800 X42.227 Y60.541 E101.95743
G0 F4320 X42.227 Y60.046
G1 F1800 X30.971 Y48.791 E102.5666
G0 F4320 X30.971 Y48.296
G1 F1800 X42.227 Y59.551 E103.17577
G0 F4320 X42.227 Y59.056
G1 F1800 X30.971 Y47.801 E103.78494
G0 F4320 X30.971 Y47.306
G1 F1800 X42.227 Y58.561 E104.39411
G0 F4320 X42.227 Y58.066
G1 F1800 X30.971 Y46.811 E105.00328
G0 F4320 X30.971 Y46.316
G1 F1800 X42.227 Y57.571 E105.61245
G0 F4320 X42.227 Y57.076
G1 F1800 X30.971 Y45.821 E106.22161
G0 F4320 X30.971 Y45.326
G1 F1800 X42.227 Y56.581 E106.83078
G0 F4320 X42.227 Y56.087
G1 F1800 X30.971 Y44.831 E107.43998
G0 F4320 X30.971 Y44.336
G1 F1800 X42.227 Y55.592 E108.04917
G0 F4320 X42.227 Y55.097
G1 F1800 X30.971 Y43.841 E108.65837
G0 F4320 X30.971 Y43.346
G1 F1800 X42.227 Y54.602 E109.26757
G0 F4320 X42.227 Y54.107
G1 F1800 X30.971 Y42.851 E109.87676
G0 F4320 X30.971 Y42.356
G1 F1800 X42.227 Y53.612 E110.48596
G0 F4320 X42.338 Y53.227
G1 F1800 X30.971 Y41.861 E111.10113
G0 F4320 X30.971 Y41.366
G1 F1800 X42.832 Y53.227 E111.74307
G0 F4320 X43.327 Y53.227
G1 F1800 X31.392 Y41.291 E112.38905
G0 F4320 X31.886 Y41.291
G1 F1800 X43.822 Y53.227 E113.03504
G0 F4320 X44.317 Y53.227
G1 F1800 X32.381 Y41.291 E113.68104
G0 F4320 X32.876 Y41.291
G1 F1800 X44.812 Y53.227 E114.32704
G0 F4320 X45.307 Y53.227
G1 F1800 X33.371 Y41.291 E114.97304
G0 F4320 X33.866 Y41.291
G1 F1800 X45.802 Y53.227 E115.61904
G0 F4320 X46.297 Y53.227
G1 F1800 X34.361 Y41.291 E116.26504
G0 F4320 X34.856 Y41.291
G1 F1800 X46.792 Y53.227 E116.91104
G0 F4320 X47.287 Y53.227
G1 F1800 X35.351 Y41.291 E117.55703
G0 F4320 X35.846 Y41.291
G1 F1800 X47.782 Y53.227 E118.20303
G0 F4320 X48.277 Y53.227
G1 F1800 X35.971 Y40.921 E118.86906
G0 F4320 X35.971 Y40.426
G1 F1800 X48.772 Y53.227 E119.56187
G0 F4320 X49.267 Y53.227
G1 F1800 X35.971 Y39.931 E120.28148
G0 F4320 X35.971 Y39.436
G1 F1800 X49.762 Y53.227 E121.02787
G0 F4320 X50.257 Y53.227
G1 F1800 X35.971 Y38.941 E121.80106
G0 F4320 X35.971 Y38.446
G1 F1800 X50.752 Y53.227 E122.60103
G0 F4320 X51.247 Y53.227
G1 F1800 X35.971 Y37.951 E123.4278
G0 F4320 X35.971 Y37.456
G1 F1800 X51.742 Y53.227 E124.28135
G0 F4320 X52.237 Y53.227
G1 F1800 X35.971 Y36.961 E125.1617
G0 F4320 X35.971 Y36.466
G1 F1800 X52.732 Y53.227 E126.06884
G0 F4320 X53.227 Y53.227
G1 F1800 X35.971 Y35.971 E127.00276
G0 F4320 X36.466 Y35.971
G1 F1800 X53.722 Y53.227 E127.93669
G0 F4320 X54.217 Y53.227
G1 F1800 X36.961 Y35.971 E128.87062
G0 F4320 X37.456 Y35.971
G1 F1800 X54.712 Y53.227 E129.80454
G0 F4320 X55.207 Y53.227
G1 F1800 X37.951 Y35.971 E130.73847
G0 F4320 X38.446 Y35.971
G1 F1800 X55.702 Y53.227 E131.6724
G0 F4320 X56.197 Y53.227
G1 F1800 X38.941 Y35.971 E132.60632
G0 F4320 X39.436 Y35.971
