;FLAVOR:Marlin
;TIME:874
;Filament used: 0.685783m
;Layer height: 0.2625
;MINX:19.35
;MINY:10.649
;MINZ:0.263
;MAXX:69.5
;MAXY:65.799
;MAXZ:1.841
;Generated with Cura_SteamEngine 4.2.1
M140 S70
M105
M190 S70
M104 S235
M105
M109 S235
M82 ;absolute extrusion mode
G21;(metric values)
G90;(absolute positioning)
M82;(set extruder to absolute mode)
M107;(start with the fan off)
G28;(Home the printer)
G92 E0;(Reset the extruder to 0)
G0 Z5 E5 F500;(Move up and prime the nozzle)
G0 X-1 Z0;(Move outside the printable area)
G1 Y60 E8 F500;(Draw a priming/wiping line to the rear)
G1 X-1;(Move a little closer to the print area)
G1 Y10 E16 F500;(draw more priming/wiping)
G1 E15 F250;(Small retract)
G92 E0;(Zero the extruder)
G92 E0
G92 E0
G1 F2400 E-4
;LAYER_COUNT:7
;LAYER:0
M107
G0 F4320 X29.706 Y13.857 Z0.263
;TYPE:SKIRT
G1 F2400 E0
G1 F1800 X29.977 Y13.281 E0.02436
G1 X30.318 Y12.743 E0.04874
G1 X30.724 Y12.252 E0.07312
G1 X31.188 Y11.816 E0.09749
G1 X31.703 Y11.441 E0.12187
G1 X32.26 Y11.134 E0.14621
G1 X32.852 Y10.899 E0.17058
G1 X33.469 Y10.74 E0.19497
G1 X34.101 Y10.659 E0.21935
G1 X34.425 Y10.649 E0.23176
G1 X54.425 Y10.649 E0.99716
G1 X55.061 Y10.689 E1.02154
G1 X55.686 Y10.808 E1.04589
G1 X56.292 Y11.005 E1.07028
G1 X56.868 Y11.276 E1.09464
G1 X57.406 Y11.617 E1.11902
G1 X57.897 Y12.023 E1.1434
G1 X58.333 Y12.487 E1.16776
G1 X58.708 Y13.002 E1.19215
G1 X59.015 Y13.559 E1.21648
G1 X59.25 Y14.151 E1.24086
G1 X59.409 Y14.768 E1.26524
G1 X59.49 Y15.4 E1.28963
G1 X59.5 Y15.724 E1.30203
G1 X59.5 Y16.649 E1.33743
G1 X64.425 Y16.649 E1.52591
G1 X65.061 Y16.689 E1.5503
G1 X65.686 Y16.808 E1.57465
G1 X66.292 Y17.005 E1.59904
G1 X66.868 Y17.276 E1.6234
G1 X67.406 Y17.617 E1.64777
G1 X67.897 Y18.023 E1.67216
G1 X68.333 Y18.487 E1.69652
G1 X68.708 Y19.002 E1.7209
G1 X69.015 Y19.559 E1.74524
G1 X69.25 Y20.151 E1.76962
G1 X69.409 Y20.768 E1.794
G1 X69.49 Y21.4 E1.81839
G1 X69.5 Y21.724 E1.83079
G1 X69.5 Y36.724 E2.40484
G1 X69.46 Y37.36 E2.42923
G1 X69.341 Y37.985 E2.45358
G1 X69.144 Y38.591 E2.47796
G1 X68.873 Y39.167 E2.50233
G1 X68.532 Y39.705 E2.5267
G1 X68.126 Y40.196 E2.55108
G1 X67.662 Y40.632 E2.57545
G1 X67.147 Y41.007 E2.59983
G1 X66.59 Y41.314 E2.62417
G1 X65.998 Y41.549 E2.64855
G1 X65.381 Y41.708 E2.67293
G1 X64.749 Y41.789 E2.69732
G1 X64.425 Y41.799 E2.70972
G1 X57.626 Y41.799 E2.96992
G1 X57.897 Y42.023 E2.98337
G1 X58.333 Y42.487 E3.00774
G1 X58.708 Y43.002 E3.03212
G1 X59.015 Y43.559 E3.05646
G1 X59.25 Y44.151 E3.08084
G1 X59.409 Y44.768 E3.10522
G1 X59.49 Y45.4 E3.1296
G1 X59.5 Y45.724 E3.14201
G1 X59.5 Y60.724 E3.71606
G1 X59.46 Y61.36 E3.74045
G1 X59.341 Y61.985 E3.76479
G1 X59.144 Y62.591 E3.78918
G1 X58.873 Y63.167 E3.81354
G1 X58.532 Y63.705 E3.83792
G1 X58.126 Y64.196 E3.8623
G1 X57.662 Y64.632 E3.88667
G1 X57.147 Y65.007 E3.91105
G1 X56.59 Y65.314 E3.93539
G1 X55.998 Y65.549 E3.95976
G1 X55.381 Y65.708 E3.98415
G1 X54.749 Y65.789 E4.00853
G1 X54.425 Y65.799 E4.02094
G1 X44.426 Y65.799 E4.4036
G1 X43.79 Y65.759 E4.42799
G1 X43.165 Y65.64 E4.45233
G1 X42.559 Y65.443 E4.47672
G1 X41.98 Y65.171 E4.5012
G1 X21.979 Y54.17 E5.37478
G1 X21.442 Y53.828 E5.39915
G1 X20.951 Y53.422 E5.42353
G1 X20.515 Y52.958 E5.4479
G1 X20.14 Y52.443 E5.47228
G1 X19.834 Y51.885 E5.49663
G1 X19.599 Y51.293 E5.52101
G1 X19.44 Y50.676 E5.54539
G1 X19.36 Y50.044 E5.56977
G1 X19.35 Y49.723 E5.58206
G1 X19.35 Y39.724 E5.96472
G1 X19.39 Y39.088 E5.98911
G1 X19.509 Y38.463 E6.01346
G1 X19.706 Y37.857 E6.03784
G1 X19.977 Y37.281 E6.06221
G1 X20.318 Y36.743 E6.08658
G1 X20.724 Y36.252 E6.11097
G1 X21.188 Y35.816 E6.13533
G1 X21.703 Y35.441 E6.15971
G1 X22.26 Y35.134 E6.18405
G1 X22.852 Y34.899 E6.20843
G1 X23.469 Y34.74 E6.23281
G1 X24.101 Y34.659 E6.2572
G1 X24.425 Y34.649 E6.2696
G1 X40.122 Y34.649 E6.87032
G1 X31.979 Y30.17 E7.22599
G1 X31.442 Y29.828 E7.25035
G1 X30.951 Y29.422 E7.27473
G1 X30.515 Y28.958 E7.2991
G1 X30.14 Y28.443 E7.32348
G1 X29.834 Y27.885 E7.34784
G1 X29.599 Y27.293 E7.37221
G1 X29.44 Y26.676 E7.3966
G1 X29.36 Y26.044 E7.42098
G1 X29.35 Y25.723 E7.43327
G1 X29.35 Y15.724 E7.81593
G1 X29.39 Y15.088 E7.84032
G1 X29.499 Y14.519 E7.86249
G0 F1620 X29.509 Y14.463
G0 X29.706 Y13.857
G0 F4320 X30.056 Y13.926
G1 F2400 E7.88905
G1 F1800 X30.326 Y13.374 E7.91256
G1 X30.666 Y12.862 E7.93608
G1 X31.069 Y12.398 E7.9596
G1 X31.529 Y11.991 E7.98311
G1 X32.038 Y11.646 E8.00664
G1 X32.587 Y11.371 E8.03014
G1 X33.168 Y11.169 E8.05368
G1 X33.769 Y11.045 E8.07717
G1 X34.425 Y10.999 E8.10233
G1 X54.425 Y10.999 E8.86773
G1 X55.038 Y11.039 E8.89124
G1 X55.641 Y11.158 E8.91476
G1 X56.223 Y11.355 E8.93828
G1 X56.775 Y11.625 E8.96179
G1 X57.287 Y11.965 E8.98531
G1 X57.751 Y12.368 E9.00883
G1 X58.158 Y12.828 E9.03234
G1 X58.503 Y13.337 E9.05587
G1 X58.778 Y13.886 E9.07937
G1 X58.98 Y14.467 E9.10291
G1 X59.104 Y15.068 E9.1264
G1 X59.15 Y15.724 E9.15156
G1 X59.15 Y16.999 E9.20036
G1 X64.425 Y16.999 E9.40223
G1 X65.038 Y17.039 E9.42574
G1 X65.641 Y17.158 E9.44926
G1 X66.223 Y17.355 E9.47278
G1 X66.775 Y17.625 E9.49629
G1 X67.287 Y17.965 E9.51981
G1 X67.751 Y18.368 E9.54333
G1 X68.158 Y18.828 E9.56684
G1 X68.503 Y19.337 E9.59037
G1 X68.778 Y19.886 E9.61387
G1 X68.98 Y20.467 E9.63741
G1 X69.104 Y21.068 E9.6609
G1 X69.15 Y21.724 E9.68606
G1 X69.15 Y36.724 E10.26011
G1 X69.11 Y37.337 E10.28362
G1 X68.991 Y37.94 E10.30714
G1 X68.794 Y38.522 E10.33066
G1 X68.524 Y39.074 E10.35417
G1 X68.184 Y39.586 E10.3777
G1 X67.781 Y40.05 E10.40122
G1 X67.321 Y40.457 E10.42472
G1 X66.812 Y40.802 E10.44825
G1 X66.263 Y41.077 E10.47175
G1 X65.682 Y41.279 E10.49529
G1 X65.081 Y41.403 E10.51878
G1 X64.425 Y41.449 E10.54394
G1 X56.415 Y41.449 E10.85049
G1 X56.775 Y41.625 E10.86582
G1 X57.287 Y41.965 E10.88934
G1 X57.751 Y42.368 E10.91286
G1 X58.158 Y42.828 E10.93637
G1 X58.503 Y43.337 E10.9599
G1 X58.778 Y43.886 E10.9834
G1 X58.98 Y44.467 E11.00694
G1 X59.104 Y45.068 E11.03042
G1 X59.15 Y45.724 E11.05559
G1 X59.15 Y60.724 E11.62964
G1 X59.11 Y61.337 E11.65315
G1 X58.991 Y61.94 E11.67667
G1 X58.794 Y62.522 E11.70019
G1 X58.524 Y63.074 E11.7237
G1 X58.184 Y63.586 E11.74722
G1 X57.781 Y64.05 E11.77074
G1 X57.321 Y64.457 E11.79425
G1 X56.812 Y64.802 E11.81778
G1 X56.263 Y65.077 E11.84128
G1 X55.682 Y65.279 E11.86482
G1 X55.081 Y65.403 E11.8883
G1 X54.425 Y65.449 E11.91347
G1 X44.426 Y65.449 E12.29613
G1 X43.813 Y65.409 E12.31964
G1 X43.21 Y65.29 E12.34316
G1 X42.628 Y65.093 E12.36668
G1 X42.149 Y64.864 E12.387
G1 X22.148 Y53.863 E13.26058
G1 X21.63 Y53.533 E13.28408
G1 X21.159 Y53.138 E13.30761
G1 X20.744 Y52.685 E13.33112
G1 X20.39 Y52.182 E13.35466
G1 X20.105 Y51.638 E13.37816
G1 X19.893 Y51.061 E13.40168
G1 X19.758 Y50.461 E13.42522
G1 X19.7 Y49.723 E13.45355
G1 X19.7 Y39.724 E13.83621
G1 X19.74 Y39.111 E13.85972
G1 X19.859 Y38.508 E13.88324
G1 X20.056 Y37.926 E13.90676
G1 X20.326 Y37.374 E13.93027
G1 X20.666 Y36.862 E13.9538
G1 X21.069 Y36.398 E13.97732
G1 X21.529 Y35.991 E14.00082
G1 X22.038 Y35.646 E14.02435
G1 X22.587 Y35.371 E14.04785
G1 X23.168 Y35.169 E14.07139
G1 X23.769 Y35.045 E14.09488
G1 X24.425 Y34.999 E14.12004
G1 X41.486 Y34.999 E14.77297
G1 X32.148 Y29.863 E15.18082
G1 X31.63 Y29.533 E15.20432
G1 X31.159 Y29.138 E15.22785
G1 X30.744 Y28.685 E15.25136
G1 X30.39 Y28.182 E15.2749
G1 X30.105 Y27.638 E15.2984
G1 X29.893 Y27.061 E15.32193
G1 X29.758 Y26.461 E15.34546
G1 X29.7 Y25.723 E15.37379
G1 X29.7 Y15.724 E15.75645
G1 X29.74 Y15.111 E15.77996
G1 X29.844 Y14.586 E15.80045
G0 F1620 X29.859 Y14.508
G0 X30.056 Y13.926
G0 F4320 X30.405 Y13.997
G1 F2400 E15.82701
G1 F1800 X30.675 Y13.471 E15.84963
G1 X31.013 Y12.986 E15.87226
G1 X31.413 Y12.551 E15.89487
G1 X31.869 Y12.174 E15.91751
G1 X32.371 Y11.861 E15.94015
G1 X32.91 Y11.62 E15.96275
G1 X33.478 Y11.453 E15.98541
G1 X34.062 Y11.364 E16.00802
G1 X34.425 Y11.349 E16.02192
G1 X54.425 Y11.349 E16.78732
G1 X55.015 Y11.389 E16.80995
G1 X55.594 Y11.508 E16.83257
G1 X56.152 Y11.704 E16.8552
G1 X56.678 Y11.974 E16.87783
G1 X57.163 Y12.312 E16.90045
G1 X57.598 Y12.712 E16.92307
G1 X57.975 Y13.168 E16.94571
G1 X58.288 Y13.67 E16.96835
G1 X58.529 Y14.209 E16.99095
G1 X58.696 Y14.777 E17.01361
G1 X58.785 Y15.361 E17.03621
G1 X58.8 Y15.724 E17.05012
G1 X58.8 Y17.349 E17.11231
G1 X64.425 Y17.349 E17.32758
G1 X65.015 Y17.389 E17.35021
G1 X65.594 Y17.508 E17.37283
G1 X66.152 Y17.704 E17.39546
G1 X66.678 Y17.974 E17.41809
G1 X67.163 Y18.312 E17.44071
G1 X67.598 Y18.712 E17.46333
G1 X67.975 Y19.168 E17.48597
G1 X68.288 Y19.67 E17.50861
G1 X68.529 Y20.209 E17.53121
G1 X68.696 Y20.777 E17.55386
G1 X68.785 Y21.361 E17.57647
G1 X68.8 Y21.724 E17.59038
G1 X68.8 Y36.724 E18.16442
G1 X68.76 Y37.314 E18.18706
G1 X68.641 Y37.893 E18.20968
G1 X68.445 Y38.451 E18.23231
G1 X68.175 Y38.977 E18.25494
G1 X67.837 Y39.462 E18.27756
G1 X67.437 Y39.897 E18.30018
G1 X66.981 Y40.274 E18.32282
G1 X66.479 Y40.587 E18.34546
G1 X65.94 Y40.828 E18.36806
G1 X65.372 Y40.995 E18.39071
G1 X64.788 Y41.084 E18.41332
G1 X64.425 Y41.099 E18.42722
G1 X54.426 Y41.099 E18.80989
G1 X53.836 Y41.059 E18.83252
G1 X53.257 Y40.94 E18.85514
G1 X52.699 Y40.744 E18.87777
G1 X52.318 Y40.557 E18.89401
G1 X48.622 Y38.524 E19.05545
G1 X48.696 Y38.777 E19.06553
G1 X48.785 Y39.361 E19.08814
G1 X48.8 Y39.724 E19.10205
G1 X48.8 Y41.349 E19.16423
G1 X54.425 Y41.349 E19.3795
G1 X55.015 Y41.389 E19.40213
G1 X55.594 Y41.508 E19.42475
G1 X56.152 Y41.704 E19.44739
G1 X56.678 Y41.974 E19.47002
G1 X57.163 Y42.312 E19.49264
G1 X57.598 Y42.712 E19.51525
G1 X57.975 Y43.168 E19.5379
G1 X58.288 Y43.67 E19.56054
G1 X58.529 Y44.209 E19.58313
G1 X58.696 Y44.777 E19.60579
G1 X58.785 Y45.361 E19.6284
G1 X58.8 Y45.724 E19.6423
G1 X58.8 Y60.724 E20.21635
G1 X58.76 Y61.314 E20.23898
G1 X58.641 Y61.893 E20.2616
G1 X58.445 Y62.451 E20.28424
G1 X58.175 Y62.977 E20.30686
G1 X57.837 Y63.462 E20.32949
G1 X57.437 Y63.897 E20.3521
G1 X56.981 Y64.274 E20.37475
G1 X56.479 Y64.587 E20.39739
G1 X55.94 Y64.828 E20.41998
G1 X55.372 Y64.995 E20.44264
G1 X54.788 Y65.084 E20.46525
G1 X54.425 Y65.099 E20.47915
G1 X44.426 Y65.099 E20.86181
G1 X43.836 Y65.059 E20.88444
G1 X43.257 Y64.94 E20.90707
G1 X42.699 Y64.744 E20.9297
G1 X42.318 Y64.557 E20.94594
G1 X22.317 Y53.556 E21.81952
G1 X21.819 Y53.237 E21.84215
G1 X21.369 Y52.854 E21.86477
G1 X20.975 Y52.413 E21.8874
G1 X20.643 Y51.923 E21.91005
G1 X20.381 Y51.393 E21.93268
G1 X20.193 Y50.833 E21.95528
G1 X20.082 Y50.252 E21.97792
G1 X20.05 Y49.723 E21.9982
G1 X20.05 Y39.724 E22.38086
G1 X20.09 Y39.134 E22.4035
G1 X20.209 Y38.555 E22.42612
G1 X20.405 Y37.997 E22.44875
G1 X20.675 Y37.471 E22.47138
G1 X21.013 Y36.986 E22.494
G1 X21.413 Y36.551 E22.51662
G1 X21.869 Y36.174 E22.53926
G1 X22.371 Y35.861 E22.5619
G1 X22.91 Y35.62 E22.5845
G1 X23.478 Y35.453 E22.60715
G1 X24.062 Y35.364 E22.62976
G1 X24.425 Y35.349 E22.64366
G1 X42.849 Y35.349 E23.34875
G1 X32.317 Y29.556 E23.80876
G1 X31.819 Y29.237 E23.83139
G1 X31.369 Y28.854 E23.854
G1 X30.975 Y28.413 E23.87664
G1 X30.643 Y27.923 E23.89929
G1 X30.381 Y27.393 E23.92191
G1 X30.193 Y26.833 E23.94452
G1 X30.082 Y26.252 E23.96716
G1 X30.05 Y25.723 E23.98744
G1 X30.05 Y15.724 E24.3701
G1 X30.09 Y15.134 E24.39273
G1 X30.189 Y14.655 E24.41145
G0 F1620 X30.209 Y14.555
G0 X30.405 Y13.997
G0 F4320 X30.755 Y14.072
G1 F2400 E24.43801
G1 F1800 X31.023 Y13.572 E24.45972
G1 X31.36 Y13.116 E24.48142
G1 X31.757 Y12.711 E24.50312
G1 X32.207 Y12.365 E24.52485
G1 X32.701 Y12.087 E24.54654
G1 X33.229 Y11.881 E24.56823
G1 X33.781 Y11.751 E24.58993
G1 X34.425 Y11.699 E24.61466
G1 X54.425 Y11.699 E25.38006
G1 X54.991 Y11.739 E25.40177
G1 X55.545 Y11.858 E25.42346
G1 X56.077 Y12.054 E25.44516
G1 X56.577 Y12.322 E25.46687
G1 X57.033 Y12.659 E25.48857
G1 X57.438 Y13.056 E25.51027
G1 X57.784 Y13.506 E25.53199
G1 X58.062 Y14 E25.55369
G1 X58.268 Y14.528 E25.57538
G1 X58.398 Y15.08 E25.59708
G1 X58.45 Y15.724 E25.6218
G1 X58.45 Y17.699 E25.69739
G1 X64.425 Y17.699 E25.92605
G1 X64.991 Y17.739 E25.94777
G1 X65.545 Y17.858 E25.96945
G1 X66.077 Y18.054 E25.99115
G1 X66.577 Y18.322 E26.01286
G1 X67.033 Y18.659 E26.03456
G1 X67.438 Y19.056 E26.05626
G1 X67.784 Y19.506 E26.07799
G1 X68.062 Y20 E26.09968
G1 X68.268 Y20.528 E26.12137
G1 X68.398 Y21.08 E26.14307
G1 X68.45 Y21.724 E26.1678
G1 X68.45 Y36.724 E26.74185
G1 X68.41 Y37.29 E26.76356
G1 X68.291 Y37.844 E26.78525
G1 X68.095 Y38.376 E26.80694
G1 X67.827 Y38.876 E26.82865
G1 X67.49 Y39.332 E26.85035
G1 X67.093 Y39.737 E26.87206
G1 X66.643 Y40.083 E26.89378
G1 X66.149 Y40.361 E26.91548
G1 X65.621 Y40.567 E26.93717
G1 X65.069 Y40.697 E26.95887
G1 X64.425 Y40.749 E26.98359
G1 X54.426 Y40.749 E27.36626
G1 X53.86 Y40.709 E27.38797
G1 X53.306 Y40.59 E27.40966
G1 X52.774 Y40.394 E27.43135
G1 X52.486 Y40.251 E27.44366
G1 X47.913 Y37.736 E27.64339
G1 X48.062 Y38 E27.65499
G1 X48.268 Y38.528 E27.67668
G1 X48.398 Y39.08 E27.69838
G1 X48.45 Y39.724 E27.72311
G1 X48.45 Y41.699 E27.79869
G1 X54.425 Y41.699 E28.02735
G1 X54.991 Y41.739 E28.04907
G1 X55.545 Y41.858 E28.07075
G1 X56.077 Y42.054 E28.09245
G1 X56.577 Y42.322 E28.11416
G1 X57.033 Y42.659 E28.13586
G1 X57.438 Y43.056 E28.15757
G1 X57.784 Y43.506 E28.17929
G1 X58.062 Y44 E28.20098
G1 X58.268 Y44.528 E28.22267
G1 X58.398 Y45.08 E28.24438
G1 X58.45 Y45.724 E28.2691
G1 X58.45 Y60.724 E28.84315
G1 X58.41 Y61.29 E28.86487
G1 X58.291 Y61.844 E28.88655
G1 X58.095 Y62.376 E28.90825
G1 X57.827 Y62.876 E28.92996
G1 X57.49 Y63.332 E28.95166
G1 X57.093 Y63.737 E28.97336
G1 X56.643 Y64.083 E28.99509
G1 X56.149 Y64.361 E29.01678
G1 X55.621 Y64.567 E29.03847
G1 X55.069 Y64.697 E29.06017
G1 X54.425 Y64.749 E29.0849
G1 X44.426 Y64.749 E29.46756
G1 X43.86 Y64.709 E29.48927
G1 X43.306 Y64.59 E29.51096
G1 X42.774 Y64.394 E29.53266
G1 X42.486 Y64.251 E29.54496
G1 X22.485 Y53.25 E30.41854
G1 X22.009 Y52.942 E30.44024
G1 X21.58 Y52.571 E30.46194
G1 X21.208 Y52.143 E30.48365
G1 X20.9 Y51.666 E30.50538
G1 X20.662 Y51.152 E30.52705
G1 X20.499 Y50.609 E30.54875
G1 X20.413 Y50.048 E30.57047
G1 X20.4 Y49.723 E30.58292
G1 X20.4 Y39.724 E30.96558
G1 X20.44 Y39.158 E30.98729
G1 X20.559 Y38.604 E31.00898
G1 X20.755 Y38.072 E31.03068
G1 X21.023 Y37.572 E31.05239
G1 X21.36 Y37.116 E31.07409
G1 X21.757 Y36.711 E31.09579
G1 X22.207 Y36.365 E31.11751
G1 X22.701 Y36.087 E31.13921
G1 X23.229 Y35.881 E31.1609
G1 X23.781 Y35.751 E31.1826
G1 X24.425 Y35.699 E31.20733
G1 X44.21 Y35.699 E31.9645
G1 X32.485 Y29.25 E32.47661
G1 X32.009 Y28.942 E32.4983
G1 X31.58 Y28.571 E32.52001
G1 X31.208 Y28.143 E32.54171
G1 X30.9 Y27.666 E32.56344
G1 X30.662 Y27.152 E32.58512
G1 X30.499 Y26.609 E32.60681
G1 X30.413 Y26.048 E32.62854
G1 X30.4 Y25.723 E32.64098
G1 X30.4 Y15.724 E33.02364
G1 X30.44 Y15.158 E33.04536
G1 X30.533 Y14.729 E33.06216
G0 F1620 X30.559 Y14.604
G0 X30.755 Y14.072
G0 F4320 X31.104 Y14.15
G1 F2400 E33.08872
G1 F1800 X31.372 Y13.678 E33.10949
G1 X31.706 Y13.252 E33.13021
G1 X32.099 Y12.879 E33.15094
G1 X32.543 Y12.568 E33.17169
G1 X33.027 Y12.325 E33.19241
G1 X33.542 Y12.157 E33.21314
G1 X34.076 Y12.066 E33.23388
G1 X34.425 Y12.049 E33.24725
G1 X54.425 Y12.049 E34.01265
G1 X54.965 Y12.089 E34.03337
G1 X55.494 Y12.208 E34.05412
G1 X55.999 Y12.403 E34.07484
G1 X56.471 Y12.671 E34.09561
G1 X56.897 Y13.005 E34.11632
G1 X57.27 Y13.398 E34.13706
G1 X57.581 Y13.842 E34.15781
G1 X57.824 Y14.326 E34.17853
G1 X57.992 Y14.841 E34.19926
G1 X58.083 Y15.375 E34.21999
G1 X58.1 Y15.724 E34.23337
G1 X58.1 Y18.049 E34.32234
G1 X64.425 Y18.049 E34.5644
G1 X64.965 Y18.089 E34.58512
G1 X65.494 Y18.208 E34.60587
G1 X65.999 Y18.403 E34.62659
G1 X66.471 Y18.671 E34.64736
G1 X66.897 Y19.005 E34.66808
G1 X67.27 Y19.398 E34.68882
G1 X67.581 Y19.842 E34.70956
G1 X67.824 Y20.326 E34.73029
G1 X67.992 Y20.841 E34.75102
G1 X68.083 Y21.375 E34.77175
G1 X68.1 Y21.724 E34.78512
G1 X68.1 Y36.724 E35.35917
G1 X68.06 Y37.264 E35.37989
G1 X67.941 Y37.793 E35.40064
G1 X67.746 Y38.298 E35.42136
G1 X67.478 Y38.77 E35.44213
G1 X67.144 Y39.196 E35.46285
G1 X66.751 Y39.569 E35.48359
G1 X66.307 Y39.88 E35.50433
G1 X65.823 Y40.123 E35.52506
G1 X65.308 Y40.291 E35.54579
G1 X64.774 Y40.382 E35.56652
G1 X64.425 Y40.399 E35.57989
G1 X54.426 Y40.399 E35.96255
G1 X53.886 Y40.359 E35.98327
G1 X53.357 Y40.24 E36.00402
