;FLAVOR:Marlin
;TIME:3549
;Filament used: 1.31964m
;Layer height: 0.2625
;MINX:18.186
;MINY:7.597
;MINZ:0.263
;MAXX:96.508
;MAXY:86.403
;MAXZ:1.841
;Generated with Cura_SteamEngine 4.2.1
M140 S70
M105
M190 S70
M104 S245
M105
M109 S245
M82 ;absolute extrusion mode
G21;(metric values)
G90;(absolute positioning)
M82;(set extruder to absolute mode)
M107;(start with the fan off)
G28;(Home the printer)
G92 E0;(Reset the extruder to 0)
G0 Z5 E5 F500;(Move up and prime the nozzle)
G0 X-1 Z0;(Move outside the printable area)
G1 Y60 E8 F500;(Draw a priming/wiping line to the rear)
G1 X-1;(Move a little closer to the print area)
G1 Y10 E16 F500;(draw more priming/wiping)
G1 E15 F250;(Small retract)
G92 E0;(Zero the extruder)
G92 E0
G92 E0
G1 F2040 E-4
;LAYER_COUNT:7
;LAYER:0
M107
G0 F4320 X26.117 Y31.826 Z0.263
;TYPE:SKIRT
G1 F2040 E0
G1 F720 X36.214 Y24.244 E0.48323
G1 X36.482 Y24.055 E0.49578
G1 X37.989 Y23.069 E0.5647
G1 X38.517 Y22.767 E0.58798
G1 X40.247 Y21.911 E0.66184
G1 X40.857 Y21.658 E0.68712
G1 X42.68 Y21.035 E0.76084
G1 X43.303 Y20.865 E0.78556
G1 X45.194 Y20.478 E0.85943
G1 X45.843 Y20.388 E0.8845
G1 X47.765 Y20.248 E0.95825
G1 X48.125 Y20.235 E0.97204
G1 X53.252 Y20.226 E1.16825
G1 X53.888 Y20.265 E1.19263
G1 X54.514 Y20.383 E1.21701
G1 X55.12 Y20.579 E1.24139
G1 X55.696 Y20.849 E1.26573
G1 X56.235 Y21.189 E1.29012
G1 X56.727 Y21.594 E1.31451
G1 X57.164 Y22.057 E1.33887
G1 X57.539 Y22.571 E1.36322
G1 X57.847 Y23.128 E1.38758
G1 X58.083 Y23.72 E1.41197
G1 X58.243 Y24.336 E1.43633
G1 X58.325 Y24.968 E1.46072
G1 X58.336 Y25.301 E1.47347
G1 X58.336 Y29.924 E1.65039
G1 X61.922 Y29.924 E1.78763
G1 X61.922 Y12.672 E2.44786
G1 X61.962 Y12.036 E2.47225
G1 X62.081 Y11.411 E2.49659
G1 X62.278 Y10.805 E2.52098
G1 X62.549 Y10.229 E2.54534
G1 X62.89 Y9.691 E2.56972
G1 X63.296 Y9.2 E2.5941
G1 X63.76 Y8.764 E2.61847
G1 X64.275 Y8.389 E2.64285
G1 X64.832 Y8.082 E2.66719
G1 X65.424 Y7.847 E2.69156
G1 X66.041 Y7.688 E2.71595
G1 X66.673 Y7.607 E2.74033
G1 X66.997 Y7.597 E2.75274
G1 X68.932 Y7.597 E2.82679
G1 X69.318 Y7.612 E2.84157
G1 X71.602 Y7.786 E2.92923
G1 X72.384 Y7.907 E2.95952
G1 X74.359 Y8.374 E3.03719
G1 X74.493 Y8.408 E3.04248
G1 X74.896 Y8.515 E3.05843
G1 X75.505 Y8.718 E3.083
G1 X77.513 Y9.534 E3.16595
G1 X78.202 Y9.878 E3.19542
G1 X80.165 Y11.049 E3.2829
G1 X80.798 Y11.495 E3.31253
G1 X82.562 Y12.953 E3.40011
G1 X83.121 Y13.492 E3.42983
G1 X84.642 Y15.202 E3.51741
G1 X84.908 Y15.528 E3.53352
G1 X92.49 Y25.625 E4.01674
G1 X92.678 Y25.892 E4.02924
G1 X93.664 Y27.398 E4.09813
G1 X93.967 Y27.927 E4.12146
G1 X94.822 Y29.655 E4.19524
G1 X95.075 Y30.264 E4.22048
G1 X95.699 Y32.089 E4.29429
G1 X95.869 Y32.714 E4.31908
G1 X96.256 Y34.606 E4.39299
G1 X96.346 Y35.254 E4.41802
G1 X96.486 Y37.175 E4.49173
G1 X96.499 Y37.535 E4.50552
G1 X96.508 Y42.663 E4.70177
G1 X96.469 Y43.299 E4.72615
G1 X96.351 Y43.925 E4.75053
G1 X96.155 Y44.531 E4.77491
G1 X95.885 Y45.107 E4.79925
G1 X95.545 Y45.646 E4.82364
G1 X95.14 Y46.138 E4.84803
G1 X94.677 Y46.575 E4.87239
G1 X94.163 Y46.95 E4.89674
G1 X93.606 Y47.258 E4.9211
G1 X93.014 Y47.494 E4.94549
G1 X92.398 Y47.654 E4.96985
G1 X91.766 Y47.736 E4.99424
G1 X91.433 Y47.747 E5.00699
G1 X76.448 Y47.747 E5.58046
G1 X76.198 Y48.166 E5.59913
G1 X75.751 Y48.8 E5.62882
G1 X74.293 Y50.564 E5.7164
G1 X73.754 Y51.123 E5.74612
G1 X72.044 Y52.644 E5.83371
G1 X71.718 Y52.91 E5.84981
G1 X61.621 Y60.492 E6.33304
G1 X61.354 Y60.68 E6.34553
G1 X59.848 Y61.666 E6.41442
G1 X59.318 Y61.969 E6.43778
G1 X57.587 Y62.825 E6.51169
G1 X57.372 Y62.914 E6.52059
G1 X57.373 Y65.829 E6.63215
G1 X57.373 Y65.83 E6.63219
G1 X57.372 Y81.328 E7.22529
G1 X57.332 Y81.964 E7.24968
G1 X57.213 Y82.59 E7.27407
G1 X57.016 Y83.195 E7.29842
G1 X56.745 Y83.772 E7.32281
G1 X56.404 Y84.309 E7.34716
G1 X55.998 Y84.8 E7.37154
G1 X55.534 Y85.237 E7.39593
G1 X55.019 Y85.611 E7.42029
G1 X54.461 Y85.918 E7.44467
G1 X53.869 Y86.153 E7.46904
G1 X53.253 Y86.312 E7.49339
G1 X52.621 Y86.393 E7.51777
G1 X52.297 Y86.403 E7.53018
G1 X50.362 Y86.403 E7.60423
G1 X49.974 Y86.388 E7.61909
G1 X47.69 Y86.213 E7.70675
G1 X46.913 Y86.092 E7.73685
G1 X44.938 Y85.626 E7.81451
G1 X44.801 Y85.592 E7.81991
G1 X44.398 Y85.485 E7.83587
G1 X43.787 Y85.281 E7.86052
G1 X41.779 Y84.464 E7.94348
G1 X41.093 Y84.122 E7.97282
G1 X39.129 Y82.951 E8.06032
G1 X38.495 Y82.504 E8.09001
G1 X36.73 Y81.045 E8.17765
G1 X36.171 Y80.506 E8.20737
G1 X34.651 Y78.797 E8.2949
G1 X34.385 Y78.471 E8.311
G1 X26.803 Y68.374 E8.79422
G1 X26.613 Y68.104 E8.80686
G1 X25.627 Y66.596 E8.87581
G1 X25.326 Y66.07 E8.899
G1 X24.471 Y64.342 E8.97279
G1 X24.218 Y63.732 E8.99806
G1 X23.595 Y61.909 E9.07179
G1 X23.425 Y61.286 E9.0965
G1 X23.038 Y59.395 E9.17037
G1 X22.948 Y58.746 E9.19545
G1 X22.808 Y56.825 E9.26916
G1 X22.795 Y56.465 E9.28294
G1 X22.792 Y54.783 E9.34731
G1 X22.625 Y54.772 E9.35372
G1 X22 Y54.653 E9.37807
G1 X21.394 Y54.456 E9.40245
G1 X20.818 Y54.185 E9.42681
G1 X20.28 Y53.844 E9.45119
G1 X19.789 Y53.438 E9.47557
G1 X19.353 Y52.974 E9.49994
G1 X18.978 Y52.459 E9.52432
G1 X18.671 Y51.902 E9.54866
G1 X18.436 Y51.31 E9.57304
G1 X18.277 Y50.693 E9.59742
G1 X18.196 Y50.061 E9.6218
G1 X18.186 Y49.737 E9.63421
G1 X18.186 Y47.802 E9.70826
G1 X18.201 Y47.414 E9.72312
G1 X18.376 Y45.13 E9.81079
G1 X18.497 Y44.353 E9.84088
G1 X18.963 Y42.378 E9.91854
G1 X18.997 Y42.241 E9.92394
G1 X19.104 Y41.838 E9.9399
G1 X19.308 Y41.227 E9.96455
G1 X20.125 Y39.219 E10.04751
G1 X20.467 Y38.534 E10.07681
G1 X21.637 Y36.571 E10.16427
G1 X22.084 Y35.936 E10.19399
G1 X23.542 Y34.172 E10.28157
G1 X24.081 Y33.613 E10.31129
G1 X25.587 Y32.274 E10.38841
G0 F648 X25.791 Y32.092
G0 X26.117 Y31.826
G0 F4320 X26.327 Y32.106
G1 F2040 E10.41497
G1 F720 X36.424 Y24.524 E10.8982
G1 X36.674 Y24.348 E10.9099
G1 X38.181 Y23.362 E10.97882
G1 X38.673 Y23.081 E11.0005
G1 X40.403 Y22.225 E11.07437
G1 X40.97 Y21.989 E11.09787
G1 X42.793 Y21.366 E11.1716
G1 X43.374 Y21.208 E11.19464
G1 X45.265 Y20.821 E11.26851
G1 X45.869 Y20.737 E11.29185
G1 X47.791 Y20.597 E11.3656
G1 X48.126 Y20.585 E11.37843
G1 X53.253 Y20.576 E11.57464
G1 X53.866 Y20.615 E11.59814
G1 X54.469 Y20.733 E11.62166
G1 X55.052 Y20.928 E11.64518
G1 X55.604 Y21.198 E11.6687
G1 X56.117 Y21.537 E11.69223
G1 X56.581 Y21.939 E11.71573
G1 X56.989 Y22.398 E11.73923
G1 X57.334 Y22.907 E11.76276
G1 X57.611 Y23.455 E11.78626
G1 X57.813 Y24.036 E11.8098
G1 X57.939 Y24.637 E11.8333
G1 X57.986 Y25.301 E11.85878
G1 X57.986 Y30.274 E12.04909
G1 X62.272 Y30.274 E12.21312
G1 X62.272 Y12.672 E12.88675
G1 X62.312 Y12.059 E12.91025
G1 X62.431 Y11.456 E12.93378
G1 X62.628 Y10.874 E12.95729
G1 X62.898 Y10.322 E12.98081
G1 X63.238 Y9.81 E13.00433
G1 X63.641 Y9.346 E13.02785
G1 X64.101 Y8.939 E13.05135
G1 X64.61 Y8.594 E13.07489
G1 X65.159 Y8.319 E13.09839
G1 X65.74 Y8.117 E13.12193
G1 X66.341 Y7.993 E13.14541
G1 X66.997 Y7.947 E13.17058
G1 X68.932 Y7.947 E13.24463
G1 X69.291 Y7.961 E13.25838
G1 X71.575 Y8.135 E13.34604
G1 X72.303 Y8.248 E13.37423
G1 X74.278 Y8.715 E13.4519
G1 X74.404 Y8.746 E13.45687
G1 X74.807 Y8.853 E13.47282
G1 X75.373 Y9.043 E13.49567
G1 X77.381 Y9.859 E13.57862
G1 X78.023 Y10.178 E13.60606
G1 X79.986 Y11.349 E13.69353
G1 X80.575 Y11.765 E13.72113
G1 X82.339 Y13.223 E13.80871
G1 X82.859 Y13.725 E13.83637
G1 X84.38 Y15.435 E13.92396
G1 X84.628 Y15.738 E13.93894
G1 X92.21 Y25.835 E14.42217
G1 X92.385 Y26.084 E14.43381
G1 X93.371 Y27.59 E14.5027
G1 X93.653 Y28.083 E14.52444
G1 X94.508 Y29.811 E14.59822
G1 X94.744 Y30.377 E14.62169
G1 X95.368 Y32.202 E14.6955
G1 X95.526 Y32.784 E14.71858
G1 X95.913 Y34.676 E14.79249
G1 X95.997 Y35.28 E14.81582
G1 X96.137 Y37.201 E14.88954
G1 X96.149 Y37.536 E14.90236
G1 X96.158 Y42.664 E15.09861
G1 X96.119 Y43.277 E15.12212
G1 X96.001 Y43.88 E15.14563
G1 X95.806 Y44.463 E15.16916
G1 X95.536 Y45.015 E15.19268
G1 X95.197 Y45.528 E15.21621
G1 X94.795 Y45.992 E15.2397
G1 X94.336 Y46.4 E15.26321
G1 X93.827 Y46.745 E15.28674
G1 X93.279 Y47.022 E15.31024
G1 X92.698 Y47.224 E15.33378
G1 X92.097 Y47.35 E15.35728
G1 X91.433 Y47.397 E15.38275
G1 X76.433 Y47.397 E15.9568
G1 X76.256 Y47.385 E15.96359
G1 X75.897 Y47.987 E15.99042
G1 X75.481 Y48.577 E16.01804
G1 X74.023 Y50.341 E16.10563
G1 X73.521 Y50.861 E16.13329
G1 X71.811 Y52.382 E16.22087
G1 X71.508 Y52.63 E16.23585
G1 X61.411 Y60.212 E16.71908
G1 X61.162 Y60.387 E16.73073
G1 X59.656 Y61.373 E16.79962
G1 X59.162 Y61.655 E16.82139
G1 X57.431 Y62.511 E16.89529
G1 X57.022 Y62.682 E16.91225
G1 X57.023 Y65.829 E17.03269
G1 X57.023 Y65.83 E17.03273
G1 X57.022 Y81.328 E17.62584
G1 X56.982 Y81.941 E17.64934
G1 X56.863 Y82.544 E17.67287
G1 X56.666 Y83.127 E17.69642
G1 X56.396 Y83.678 E17.7199
G1 X56.056 Y84.19 E17.74342
G1 X55.653 Y84.654 E17.76694
G1 X55.193 Y85.061 E17.79045
G1 X54.684 Y85.406 E17.81398
G1 X54.135 Y85.681 E17.83748
G1 X53.554 Y85.883 E17.86102
G1 X52.952 Y86.007 E17.88454
G1 X52.297 Y86.053 E17.90967
G1 X50.362 Y86.053 E17.98372
G1 X50.001 Y86.039 E17.99755
G1 X47.717 Y85.864 E18.08521
G1 X46.993 Y85.752 E18.11325
G1 X45.018 Y85.286 E18.19091
G1 X44.89 Y85.254 E18.19596
G1 X44.487 Y85.147 E18.21191
G1 X43.919 Y84.957 E18.23483
G1 X41.911 Y84.14 E18.3178
G1 X41.272 Y83.821 E18.34513
G1 X39.308 Y82.65 E18.43264
G1 X38.718 Y82.234 E18.46027
G1 X36.953 Y80.775 E18.5479
G1 X36.432 Y80.273 E18.57559
G1 X34.912 Y78.564 E18.66312
G1 X34.665 Y78.261 E18.67808
G1 X27.083 Y68.164 E19.16131
G1 X26.906 Y67.913 E19.17306
G1 X25.92 Y66.405 E19.24201
G1 X25.64 Y65.914 E19.26364
G1 X24.785 Y64.186 E19.33743
G1 X24.549 Y63.619 E19.36093
G1 X23.926 Y61.796 E19.43466
G1 X23.768 Y61.215 E19.4577
G1 X23.381 Y59.324 E19.53157
G1 X23.297 Y58.72 E19.55491
G1 X23.157 Y56.799 E19.62862
G1 X23.145 Y56.464 E19.64145
G1 X23.141 Y54.454 E19.71837
G1 X22.648 Y54.422 E19.73728
G1 X22.045 Y54.303 E19.7608
G1 X21.463 Y54.106 E19.78431
G1 X20.911 Y53.836 E19.80783
G1 X20.399 Y53.496 E19.83135
G1 X19.935 Y53.093 E19.85487
G1 X19.528 Y52.633 E19.87838
G1 X19.183 Y52.124 E19.90191
G1 X18.908 Y51.575 E19.92541
G1 X18.706 Y50.994 E19.94895
G1 X18.582 Y50.393 E19.97243
G1 X18.536 Y49.737 E19.9976
G1 X18.536 Y47.802 E20.07165
G1 X18.55 Y47.441 E20.08548
G1 X18.725 Y45.157 E20.17314
G1 X18.837 Y44.433 E20.20118
G1 X19.303 Y42.458 E20.27884
G1 X19.335 Y42.33 E20.28389
G1 X19.442 Y41.927 E20.29984
G1 X19.632 Y41.359 E20.32277
G1 X20.449 Y39.351 E20.40573
G1 X20.767 Y38.713 E20.43301
G1 X21.937 Y36.75 E20.52047
G1 X22.354 Y36.159 E20.54815
G1 X23.812 Y34.395 E20.63573
G1 X24.314 Y33.875 E20.66339
G1 X25.798 Y32.555 E20.7394
G0 F648 X26.024 Y32.354
G0 X26.327 Y32.106
G0 F4320 X26.537 Y32.386
G1 F2040 E20.76596
G1 F720 X36.634 Y24.804 E21.24918
G1 X36.866 Y24.641 E21.26004
G1 X38.373 Y23.655 E21.32896
G1 X38.828 Y23.395 E21.34901
G1 X40.558 Y22.539 E21.42288
G1 X41.083 Y22.32 E21.44465
G1 X42.906 Y21.697 E21.51838
G1 X43.444 Y21.551 E21.53971
G1 X45.335 Y21.164 E21.61358
G1 X45.894 Y21.087 E21.63517
G1 X47.816 Y20.947 E21.70892
G1 X48.126 Y20.935 E21.7208
G1 X53.253 Y20.926 E21.91701
G1 X53.843 Y20.965 E21.93963
G1 X54.423 Y21.083 E21.96229
G1 X54.981 Y21.278 E21.98491
G1 X55.508 Y21.547 E22.00755
G1 X55.993 Y21.884 E22.03015
G1 X56.429 Y22.284 E22.0528
G1 X56.807 Y22.738 E22.0754
G1 X57.12 Y23.24 E22.09804
G1 X57.363 Y23.779 E22.12067
G1 X57.531 Y24.346 E22.1433
G1 X57.62 Y24.93 E22.16591
G1 X57.636 Y25.301 E22.18012
G1 X57.636 Y30.624 E22.38383
G1 X62.622 Y30.624 E22.57465
G1 X62.622 Y12.672 E23.26167
G1 X62.662 Y12.082 E23.2843
G1 X62.781 Y11.503 E23.30692
G1 X62.977 Y10.945 E23.32956
G1 X63.247 Y10.419 E23.35218
G1 X63.585 Y9.934 E23.37481
G1 X63.985 Y9.499 E23.39742
G1 X64.441 Y9.122 E23.42006
G1 X64.943 Y8.809 E23.4427
G1 X65.482 Y8.568 E23.4653
G1 X66.05 Y8.401 E23.48796
G1 X66.634 Y8.312 E23.51057
G1 X66.997 Y8.297 E23.52447
G1 X68.932 Y8.297 E23.59852
G1 X69.264 Y8.31 E23.61124
G1 X71.548 Y8.484 E23.6989
G1 X72.223 Y8.588 E23.72504
G1 X74.198 Y9.055 E23.8027
G1 X74.314 Y9.085 E23.80729
G1 X74.717 Y9.192 E23.82325
G1 X75.241 Y9.367 E23.84439
G1 X77.249 Y10.183 E23.92734
G1 X77.843 Y10.479 E23.95273
G1 X79.806 Y11.65 E24.04021
G1 X80.352 Y12.035 E24.06578
G1 X82.116 Y13.493 E24.15336
G1 X82.598 Y13.957 E24.17896
G1 X84.119 Y15.667 E24.26655
G1 X84.348 Y15.948 E24.28042
G1 X91.93 Y26.045 E24.76365
G1 X92.092 Y26.276 E24.77445
G1 X93.078 Y27.782 E24.84333
G1 X93.339 Y28.238 E24.86344
G1 X94.194 Y29.966 E24.93722
G1 X94.413 Y30.491 E24.95899
G1 X95.037 Y32.316 E25.03281
G1 X95.183 Y32.854 E25.05414
G1 X95.57 Y34.746 E25.12805
G1 X95.647 Y35.305 E25.14964
G1 X95.787 Y37.226 E25.22335
G1 X95.799 Y37.536 E25.23522
G1 X95.808 Y42.664 E25.43147
G1 X95.769 Y43.254 E25.4541
G1 X95.651 Y43.834 E25.47675
G1 X95.456 Y44.392 E25.49937
G1 X95.187 Y44.919 E25.52202
G1 X94.85 Y45.404 E25.54462
G1 X94.45 Y45.84 E25.56726
G1 X93.996 Y46.218 E25.58987
G1 X93.494 Y46.531 E25.61251
G1 X92.955 Y46.774 E25.63514
G1 X92.388 Y46.942 E25.65777
G1 X91.804 Y47.031 E25.68038
G1 X91.433 Y47.047 E25.69459
G1 X76.433 Y47.047 E26.26864
G1 X76.065 Y47.022 E26.28275
G1 X75.597 Y47.807 E26.31773
G1 X75.211 Y48.354 E26.34335
G1 X73.753 Y50.118 E26.43093
G1 X73.289 Y50.6 E26.45654
G1 X71.579 Y52.121 E26.54412
G1 X71.298 Y52.35 E26.55799
G1 X61.201 Y59.932 E27.04122
G1 X60.97 Y60.094 E27.05202
G1 X59.464 Y61.08 E27.12091
G1 X59.007 Y61.342 E27.14107
G1 X57.276 Y62.198 E27.21497
G1 X56.752 Y62.416 E27.23669
G1 X56.672 Y62.443 E27.23992
G1 X56.673 Y65.829 E27.3695
G1 X56.673 Y65.83 E27.36954
G1 X56.672 Y81.328 E27.96265
G1 X56.632 Y81.918 E27.98528
G1 X56.513 Y82.497 E28.0079
G1 X56.317 Y83.055 E28.03053
G1 X56.047 Y83.581 E28.05316
G1 X55.709 Y84.066 E28.07578
G1 X55.309 Y84.501 E28.0984
G1 X54.853 Y84.879 E28.12107
G1 X54.351 Y85.191 E28.14369
G1 X53.811 Y85.433 E28.16633
G1 X53.244 Y85.599 E28.18894
G1 X52.66 Y85.688 E28.21155
G1 X52.297 Y85.703 E28.22546
G1 X50.362 Y85.703 E28.29951
G1 X50.028 Y85.69 E28.3123
G1 X47.744 Y85.515 E28.39996
G1 X47.073 Y85.411 E28.42595
G1 X45.098 Y84.945 E28.50361
G1 X44.98 Y84.915 E28.50827
G1 X44.577 Y84.808 E28.52423
G1 X44.051 Y84.632 E28.54545
G1 X42.043 Y83.815 E28.62842
G1 X41.452 Y83.521 E28.65368
G1 X39.488 Y82.35 E28.74118
G1 X38.941 Y81.964 E28.76681
G1 X37.176 Y80.505 E28.85444
G1 X36.694 Y80.041 E28.88005
G1 X35.174 Y78.332 E28.96758
G1 X34.945 Y78.051 E28.98145
G1 X27.363 Y67.954 E29.46468
G1 X27.199 Y67.721 E29.47558
G1 X26.213 Y66.213 E29.54453
G1 X25.954 Y65.759 E29.56454
G1 X25.099 Y64.031 E29.63832
G1 X24.88 Y63.506 E29.66009
G1 X24.257 Y61.683 E29.73382
G1 X24.111 Y61.145 E29.75515
G1 X23.724 Y59.254 E29.82902
G1 X23.647 Y58.695 E29.85061
G1 X23.507 Y56.774 E29.92432
G1 X23.495 Y56.464 E29.9362
G1 X23.491 Y54.112 E30.02621
G1 X23.261 Y54.112 E30.03501
G1 X22.671 Y54.072 E30.05764
G1 X22.092 Y53.953 E30.08026
G1 X21.534 Y53.757 E30.1029
G1 X21.008 Y53.487 E30.12552
G1 X20.523 Y53.149 E30.14815
G1 X20.088 Y52.749 E30.17076
G1 X19.711 Y52.293 E30.19341
G1 X19.398 Y51.791 E30.21605
G1 X19.157 Y51.252 E30.23864
G1 X18.99 Y50.684 E30.2613
G1 X18.901 Y50.1 E30.28391
G1 X18.886 Y49.737 E30.29781
G1 X18.886 Y47.802 E30.37186
G1 X18.899 Y47.468 E30.38465
G1 X19.074 Y45.184 E30.47232
G1 X19.178 Y44.513 E30.4983
G1 X19.644 Y42.538 E30.57596
G1 X19.674 Y42.42 E30.58062
G1 X19.781 Y42.017 E30.59658
G1 X19.957 Y41.491 E30.61781
G1 X20.774 Y39.483 E30.70077
G1 X21.068 Y38.892 E30.72603
G1 X22.238 Y36.929 E30.81349
G1 X22.624 Y36.382 E30.83911
G1 X24.082 Y34.618 E30.92669
G1 X24.546 Y34.136 E30.9523
G1 X26.008 Y32.835 E31.02719
G0 F648 X26.256 Y32.615
G0 X26.537 Y32.386
G0 F4320 X26.747 Y32.665
G1 F2040 E31.05375
G1 F720 X36.844 Y25.083 E31.53698
G1 X37.057 Y24.934 E31.54693
G1 X38.564 Y23.948 E31.61585
G1 X38.983 Y23.708 E31.63433
G1 X40.713 Y22.852 E31.70819
G1 X41.196 Y22.651 E31.72821
G1 X43.019 Y22.028 E31.80194
G1 X43.514 Y21.894 E31.82157
G1 X45.405 Y21.507 E31.89544
G1 X45.92 Y21.436 E31.91533
G1 X47.842 Y21.296 E31.98908
G1 X48.127 Y21.285 E32
G1 X53.254 Y21.276 E32.19621
G1 X53.82 Y21.315 E32.21792
G1 X54.374 Y21.433 E32.2396
G1 X54.907 Y21.628 E32.26132
G1 X55.407 Y21.896 E32.28303
G1 X55.864 Y22.231 E32.30471
G1 X56.27 Y22.627 E32.32642
G1 X56.616 Y23.077 E32.34814
G1 X56.895 Y23.57 E32.36982
