;FLAVOR:Marlin
;TIME:1044
;Filament used: 0.789483m
;Layer height: 0.2625
;MINX:41.579
;MINY:22.365
;MINZ:0.263
;MAXX:83.166
;MAXY:70.382
;MAXZ:7.364
;Generated with Cura_SteamEngine 4.2.1
M140 S70
M105
M190 S70
M104 S235
M105
M109 S235
M82 ;absolute extrusion mode
G21;(metric values)
G90;(absolute positioning)
M82;(set extruder to absolute mode)
M107;(start with the fan off)
G28;(Home the printer)
G92 E0;(Reset the extruder to 0)
G0 Z5 E5 F500;(Move up and prime the nozzle)
G0 X-1 Z0;(Move outside the printable area)
G1 Y60 E8 F500;(Draw a priming/wiping line to the rear)
G1 X-1;(Move a little closer to the print area)
G1 Y10 E16 F500;(draw more priming/wiping)
G1 E15 F250;(Small retract)
G92 E0;(Zero the extruder)
G92 E0
G92 E0
G1 F2400 E-4
;LAYER_COUNT:28
;LAYER:0
M107
G0 F4320 X47.895 Y29.792 Z0.263
;TYPE:SKIRT
G1 F2400 E0
G1 F1800 X48.268 Y29.276 E0.02437
G1 X48.703 Y28.81 E0.04876
G1 X49.192 Y28.403 E0.07311
G1 X49.741 Y28.053 E0.09803
G1 X58.933 Y22.995 E0.49954
G1 X59.51 Y22.723 E0.52396
G1 X60.115 Y22.526 E0.54831
G1 X60.741 Y22.406 E0.5727
G1 X61.379 Y22.366 E0.59716
G1 X71.378 Y22.365 E0.97983
G1 X72.014 Y22.405 E1.00421
G1 X72.64 Y22.524 E1.0286
G1 X73.245 Y22.721 E1.05295
G1 X73.822 Y22.992 E1.07735
G1 X74.36 Y23.333 E1.10172
G1 X74.851 Y23.738 E1.12608
G1 X75.287 Y24.202 E1.15045
G1 X75.662 Y24.717 E1.17483
G1 X75.969 Y25.275 E1.1992
G1 X76.204 Y25.867 E1.22358
G1 X76.363 Y26.484 E1.24796
G1 X76.444 Y27.115 E1.27231
G1 X76.454 Y27.44 E1.28475
G1 X76.454 Y32.507 E1.47866
G1 X76.414 Y33.143 E1.50305
G1 X76.295 Y33.768 E1.5274
G1 X76.098 Y34.374 E1.55179
G1 X75.827 Y34.95 E1.57615
G1 X75.486 Y35.488 E1.60052
G1 X75.08 Y35.979 E1.62491
G1 X74.616 Y36.415 E1.64927
G1 X74.101 Y36.79 E1.67365
G1 X73.544 Y37.097 E1.69799
G1 X72.952 Y37.332 E1.72237
G1 X72.335 Y37.491 E1.74675
G1 X71.703 Y37.572 E1.77114
G1 X71.328 Y37.582 E1.78549
G1 X70.003 Y37.569 E1.8362
G1 X69.377 Y37.582 E1.86017
G1 X69.272 Y37.583 E1.86418
G1 X63.958 Y37.585 E2.06755
G1 X63.322 Y37.545 E2.09194
G1 X62.697 Y37.426 E2.11629
G1 X62.091 Y37.23 E2.14066
G1 X62.055 Y37.213 E2.14219
G1 X61.498 Y37.404 E2.16472
G1 X60.875 Y37.534 E2.18908
G1 X60.135 Y37.585 E2.21746
G1 X55.939 Y37.569 E2.37804
G1 X52.195 Y37.574 E2.52133
G1 X51.559 Y37.535 E2.54571
G1 X50.933 Y37.416 E2.5701
G1 X50.327 Y37.221 E2.59446
G1 X49.751 Y36.95 E2.61882
G1 X49.212 Y36.61 E2.64321
G1 X48.721 Y36.205 E2.66757
G1 X48.284 Y35.742 E2.69193
G1 X47.909 Y35.227 E2.71631
G1 X47.601 Y34.67 E2.74067
G1 X47.365 Y34.078 E2.76506
G1 X47.205 Y33.462 E2.78942
G1 X47.124 Y32.83 E2.8138
G1 X47.122 Y32.193 E2.83818
G1 X47.2 Y31.561 E2.86255
G1 X47.357 Y30.944 E2.88692
G1 X47.569 Y30.404 E2.90912
G0 F1620 X47.59 Y30.351
G0 X47.895 Y29.792
G0 F4320 X48.065 Y30.192
G1 F2400 E2.93568
G1 F1800 X48.399 Y29.676 E2.9592
G1 X48.797 Y29.208 E2.98271
G1 X49.253 Y28.796 E3.00623
G1 X49.91 Y28.359 E3.03643
G1 X59.102 Y23.301 E3.43795
G1 X59.659 Y23.041 E3.46147
G1 X60.244 Y22.855 E3.48496
G1 X60.849 Y22.746 E3.50849
G1 X61.38 Y22.716 E3.52884
G1 X71.379 Y22.715 E3.9115
G1 X71.992 Y22.755 E3.93501
G1 X72.595 Y22.874 E3.95853
G1 X73.177 Y23.07 E3.98204
G1 X73.729 Y23.341 E4.00557
G1 X74.241 Y23.68 E4.02907
G1 X74.705 Y24.083 E4.05259
G1 X75.112 Y24.543 E4.0761
G1 X75.456 Y25.052 E4.09961
G1 X75.732 Y25.602 E4.12316
G1 X75.933 Y26.182 E4.14665
G1 X76.058 Y26.784 E4.17018
G1 X76.104 Y27.44 E4.19534
G1 X76.104 Y32.507 E4.38926
G1 X76.064 Y33.12 E4.41277
G1 X75.945 Y33.723 E4.43629
G1 X75.748 Y34.305 E4.4598
G1 X75.478 Y34.857 E4.48332
G1 X75.138 Y35.369 E4.50684
G1 X74.735 Y35.833 E4.53036
G1 X74.275 Y36.24 E4.55387
G1 X73.766 Y36.585 E4.5774
G1 X73.217 Y36.86 E4.6009
G1 X72.636 Y37.062 E4.62444
G1 X72.035 Y37.186 E4.64792
G1 X71.332 Y37.232 E4.67488
G1 X70 Y37.219 E4.72586
G1 X69.37 Y37.232 E4.74998
G1 X69.272 Y37.233 E4.75373
G1 X63.958 Y37.235 E4.9571
G1 X63.345 Y37.195 E4.9806
G1 X62.742 Y37.076 E5.00413
G1 X62.159 Y36.88 E5.02766
G1 X62.055 Y36.829 E5.0321
G1 X61.946 Y36.882 E5.03674
G1 X61.364 Y37.077 E5.06023
G1 X60.761 Y37.196 E5.08375
G1 X60.136 Y37.235 E5.10771
G1 X55.939 Y37.219 E5.26833
G1 X52.194 Y37.224 E5.41165
G1 X51.581 Y37.185 E5.43516
G1 X50.978 Y37.066 E5.45868
G1 X50.396 Y36.871 E5.48217
G1 X49.843 Y36.601 E5.50572
G1 X49.331 Y36.262 E5.52922
G1 X48.867 Y35.86 E5.55272
G1 X48.459 Y35.4 E5.57625
G1 X48.114 Y34.892 E5.59975
G1 X47.838 Y34.343 E5.62327
G1 X47.635 Y33.762 E5.64682
G1 X47.51 Y33.161 E5.67031
G1 X47.463 Y32.548 E5.69384
G1 X47.497 Y31.935 E5.71734
G1 X47.61 Y31.331 E5.74085
G1 X47.776 Y30.822 E5.76134
G0 F1620 X47.8 Y30.746
G0 X48.065 Y30.192
G0 F4320 X48.557 Y30.058
G1 F2400 E5.7879
G1 F1800 X48.92 Y29.591 E5.81054
G1 X49.341 Y29.177 E5.83313
G1 X49.815 Y28.823 E5.85577
G1 X50.079 Y28.666 E5.86753
G1 X59.271 Y23.608 E6.26905
G1 X59.807 Y23.359 E6.29166
G1 X60.372 Y23.184 E6.3143
G1 X60.955 Y23.087 E6.33692
G1 X61.38 Y23.066 E6.3532
G1 X71.379 Y23.065 E6.73586
G1 X71.968 Y23.105 E6.75846
G1 X72.548 Y23.224 E6.78112
G1 X73.105 Y23.42 E6.80371
G1 X73.632 Y23.69 E6.82637
G1 X74.117 Y24.028 E6.849
G1 X74.552 Y24.428 E6.87161
G1 X74.929 Y24.883 E6.89423
G1 X75.241 Y25.385 E6.91685
G1 X75.483 Y25.925 E6.93949
G1 X75.65 Y26.492 E6.96211
G1 X75.739 Y27.077 E6.98476
G1 X75.754 Y27.44 E6.99866
G1 X75.754 Y32.507 E7.19258
G1 X75.714 Y33.097 E7.21521
G1 X75.595 Y33.676 E7.23783
G1 X75.399 Y34.234 E7.26046
G1 X75.129 Y34.76 E7.28309
G1 X74.791 Y35.245 E7.30571
G1 X74.391 Y35.68 E7.32833
G1 X73.935 Y36.057 E7.35097
G1 X73.433 Y36.37 E7.37361
G1 X72.894 Y36.611 E7.39621
G1 X72.326 Y36.778 E7.41887
G1 X71.742 Y36.867 E7.44147
G1 X71.335 Y36.882 E7.45706
G1 X69.996 Y36.869 E7.50831
G1 X69.363 Y36.882 E7.53254
G1 X69.272 Y36.883 E7.53602
G1 X63.958 Y36.885 E7.73938
G1 X63.368 Y36.845 E7.76202
G1 X62.789 Y36.726 E7.78464
G1 X62.231 Y36.53 E7.80727
G1 X62.054 Y36.44 E7.81487
G1 X61.793 Y36.566 E7.82596
G1 X61.231 Y36.75 E7.84859
G1 X60.649 Y36.857 E7.87124
G1 X60.137 Y36.885 E7.89086
G1 X55.94 Y36.869 E8.05148
G1 X52.194 Y36.874 E8.19484
G1 X51.604 Y36.835 E8.21747
G1 X51.025 Y36.716 E8.24009
G1 X50.466 Y36.521 E8.26275
G1 X49.94 Y36.252 E8.28536
G1 X49.454 Y35.915 E8.30799
G1 X49.019 Y35.515 E8.33061
G1 X48.641 Y35.06 E8.35325
G1 X48.328 Y34.558 E8.37589
G1 X48.086 Y34.019 E8.3985
G1 X47.918 Y33.452 E8.42113
G1 X47.829 Y32.868 E8.44374
G1 X47.819 Y32.276 E8.46639
G1 X47.889 Y31.689 E8.48902
G1 X48.037 Y31.117 E8.51163
G1 X48.222 Y30.665 E8.53032
G0 F1620 X48.261 Y30.57
G0 X48.557 Y30.058
G0 F4320 X48.742 Y30.419
G1 F2400 E8.55688
G1 F1800 X49.069 Y29.955 E8.5786
G1 X49.457 Y29.542 E8.60029
G1 X49.9 Y29.188 E8.62199
G1 X50.248 Y28.973 E8.63765
G1 X59.44 Y23.915 E9.03916
G1 X59.954 Y23.677 E9.06084
G1 X60.498 Y23.514 E9.08257
G1 X61.058 Y23.429 E9.10425
G1 X61.38 Y23.416 E9.11658
G1 X71.379 Y23.415 E9.49925
G1 X71.944 Y23.455 E9.52092
G1 X72.499 Y23.574 E9.54264
G1 X73.031 Y23.77 E9.56434
G1 X73.53 Y24.038 E9.58602
G1 X73.987 Y24.374 E9.60773
G1 X74.392 Y24.771 E9.62943
G1 X74.737 Y25.221 E9.65113
G1 X75.016 Y25.715 E9.67284
G1 X75.222 Y26.244 E9.69457
G1 X75.352 Y26.796 E9.71627
G1 X75.404 Y27.44 E9.741
G1 X75.404 Y32.507 E9.93491
G1 X75.364 Y33.073 E9.95663
G1 X75.245 Y33.627 E9.97831
G1 X75.049 Y34.159 E10.00001
G1 X74.781 Y34.659 E10.02172
G1 X74.444 Y35.115 E10.04342
G1 X74.047 Y35.52 E10.06512
G1 X73.597 Y35.866 E10.08685
G1 X73.103 Y36.144 E10.10854
G1 X72.575 Y36.35 E10.13023
G1 X72.023 Y36.48 E10.15193
G1 X71.339 Y36.532 E10.17818
G1 X69.992 Y36.519 E10.22974
G1 X69.355 Y36.532 E10.25412
G1 X69.272 Y36.533 E10.2573
G1 X63.958 Y36.535 E10.46066
G1 X63.392 Y36.495 E10.48238
G1 X62.837 Y36.376 E10.5041
G1 X62.305 Y36.181 E10.52578
G1 X62.06 Y36.049 E10.53643
G1 X61.64 Y36.251 E10.55427
G1 X61.1 Y36.422 E10.57595
G1 X60.541 Y36.516 E10.59764
G1 X60.139 Y36.535 E10.61304
G1 X55.941 Y36.519 E10.7737
G1 X52.193 Y36.524 E10.91714
G1 X51.628 Y36.485 E10.93881
G1 X51.073 Y36.366 E10.96053
G1 X50.541 Y36.171 E10.98222
G1 X50.041 Y35.903 E11.00393
G1 X49.584 Y35.568 E11.02561
G1 X49.178 Y35.171 E11.04734
G1 X48.832 Y34.722 E11.06904
G1 X48.553 Y34.228 E11.09075
G1 X48.346 Y33.7 E11.11245
G1 X48.216 Y33.148 E11.13416
G1 X48.164 Y32.584 E11.15583
G1 X48.192 Y32.017 E11.17756
G1 X48.299 Y31.46 E11.19926
G1 X48.443 Y31.044 E11.21611
G0 F1620 X48.484 Y30.924
G0 X48.742 Y30.419
G0 F4320 X48.952 Y30.757
G1 F2400 E11.24267
G1 F1800 X49.244 Y30.3 E11.26342
G1 X49.599 Y29.891 E11.28415
G1 X50.011 Y29.538 E11.30491
G1 X50.416 Y29.279 E11.32331
G1 X59.608 Y24.221 E11.72483
G1 X60.101 Y23.996 E11.74557
G1 X60.621 Y23.845 E11.76629
G1 X61.38 Y23.766 E11.79549
G1 X71.379 Y23.765 E12.17816
G1 X71.919 Y23.805 E12.19888
G1 X72.448 Y23.924 E12.21963
G1 X72.953 Y24.119 E12.24035
G1 X73.424 Y24.387 E12.26108
G1 X73.851 Y24.721 E12.28183
G1 X74.224 Y25.114 E12.30257
G1 X74.535 Y25.557 E12.32328
G1 X74.778 Y26.042 E12.34404
G1 X74.946 Y26.557 E12.36477
G1 X75.037 Y27.091 E12.3855
G1 X75.054 Y27.44 E12.39888
G1 X75.054 Y32.507 E12.59279
G1 X75.014 Y33.047 E12.61351
G1 X74.895 Y33.576 E12.63426
G1 X74.7 Y34.081 E12.65498
G1 X74.432 Y34.553 E12.67575
G1 X74.098 Y34.979 E12.69647
G1 X73.705 Y35.352 E12.7172
G1 X73.261 Y35.663 E12.73795
G1 X72.777 Y35.906 E12.75868
G1 X72.262 Y36.074 E12.77941
G1 X71.728 Y36.165 E12.80014
G1 X71.342 Y36.182 E12.81492
G1 X69.988 Y36.168 E12.86674
G1 X69.348 Y36.182 E12.89124
G1 X69.271 Y36.183 E12.89419
G1 X63.957 Y36.185 E13.09756
G1 X63.417 Y36.145 E13.11828
G1 X62.888 Y36.026 E13.13903
G1 X62.383 Y35.831 E13.15975
G1 X62.065 Y35.651 E13.17373
G1 X61.978 Y35.701 E13.17757
G1 X61.489 Y35.934 E13.1983
G1 X60.971 Y36.093 E13.21904
G1 X60.435 Y36.174 E13.23978
G1 X60.14 Y36.185 E13.25108
G1 X55.942 Y36.169 E13.41174
G1 X52.193 Y36.174 E13.55521
G1 X51.652 Y36.135 E13.57597
G1 X51.124 Y36.017 E13.59668
G1 X50.618 Y35.822 E13.61743
G1 X50.147 Y35.555 E13.63815
G1 X49.719 Y35.221 E13.65893
G1 X49.346 Y34.829 E13.67963
G1 X49.034 Y34.386 E13.70037
G1 X48.791 Y33.901 E13.72113
G1 X48.622 Y33.387 E13.74184
G1 X48.53 Y32.853 E13.76257
G1 X48.518 Y32.311 E13.78332
G1 X48.585 Y31.773 E13.80407
G1 X48.69 Y31.398 E13.81897
G0 F1620 X48.731 Y31.251
G0 X48.952 Y30.757
G0 F4320 X49.444 Y30.622
G1 F2400 E13.84553
G1 F1800 X49.767 Y30.22 E13.86527
G1 X50.148 Y29.873 E13.88499
G1 X50.585 Y29.586 E13.905
G1 X59.777 Y24.528 E14.30652
G1 X60.246 Y24.315 E14.32623
G1 X60.743 Y24.178 E14.34596
G1 X61.38 Y24.116 E14.37045
G1 X71.379 Y24.115 E14.75311
G1 X71.892 Y24.155 E14.7728
G1 X72.394 Y24.274 E14.79255
G1 X72.871 Y24.469 E14.81227
G1 X73.312 Y24.735 E14.83198
G1 X73.707 Y25.066 E14.8517
G1 X74.046 Y25.454 E14.87142
G1 X74.321 Y25.89 E14.89115
G1 X74.525 Y26.364 E14.9109
G1 X74.653 Y26.863 E14.93061
G1 X74.704 Y27.44 E14.95278
G1 X74.704 Y32.507 E15.14669
G1 X74.664 Y33.021 E15.16642
G1 X74.545 Y33.522 E15.18613
G1 X74.35 Y33.999 E15.20585
G1 X74.084 Y34.441 E15.22559
G1 X73.753 Y34.835 E15.24529
G1 X73.364 Y35.174 E15.26503
G1 X72.928 Y35.449 E15.28476
G1 X72.455 Y35.653 E15.30447
G1 X71.956 Y35.782 E15.3242
G1 X71.346 Y35.832 E15.34762
G1 X69.984 Y35.818 E15.39975
G1 X69.34 Y35.832 E15.4244
G1 X69.271 Y35.833 E15.42704
G1 X63.957 Y35.835 E15.63041
G1 X63.443 Y35.795 E15.65014
G1 X62.942 Y35.677 E15.66983
G1 X62.465 Y35.482 E15.68956
G1 X62.071 Y35.245 E15.70715
G1 X61.804 Y35.397 E15.71891
G1 X61.338 Y35.617 E15.73863
G1 X60.844 Y35.763 E15.75834
G1 X60.141 Y35.835 E15.78539
G1 X55.942 Y35.819 E15.94609
G1 X52.192 Y35.824 E16.0896
G1 X51.679 Y35.785 E16.10929
G1 X51.177 Y35.667 E16.12902
G1 X50.7 Y35.472 E16.14874
G1 X50.258 Y35.207 E16.16847
G1 X49.863 Y34.876 E16.18819
G1 X49.523 Y34.488 E16.20793
G1 X49.248 Y34.052 E16.22766
G1 X49.043 Y33.579 E16.24739
G1 X48.914 Y33.08 E16.26711
G1 X48.864 Y32.567 E16.28684
G1 X48.893 Y32.053 E16.30654
G1 X49.002 Y31.549 E16.32627
G1 X49.123 Y31.236 E16.33912
G0 F1620 X49.187 Y31.068
G0 X49.444 Y30.622
G0 F4320 X49.668 Y30.918
G1 F2400 E16.36568
G1 F1800 X49.96 Y30.528 E16.38432
G1 X50.312 Y30.19 E16.403
G1 X50.754 Y29.893 E16.42338
G1 X59.946 Y24.835 E16.82489
G1 X60.391 Y24.635 E16.84356
G1 X60.862 Y24.511 E16.8622
G1 X61.38 Y24.466 E16.8821
G1 X71.379 Y24.465 E17.26476
G1 X71.865 Y24.505 E17.28343
G1 X72.337 Y24.624 E17.30205
G1 X72.784 Y24.818 E17.3207
G1 X73.194 Y25.083 E17.33939
G1 X73.554 Y25.411 E17.35802
G1 X73.856 Y25.793 E17.37666
G1 X74.092 Y26.22 E17.39533
G1 X74.255 Y26.679 E17.41397
G1 X74.341 Y27.159 E17.43263
G1 X74.354 Y27.44 E17.4434
G1 X74.354 Y32.507 E17.63731
G1 X74.314 Y32.993 E17.65597
G1 X74.195 Y33.466 E17.67464
G1 X74.001 Y33.913 E17.69329
G1 X73.736 Y34.322 E17.71194
G1 X73.408 Y34.682 E17.73058
G1 X73.026 Y34.985 E17.74924
G1 X72.599 Y35.22 E17.76789
G1 X72.14 Y35.383 E17.78653
G1 X71.66 Y35.469 E17.80519
G1 X71.349 Y35.482 E17.8171
G1 X69.98 Y35.468 E17.8695
G1 X69.333 Y35.482 E17.89426
G1 X69.271 Y35.483 E17.89664
G1 X63.957 Y35.485 E18.1
G1 X63.471 Y35.445 E18.11867
G1 X62.998 Y35.327 E18.13732
G1 X62.551 Y35.133 E18.15597
G1 X62.142 Y34.868 E18.17462
G1 X62.096 Y34.826 E18.17701
G1 X61.63 Y35.093 E18.19756
G1 X61.189 Y35.299 E18.21619
G1 X60.719 Y35.431 E18.23487
G1 X60.143 Y35.485 E18.25701
G1 X55.944 Y35.469 E18.41771
G1 X52.192 Y35.474 E18.5613
G1 X51.706 Y35.435 E18.57995
G1 X51.233 Y35.317 E18.59861
G1 X50.786 Y35.123 E18.61726
G1 X50.376 Y34.859 E18.63592
G1 X50.015 Y34.531 E18.65459
G1 X49.713 Y34.149 E18.67322
G1 X49.476 Y33.723 E18.69188
G1 X49.313 Y33.263 E18.71056
G1 X49.227 Y32.784 E18.72918
G1 X49.22 Y32.296 E18.74786
G1 X49.293 Y31.814 E18.76651
G1 X49.38 Y31.547 E18.77726
G0 F1620 X49.444 Y31.351
G0 X49.668 Y30.918
G0 F4320 X49.914 Y31.187
G1 F2400 E18.80382
G1 F1800 X50.177 Y30.812 E18.82135
G1 X50.501 Y30.488 E18.83889
G1 X50.923 Y30.199 E18.85846
G1 X60.115 Y25.141 E19.25998
G1 X60.533 Y24.956 E19.27747
G1 X60.978 Y24.847 E19.295
G1 X61.38 Y24.816 E19.31043
G1 X71.379 Y24.815 E19.6931
G1 X71.835 Y24.855 E19.71061
G1 X72.277 Y24.973 E19.72812
G1 X72.692 Y25.167 E19.74565
G1 X73.067 Y25.43 E19.76318
G1 X73.391 Y25.753 E19.78069
G1 X73.653 Y26.129 E19.79823
G1 X73.846 Y26.544 E19.81574
G1 X73.964 Y26.986 E19.83325
G1 X74.004 Y27.44 E19.85069
G1 X74.004 Y32.507 E20.04461
G1 X73.964 Y32.963 E20.06213
G1 X73.846 Y33.405 E20.07963
G1 X73.652 Y33.82 E20.09717
G1 X73.389 Y34.195 E20.11469
G1 X73.065 Y34.519 E20.13223
G1 X72.69 Y34.781 E20.14974
G1 X72.275 Y34.974 E20.16725
G1 X71.833 Y35.092 E20.18476
G1 X71.353 Y35.132 E20.20319
G1 X69.977 Y35.118 E20.25586
G1 X69.326 Y35.132 E20.28077
G1 X69.271 Y35.133 E20.28288
G1 X63.957 Y35.135 E20.48625
G1 X63.501 Y35.095 E20.50376
G1 X63.059 Y34.977 E20.52127
G1 X62.644 Y34.783 E20.5388
G1 X62.269 Y34.521 E20.55631
G1 X62.144 Y34.396 E20.56308
G1 X61.457 Y34.789 E20.59337
G1 X61.041 Y34.981 E20.6109
G1 X60.598 Y35.097 E20.62842
G1 X60.144 Y35.135 E20.64586
G1 X55.944 Y35.119 E20.8066
G1 X52.191 Y35.124 E20.95022
G1 X51.735 Y35.085 E20.96774
G1 X51.293 Y34.967 E20.98524
G1 X50.878 Y34.774 E21.00276
G1 X50.503 Y34.511 E21.02029
G1 X50.179 Y34.188 E21.0378
G1 X49.916 Y33.813 E21.05533
G1 X49.722 Y33.398 E21.07286
G1 X49.603 Y32.956 E21.09038
G1 X49.563 Y32.5 E21.10789
G1 X49.603 Y32.044 E21.12541
G1 X49.66 Y31.831 E21.13385
G0 F1620 X49.721 Y31.602
G0 X49.914 Y31.187
G0 F4320 X50.182 Y31.426
G1 F2400 E21.16041
G1 F1800 X50.418 Y31.07 E21.17676
G1 X50.715 Y30.765 E21.19305
G1 X51.091 Y30.506 E21.21052
G1 X60.283 Y25.448 E21.61204
G1 X60.674 Y25.278 E21.62835
G1 X61.09 Y25.185 E21.64467
G1 X61.38 Y25.166 E21.65579
G1 X71.379 Y25.165 E22.03845
G1 X71.803 Y25.205 E22.05475
G1 X72.212 Y25.323 E22.07104
G1 X72.593 Y25.516 E22.08739
G1 X72.93 Y25.776 E22.10367
G1 X73.213 Y26.094 E22.11997
G1 X73.432 Y26.46 E22.13629
G1 X73.579 Y26.86 E22.1526
G1 X73.654 Y27.44 E22.17498
G1 X73.654 Y32.507 E22.36889
G1 X73.614 Y32.931 E22.38519
G1 X73.496 Y33.341 E22.40152
G1 X73.303 Y33.721 E22.41783
G1 X73.043 Y34.058 E22.43412
G1 X72.725 Y34.341 E22.45041
G1 X72.359 Y34.56 E22.46673
G1 X71.959 Y34.707 E22.48304
G1 X71.356 Y34.782 E22.5063
G1 X69.972 Y34.768 E22.55926
G1 X69.318 Y34.782 E22.5843
G1 X69.271 Y34.783 E22.5861
G1 X63.957 Y34.785 E22.78946
G1 X63.533 Y34.745 E22.80576
