;FLAVOR:Marlin
;TIME:3231
;Filament used: 2.9603m
;Layer height: 0.2625
;MINX:5.026
;MINY:5.254
;MINZ:0.263
;MAXX:75.451
;MAXY:76.401
;MAXZ:8.679
;Generated with Cura_SteamEngine 4.2.1
M140 S65
M105
M190 S65
M104 S235
M105
M109 S235
M82 ;absolute extrusion mode
G21;(metric values)
G90;(absolute positioning)
M82;(set extruder to absolute mode)
M107;(start with the fan off)
G28;(Home the printer)
G92 E0;(Reset the extruder to 0)
G0 Z5 E5 F500;(Move up and prime the nozzle)
G0 X-1 Z0;(Move outside the printable area)
G1 Y60 E8 F500;(Draw a priming/wiping line to the rear)
G1 X-1;(Move a little closer to the print area)
G1 Y10 E16 F500;(draw more priming/wiping)
G1 E15 F250;(Small retract)
G92 E0;(Zero the extruder)
G92 E0
G92 E0
G1 F2400 E-4
;LAYER_COUNT:35
;LAYER:0
M107
G0 F4320 X6.4 Y6.857 Z0.263
;TYPE:SKIRT
G1 F2400 E0
G1 F1800 X6.864 Y6.421 E0.02437
G1 X7.379 Y6.046 E0.04875
G1 X7.936 Y5.739 E0.07309
G1 X8.528 Y5.504 E0.09746
G1 X9.145 Y5.345 E0.12185
G1 X9.777 Y5.264 E0.14623
G1 X10.101 Y5.254 E0.15864
G1 X60.101 Y5.254 E2.07213
G1 X60.737 Y5.294 E2.09652
G1 X61.362 Y5.413 E2.12087
G1 X61.968 Y5.61 E2.14526
G1 X62.544 Y5.881 E2.16962
G1 X63.082 Y6.222 E2.19399
G1 X63.573 Y6.628 E2.21838
G1 X64.009 Y7.092 E2.24274
G1 X64.384 Y7.607 E2.26712
G1 X64.691 Y8.164 E2.29146
G1 X64.926 Y8.756 E2.31584
G1 X65.085 Y9.373 E2.34022
G1 X65.166 Y10.005 E2.36461
G1 X65.176 Y10.329 E2.37701
G1 X65.176 Y22.09 E2.8271
G1 X70.376 Y22.09 E3.02611
G1 X71.012 Y22.13 E3.0505
G1 X71.637 Y22.249 E3.07484
G1 X72.243 Y22.446 E3.09923
G1 X72.819 Y22.717 E3.12359
G1 X73.357 Y23.058 E3.14797
G1 X73.848 Y23.464 E3.17235
G1 X74.284 Y23.928 E3.19672
G1 X74.659 Y24.443 E3.2211
G1 X74.966 Y25 E3.24544
G1 X75.201 Y25.592 E3.26981
G1 X75.36 Y26.209 E3.2942
G1 X75.441 Y26.841 E3.31858
G1 X75.451 Y27.165 E3.33099
G1 X75.451 Y57.165 E4.47909
G1 X75.411 Y57.801 E4.50347
G1 X75.292 Y58.426 E4.52782
G1 X75.095 Y59.032 E4.55221
G1 X74.824 Y59.608 E4.57657
G1 X74.483 Y60.146 E4.60095
G1 X74.077 Y60.637 E4.62533
G1 X73.613 Y61.073 E4.6497
G1 X73.098 Y61.448 E4.67408
G1 X72.541 Y61.755 E4.69842
G1 X71.949 Y61.99 E4.72279
G1 X71.332 Y62.149 E4.74718
G1 X70.7 Y62.23 E4.77156
G1 X70.376 Y62.24 E4.78396
G1 X67.397 Y62.24 E4.89797
G1 X67.431 Y62.37 E4.90311
G1 X67.512 Y63.002 E4.9275
G1 X67.522 Y63.326 E4.9399
G1 X67.522 Y71.326 E5.24606
G1 X67.482 Y71.962 E5.27045
G1 X67.363 Y72.587 E5.2948
G1 X67.166 Y73.193 E5.31919
G1 X66.895 Y73.769 E5.34355
G1 X66.554 Y74.307 E5.36792
G1 X66.148 Y74.798 E5.39231
G1 X65.684 Y75.234 E5.41667
G1 X65.169 Y75.609 E5.44105
G1 X64.612 Y75.916 E5.46539
G1 X64.02 Y76.151 E5.48977
G1 X63.403 Y76.31 E5.51415
G1 X62.771 Y76.391 E5.53854
G1 X62.447 Y76.401 E5.55094
G1 X32.447 Y76.401 E6.69904
G1 X31.811 Y76.361 E6.72343
G1 X31.186 Y76.242 E6.74778
G1 X30.58 Y76.045 E6.77216
G1 X30.004 Y75.774 E6.79652
G1 X29.466 Y75.433 E6.8209
G1 X28.975 Y75.027 E6.84528
G1 X28.539 Y74.563 E6.86965
G1 X28.164 Y74.048 E6.89403
G1 X27.857 Y73.491 E6.91837
G1 X27.622 Y72.899 E6.94275
G1 X27.463 Y72.282 E6.96713
G1 X27.382 Y71.65 E6.99151
G1 X27.372 Y71.326 E7.00392
G1 X27.372 Y65.404 E7.23055
G1 X10.101 Y65.404 E7.89151
G1 X9.465 Y65.364 E7.9159
G1 X8.84 Y65.245 E7.94025
G1 X8.234 Y65.048 E7.96464
G1 X7.658 Y64.777 E7.989
G1 X7.12 Y64.436 E8.01337
G1 X6.629 Y64.03 E8.03776
G1 X6.193 Y63.566 E8.06212
G1 X5.818 Y63.051 E8.0865
G1 X5.511 Y62.494 E8.11084
G1 X5.276 Y61.902 E8.13522
G1 X5.117 Y61.285 E8.1596
G1 X5.036 Y60.653 E8.18399
G1 X5.026 Y60.329 E8.19639
G1 X5.026 Y10.329 E10.10989
G1 X5.066 Y9.693 E10.13428
G1 X5.185 Y9.068 E10.15863
G1 X5.382 Y8.462 E10.18301
G1 X5.653 Y7.886 E10.20737
G1 X5.964 Y7.396 E10.22958
G0 F1620 X5.994 Y7.348
G0 X6.4 Y6.857
G0 F4320 X6.745 Y7.003
G1 F2400 E10.25614
G1 F1800 X7.205 Y6.596 E10.27965
G1 X7.714 Y6.251 E10.30318
G1 X8.263 Y5.976 E10.32668
G1 X8.844 Y5.774 E10.35022
G1 X9.445 Y5.65 E10.37371
G1 X10.101 Y5.604 E10.39887
G1 X60.101 Y5.604 E12.31237
G1 X60.714 Y5.644 E12.33588
G1 X61.317 Y5.763 E12.3594
G1 X61.899 Y5.96 E12.38291
G1 X62.451 Y6.23 E12.40643
G1 X62.963 Y6.57 E12.42995
G1 X63.427 Y6.973 E12.45347
G1 X63.834 Y7.433 E12.47698
G1 X64.179 Y7.942 E12.50051
G1 X64.454 Y8.491 E12.52401
G1 X64.656 Y9.072 E12.54755
G1 X64.78 Y9.673 E12.57103
G1 X64.826 Y10.329 E12.5962
G1 X64.826 Y22.44 E13.05969
G1 X70.376 Y22.44 E13.27209
G1 X70.989 Y22.48 E13.2956
G1 X71.592 Y22.599 E13.31912
G1 X72.174 Y22.796 E13.34263
G1 X72.726 Y23.066 E13.36615
G1 X73.238 Y23.406 E13.38967
G1 X73.702 Y23.809 E13.41319
G1 X74.109 Y24.269 E13.43669
G1 X74.454 Y24.778 E13.46023
G1 X74.729 Y25.327 E13.48373
G1 X74.931 Y25.908 E13.50727
G1 X75.055 Y26.509 E13.53075
G1 X75.101 Y27.165 E13.55592
G1 X75.101 Y57.165 E14.70402
G1 X75.061 Y57.778 E14.72753
G1 X74.942 Y58.381 E14.75105
G1 X74.745 Y58.963 E14.77456
G1 X74.475 Y59.515 E14.79808
G1 X74.135 Y60.027 E14.8216
G1 X73.732 Y60.491 E14.84512
G1 X73.272 Y60.898 E14.86862
G1 X72.763 Y61.243 E14.89216
G1 X72.214 Y61.518 E14.91566
G1 X71.633 Y61.72 E14.9392
G1 X71.032 Y61.844 E14.96268
G1 X70.376 Y61.89 E14.98785
G1 X66.94 Y61.89 E15.11934
G1 X67.002 Y62.069 E15.12659
G1 X67.126 Y62.67 E15.15008
G1 X67.172 Y63.326 E15.17524
G1 X67.172 Y71.326 E15.4814
G1 X67.132 Y71.939 E15.50491
G1 X67.013 Y72.542 E15.52843
G1 X66.816 Y73.124 E15.55195
G1 X66.546 Y73.676 E15.57547
G1 X66.206 Y74.188 E15.59899
G1 X65.803 Y74.652 E15.62251
G1 X65.343 Y75.059 E15.64601
G1 X64.834 Y75.404 E15.66954
G1 X64.285 Y75.679 E15.69304
G1 X63.704 Y75.881 E15.71658
G1 X63.103 Y76.005 E15.74007
G1 X62.447 Y76.051 E15.76524
G1 X32.447 Y76.051 E16.91333
G1 X31.834 Y76.011 E16.93684
G1 X31.231 Y75.892 E16.96036
G1 X30.649 Y75.695 E16.98388
G1 X30.097 Y75.425 E17.0074
G1 X29.585 Y75.085 E17.03092
G1 X29.121 Y74.682 E17.05444
G1 X28.714 Y74.222 E17.07794
G1 X28.369 Y73.713 E17.10147
G1 X28.094 Y73.164 E17.12497
G1 X27.892 Y72.583 E17.14851
G1 X27.768 Y71.982 E17.172
G1 X27.722 Y71.326 E17.19717
G1 X27.722 Y65.054 E17.43719
G1 X10.101 Y65.054 E18.11155
G1 X9.488 Y65.014 E18.13506
G1 X8.885 Y64.895 E18.15858
G1 X8.303 Y64.698 E18.18209
G1 X7.751 Y64.428 E18.20561
G1 X7.239 Y64.088 E18.22913
G1 X6.775 Y63.685 E18.25265
G1 X6.368 Y63.225 E18.27616
G1 X6.023 Y62.716 E18.29969
G1 X5.748 Y62.167 E18.32319
G1 X5.546 Y61.586 E18.34673
G1 X5.422 Y60.985 E18.37021
G1 X5.376 Y60.329 E18.39538
G1 X5.376 Y10.329 E20.30888
G1 X5.416 Y9.716 E20.33239
G1 X5.535 Y9.113 E20.35591
G1 X5.732 Y8.531 E20.37942
G1 X6.002 Y7.979 E20.40294
G1 X6.298 Y7.533 E20.42343
G0 F1620 X6.342 Y7.467
G0 X6.745 Y7.003
G0 F4320 X7.089 Y7.156
G1 F2400 E20.44998
G1 F1800 X7.545 Y6.779 E20.47263
G1 X8.047 Y6.466 E20.49527
G1 X8.586 Y6.225 E20.51786
G1 X9.154 Y6.058 E20.54052
G1 X9.738 Y5.969 E20.56313
G1 X10.101 Y5.954 E20.57703
G1 X60.101 Y5.954 E22.49053
G1 X60.691 Y5.994 E22.51316
G1 X61.27 Y6.113 E22.53578
G1 X61.828 Y6.309 E22.55842
G1 X62.354 Y6.579 E22.58104
G1 X62.839 Y6.917 E22.60367
G1 X63.274 Y7.317 E22.62628
G1 X63.651 Y7.773 E22.64892
G1 X63.964 Y8.275 E22.67156
G1 X64.205 Y8.814 E22.69416
G1 X64.372 Y9.382 E22.71682
G1 X64.461 Y9.966 E22.73943
G1 X64.476 Y10.329 E22.75333
G1 X64.476 Y22.79 E23.23021
G1 X70.376 Y22.79 E23.456
G1 X70.966 Y22.83 E23.47863
G1 X71.545 Y22.949 E23.50126
G1 X72.103 Y23.145 E23.52389
G1 X72.629 Y23.415 E23.54652
G1 X73.114 Y23.753 E23.56914
G1 X73.549 Y24.153 E23.59176
G1 X73.926 Y24.609 E23.6144
G1 X74.239 Y25.111 E23.63704
G1 X74.48 Y25.65 E23.65963
G1 X74.647 Y26.218 E23.68229
G1 X74.736 Y26.802 E23.7049
G1 X74.751 Y27.165 E23.7188
G1 X74.751 Y57.165 E24.8669
G1 X74.711 Y57.755 E24.88953
G1 X74.592 Y58.334 E24.91215
G1 X74.396 Y58.892 E24.93479
G1 X74.126 Y59.418 E24.95742
G1 X73.788 Y59.903 E24.98004
G1 X73.388 Y60.338 E25.00265
G1 X72.932 Y60.715 E25.0253
G1 X72.43 Y61.028 E25.04794
G1 X71.891 Y61.269 E25.07053
G1 X71.323 Y61.436 E25.09319
G1 X70.739 Y61.525 E25.1158
G1 X70.376 Y61.54 E25.1297
G1 X66.43 Y61.54 E25.28072
G1 X66.551 Y61.811 E25.29207
G1 X66.718 Y62.379 E25.31473
G1 X66.807 Y62.963 E25.33734
G1 X66.822 Y63.326 E25.35124
G1 X66.822 Y71.326 E25.6574
G1 X66.782 Y71.916 E25.68003
G1 X66.663 Y72.495 E25.70265
G1 X66.467 Y73.053 E25.72529
G1 X66.197 Y73.579 E25.74792
G1 X65.859 Y74.064 E25.77054
G1 X65.459 Y74.499 E25.79315
G1 X65.003 Y74.876 E25.8158
G1 X64.501 Y75.189 E25.83844
G1 X63.962 Y75.43 E25.86103
G1 X63.394 Y75.597 E25.88369
G1 X62.81 Y75.686 E25.9063
G1 X62.447 Y75.701 E25.9202
G1 X32.447 Y75.701 E27.0683
G1 X31.857 Y75.661 E27.09093
G1 X31.278 Y75.542 E27.11355
G1 X30.72 Y75.346 E27.13619
G1 X30.194 Y75.076 E27.15881
G1 X29.709 Y74.738 E27.18144
G1 X29.274 Y74.338 E27.20405
G1 X28.897 Y73.882 E27.2267
G1 X28.584 Y73.38 E27.24934
G1 X28.343 Y72.841 E27.27193
G1 X28.176 Y72.273 E27.29459
G1 X28.087 Y71.689 E27.3172
G1 X28.072 Y71.326 E27.3311
G1 X28.072 Y64.704 E27.58452
G1 X10.101 Y64.704 E28.27227
G1 X9.511 Y64.664 E28.2949
G1 X8.932 Y64.545 E28.31753
G1 X8.374 Y64.349 E28.34016
G1 X7.848 Y64.079 E28.36279
G1 X7.363 Y63.741 E28.38541
G1 X6.928 Y63.341 E28.40803
G1 X6.551 Y62.885 E28.43067
G1 X6.238 Y62.383 E28.45331
G1 X5.997 Y61.844 E28.4759
G1 X5.83 Y61.276 E28.49856
G1 X5.741 Y60.692 E28.52117
G1 X5.726 Y60.329 E28.53507
G1 X5.726 Y10.329 E30.44857
G1 X5.766 Y9.739 E30.4712
G1 X5.885 Y9.16 E30.49382
G1 X6.081 Y8.602 E30.51646
G1 X6.351 Y8.076 E30.53908
G1 X6.63 Y7.676 E30.55775
G0 F1620 X6.689 Y7.591
G0 X7.089 Y7.156
G0 F4320 X7.036 Y7.721
G1 F2400 E30.58431
G1 F1800 X7.433 Y7.316 E30.60601
G1 X7.883 Y6.97 E30.62773
G1 X8.377 Y6.692 E30.64943
G1 X8.905 Y6.486 E30.67112
G1 X9.457 Y6.356 E30.69282
G1 X10.101 Y6.304 E30.71755
G1 X60.101 Y6.304 E32.63104
G1 X60.667 Y6.344 E32.65276
G1 X61.221 Y6.463 E32.67444
G1 X61.753 Y6.659 E32.69614
G1 X62.253 Y6.927 E32.71785
G1 X62.709 Y7.264 E32.73955
G1 X63.114 Y7.661 E32.76125
G1 X63.46 Y8.111 E32.78298
G1 X63.738 Y8.605 E32.80467
G1 X63.944 Y9.133 E32.82636
G1 X64.074 Y9.685 E32.84806
G1 X64.126 Y10.329 E32.87279
G1 X64.126 Y23.14 E33.36307
G1 X70.376 Y23.14 E33.60225
G1 X70.942 Y23.18 E33.62397
G1 X71.496 Y23.299 E33.64565
G1 X72.028 Y23.495 E33.66735
G1 X72.528 Y23.763 E33.68906
G1 X72.984 Y24.1 E33.71076
G1 X73.389 Y24.497 E33.73247
G1 X73.735 Y24.947 E33.75419
G1 X74.013 Y25.441 E33.77588
G1 X74.219 Y25.969 E33.79757
G1 X74.349 Y26.521 E33.81927
G1 X74.401 Y27.165 E33.844
G1 X74.401 Y57.165 E34.9921
G1 X74.361 Y57.731 E35.01381
G1 X74.242 Y58.285 E35.0355
G1 X74.046 Y58.817 E35.0572
G1 X73.778 Y59.317 E35.07891
G1 X73.441 Y59.773 E35.10061
G1 X73.044 Y60.178 E35.12231
G1 X72.594 Y60.524 E35.14403
G1 X72.1 Y60.802 E35.16573
G1 X71.572 Y61.008 E35.18742
G1 X71.02 Y61.138 E35.20912
G1 X70.376 Y61.19 E35.23385
G1 X65.852 Y61.19 E35.40698
G1 X66.084 Y61.602 E35.42507
G1 X66.29 Y62.13 E35.44676
G1 X66.42 Y62.682 E35.46847
G1 X66.472 Y63.326 E35.49319
G1 X66.472 Y71.326 E35.79935
G1 X66.432 Y71.892 E35.82107
G1 X66.313 Y72.446 E35.84275
G1 X66.117 Y72.978 E35.86445
G1 X65.849 Y73.478 E35.88616
G1 X65.512 Y73.934 E35.90786
G1 X65.115 Y74.339 E35.92956
G1 X64.665 Y74.685 E35.95129
G1 X64.171 Y74.963 E35.97298
G1 X63.643 Y75.169 E35.99467
G1 X63.091 Y75.299 E36.01637
G1 X62.447 Y75.351 E36.0411
G1 X32.447 Y75.351 E37.1892
G1 X31.881 Y75.311 E37.21091
G1 X31.327 Y75.192 E37.2326
G1 X30.795 Y74.996 E37.2543
G1 X30.295 Y74.728 E37.27601
G1 X29.839 Y74.391 E37.29771
G1 X29.434 Y73.994 E37.31941
G1 X29.088 Y73.544 E37.34113
G1 X28.81 Y73.05 E37.36283
G1 X28.604 Y72.522 E37.38452
G1 X28.474 Y71.97 E37.40622
G1 X28.422 Y71.326 E37.43095
G1 X28.422 Y64.354 E37.69776
G1 X10.101 Y64.354 E38.39891
G1 X9.535 Y64.314 E38.42062
G1 X8.981 Y64.195 E38.44231
G1 X8.449 Y63.999 E38.46401
G1 X7.949 Y63.731 E38.48572
G1 X7.493 Y63.394 E38.50741
G1 X7.088 Y62.997 E38.52912
G1 X6.742 Y62.547 E38.55084
G1 X6.464 Y62.053 E38.57254
G1 X6.258 Y61.525 E38.59423
G1 X6.128 Y60.973 E38.61593
G1 X6.076 Y60.329 E38.64065
G1 X6.076 Y10.329 E40.55415
G1 X6.116 Y9.763 E40.57587
G1 X6.235 Y9.209 E40.59755
G1 X6.431 Y8.677 E40.61925
G1 X6.639 Y8.288 E40.63613
G0 F1620 X6.699 Y8.177
G0 X7.036 Y7.721
G0 F4320 X7.382 Y7.857
G1 F2400 E40.66269
G1 F1800 X7.775 Y7.484 E40.68343
G1 X8.219 Y7.173 E40.70417
G1 X8.703 Y6.93 E40.7249
G1 X9.218 Y6.762 E40.74563
G1 X9.752 Y6.671 E40.76636
G1 X10.101 Y6.654 E40.77973
G1 X60.101 Y6.654 E42.69323
G1 X60.641 Y6.694 E42.71395
G1 X61.17 Y6.813 E42.7347
G1 X61.675 Y7.008 E42.75542
G1 X62.147 Y7.276 E42.77619
G1 X62.573 Y7.61 E42.79691
G1 X62.946 Y8.003 E42.81764
G1 X63.257 Y8.447 E42.83839
G1 X63.5 Y8.931 E42.85911
G1 X63.668 Y9.446 E42.87985
G1 X63.759 Y9.98 E42.90058
G1 X63.776 Y10.329 E42.91395
G1 X63.776 Y23.49 E43.41762
G1 X70.376 Y23.49 E43.6702
G1 X70.916 Y23.53 E43.69092
G1 X71.445 Y23.649 E43.71167
G1 X71.95 Y23.844 E43.73239
G1 X72.422 Y24.112 E43.75316
G1 X72.848 Y24.446 E43.77388
G1 X73.221 Y24.839 E43.79462
G1 X73.532 Y25.283 E43.81536
G1 X73.775 Y25.767 E43.83609
G1 X73.943 Y26.282 E43.85682
G1 X74.034 Y26.816 E43.87755
G1 X74.051 Y27.165 E43.89092
G1 X74.051 Y57.165 E45.03902
G1 X74.011 Y57.705 E45.05974
G1 X73.892 Y58.234 E45.08049
G1 X73.697 Y58.739 E45.10121
G1 X73.429 Y59.211 E45.12198
G1 X73.095 Y59.637 E45.1427
G1 X72.702 Y60.01 E45.16343
G1 X72.258 Y60.321 E45.18418
G1 X71.774 Y60.564 E45.20491
G1 X71.259 Y60.732 E45.22564
G1 X70.725 Y60.823 E45.24637
G1 X70.376 Y60.84 E45.25974
G1 X65.14 Y60.84 E45.46012
G1 X65.292 Y61 E45.46857
G1 X65.603 Y61.444 E45.48931
G1 X65.846 Y61.928 E45.51004
G1 X66.014 Y62.443 E45.53077
G1 X66.105 Y62.977 E45.5515
G1 X66.122 Y63.326 E45.56487
G1 X66.122 Y71.326 E45.87103
G1 X66.082 Y71.866 E45.89175
G1 X65.963 Y72.395 E45.91251
G1 X65.768 Y72.9 E45.93322
G1 X65.5 Y73.372 E45.95399
G1 X65.166 Y73.798 E45.97471
G1 X64.773 Y74.171 E45.99545
G1 X64.329 Y74.482 E46.01619
G1 X63.845 Y74.725 E46.03692
G1 X63.33 Y74.893 E46.05765
G1 X62.796 Y74.984 E46.07838
G1 X62.447 Y75.001 E46.09175
G1 X32.447 Y75.001 E47.23985
G1 X31.907 Y74.961 E47.26057
G1 X31.378 Y74.842 E47.28132
G1 X30.873 Y74.647 E47.30204
G1 X30.401 Y74.379 E47.32281
G1 X29.975 Y74.045 E47.34353
G1 X29.602 Y73.652 E47.36427
G1 X29.291 Y73.208 E47.38501
G1 X29.048 Y72.724 E47.40574
G1 X28.88 Y72.209 E47.42647
G1 X28.789 Y71.675 E47.4472
G1 X28.772 Y71.326 E47.46057
G1 X28.772 Y64.004 E47.74078
G1 X10.101 Y64.004 E48.45532
G1 X9.561 Y63.964 E48.47604
G1 X9.032 Y63.845 E48.49679
G1 X8.527 Y63.65 E48.51751
G1 X8.055 Y63.382 E48.53828
G1 X7.629 Y63.048 E48.559
G1 X7.256 Y62.655 E48.57974
G1 X6.945 Y62.211 E48.60048
G1 X6.702 Y61.727 E48.62121
G1 X6.534 Y61.212 E48.64194
G1 X6.443 Y60.678 E48.66267
G1 X6.426 Y60.329 E48.67604
G1 X6.426 Y10.329 E50.58954
G1 X6.466 Y9.789 E50.61026
G1 X6.585 Y9.26 E50.63101
G1 X6.78 Y8.755 E50.65173
G1 X6.973 Y8.416 E50.66666
G0 F1620 X7.048 Y8.283
G0 X7.382 Y7.857
G0 F4320 X7.727 Y8.001
G1 F2400 E50.69322
G1 F1800 X8.116 Y7.662 E50.71296
G1 X8.552 Y7.387 E50.73269
G1 X9.025 Y7.183 E50.7524
G1 X9.524 Y7.054 E50.77213
G1 X10.101 Y7.004 E50.79429
G1 X60.101 Y7.004 E52.70779
G1 X60.615 Y7.044 E52.72752
G1 X61.116 Y7.163 E52.74723
G1 X61.593 Y7.358 E52.76695
G1 X62.035 Y7.624 E52.78669
G1 X62.429 Y7.955 E52.80638
G1 X62.768 Y8.344 E52.82613
G1 X63.043 Y8.78 E52.84586
G1 X63.247 Y9.253 E52.86557
G1 X63.376 Y9.752 E52.8853
G1 X63.426 Y10.329 E52.90746
G1 X63.426 Y23.84 E53.42453
G1 X70.376 Y23.84 E53.6905
G1 X70.89 Y23.88 E53.71023
G1 X71.391 Y23.999 E53.72994
G1 X71.868 Y24.194 E53.74966
G1 X72.31 Y24.46 E53.7694
G1 X72.704 Y24.791 E53.7891
G1 X73.043 Y25.18 E53.80884
G1 X73.318 Y25.616 E53.82857
G1 X73.522 Y26.089 E53.84828
G1 X73.651 Y26.588 E53.86801
G1 X73.701 Y27.165 E53.89017
G1 X73.701 Y57.165 E55.03827
G1 X73.661 Y57.679 E55.058
G1 X73.542 Y58.18 E55.07771
G1 X73.347 Y58.657 E55.09743
G1 X73.081 Y59.099 E55.11717
G1 X72.75 Y59.493 E55.13686
G1 X72.361 Y59.832 E55.15661
G1 X71.925 Y60.107 E55.17634
G1 X71.452 Y60.311 E55.19605
G1 X70.953 Y60.44 E55.21578
G1 X70.376 Y60.49 E55.23794
G1 X64.163 Y60.49 E55.47571
G1 X64.381 Y60.621 E55.48545
G1 X64.775 Y60.952 E55.50514
G1 X65.114 Y61.341 E55.52489
G1 X65.389 Y61.777 E55.54461
G1 X65.593 Y62.25 E55.56433
G1 X65.722 Y62.749 E55.58405
G1 X65.772 Y63.326 E55.60622
