;FLAVOR:Marlin
;TIME:1799
;Filament used: 0.668948m
;Layer height: 0.2625
;MINX:21.574
;MINY:12.288
;MINZ:0.263
;MAXX:73.558
;MAXY:60.192
;MAXZ:2.841
;Generated with Cura_SteamEngine 4.2.1
M140 S65
M105
M190 S65
M104 S235
M105
M109 S235
M82 ;absolute extrusion mode
G21;(metric values)
G90;(absolute positioning)
M82;(set extruder to absolute mode)
M107;(start with the fan off)
G28;(Home the printer)
G92 E0;(Reset the extruder to 0)
G0 Z5 E5 F500;(Move up and prime the nozzle)
G0 X-1 Z0;(Move outside the printable area)
G1 Y60 E8 F500;(Draw a priming/wiping line to the rear)
G1 X-1;(Move a little closer to the print area)
G1 Y10 E16 F500;(draw more priming/wiping)
G1 E15 F250;(Small retract)
G92 E0;(Zero the extruder)
G92 E0
G92 E0
G1 F2400 E-4
;LAYER_COUNT:7
;LAYER:0
M107
G0 F4320 X33.814 Y15.599 Z0.263
;TYPE:SKIRT
G1 F2400 E0
G1 F720 X34.085 Y15.023 E0.02436
G1 X34.426 Y14.485 E0.04874
G1 X34.944 Y13.877 E0.07931
G1 X35.047 Y13.774 E0.08488
G1 X35.525 Y13.353 E0.10926
G1 X36.052 Y12.995 E0.13364
G1 X36.619 Y12.706 E0.15799
G1 X37.218 Y12.49 E0.18236
G1 X37.84 Y12.351 E0.20675
G1 X38.636 Y12.288 E0.23731
G1 X48.478 Y12.288 E0.61396
G1 X49.114 Y12.328 E0.63835
G1 X49.739 Y12.447 E0.6627
G1 X50.345 Y12.644 E0.68709
G1 X50.931 Y12.92 E0.71188
G1 X70.936 Y23.964 E1.58638
G1 X71.473 Y24.306 E1.61075
G1 X71.963 Y24.713 E1.63513
G1 X72.398 Y25.178 E1.65949
G1 X72.772 Y25.694 E1.68388
G1 X73.078 Y26.252 E1.70824
G1 X73.312 Y26.845 E1.73264
G1 X73.469 Y27.462 E1.757
G1 X73.558 Y28.407 E1.79333
G1 X73.558 Y38.21 E2.16849
G1 X73.518 Y38.846 E2.19287
G1 X73.399 Y39.471 E2.21722
G1 X73.202 Y40.077 E2.24161
G1 X72.931 Y40.653 E2.26597
G1 X72.59 Y41.191 E2.29035
G1 X72.072 Y41.799 E2.32091
G1 X71.969 Y41.902 E2.32649
G1 X71.491 Y42.323 E2.35086
G1 X70.964 Y42.681 E2.37525
G1 X70.397 Y42.97 E2.3996
G1 X69.798 Y43.186 E2.42397
G1 X69.176 Y43.325 E2.44836
G1 X68.38 Y43.388 E2.47892
G1 X61.674 Y43.388 E2.73556
G1 X61.674 Y55.014 E3.18048
G1 X61.634 Y55.65 E3.20487
G1 X61.515 Y56.275 E3.22922
G1 X61.318 Y56.881 E3.25361
G1 X61.047 Y57.457 E3.27797
G1 X60.706 Y57.995 E3.30234
G1 X60.188 Y58.603 E3.33291
G1 X60.085 Y58.706 E3.33849
G1 X59.607 Y59.127 E3.36286
G1 X59.08 Y59.485 E3.38725
G1 X58.513 Y59.774 E3.4116
G1 X57.914 Y59.99 E3.43597
G1 X57.292 Y60.129 E3.46036
G1 X56.496 Y60.192 E3.49092
G1 X46.654 Y60.192 E3.86757
G1 X46.018 Y60.152 E3.89196
G1 X45.393 Y60.033 E3.91631
G1 X44.787 Y59.836 E3.94069
G1 X44.21 Y59.565 E3.96509
G1 X24.253 Y48.601 E4.83651
G1 X23.716 Y48.26 E4.86086
G1 X23.225 Y47.854 E4.88524
G1 X22.788 Y47.39 E4.90963
G1 X22.345 Y46.764 E4.93898
G1 X22.297 Y46.684 E4.94255
G1 X22.004 Y46.118 E4.96694
G1 X21.785 Y45.521 E4.99128
G1 X21.642 Y44.9 E5.01566
G1 X21.574 Y44.073 E5.04742
G1 X21.574 Y34.27 E5.42258
G1 X21.614 Y33.634 E5.44697
G1 X21.733 Y33.009 E5.47132
G1 X21.93 Y32.403 E5.4957
G1 X22.201 Y31.827 E5.52006
G1 X22.542 Y31.289 E5.54444
G1 X23.06 Y30.681 E5.57501
G1 X23.163 Y30.578 E5.58058
G1 X23.641 Y30.157 E5.60496
G1 X24.168 Y29.799 E5.62934
G1 X24.735 Y29.51 E5.6537
G1 X25.334 Y29.294 E5.67807
G1 X25.956 Y29.155 E5.70246
G1 X26.752 Y29.092 E5.73301
G1 X33.458 Y29.092 E5.98965
G1 X33.458 Y17.466 E6.43458
G1 X33.498 Y16.83 E6.45897
G1 X33.607 Y16.261 E6.48114
G0 F648 X33.617 Y16.205
G0 X33.814 Y15.599
G0 F4320 X34.164 Y15.668
G1 F2400 E6.5077
G1 F720 X34.434 Y15.116 E6.53121
G1 X34.774 Y14.604 E6.55474
G1 X35.192 Y14.125 E6.57907
G1 X35.295 Y14.022 E6.58464
G1 X35.757 Y13.617 E6.60815
G1 X36.267 Y13.275 E6.63165
G1 X36.818 Y13.002 E6.65519
G1 X37.399 Y12.803 E6.67869
G1 X38.002 Y12.681 E6.70223
G1 X38.636 Y12.638 E6.72655
G1 X48.478 Y12.638 E7.1032
G1 X49.091 Y12.678 E7.12671
G1 X49.694 Y12.797 E7.15024
G1 X50.276 Y12.994 E7.17375
G1 X50.762 Y13.226 E7.19436
G1 X70.767 Y24.27 E8.06887
G1 X71.284 Y24.602 E8.09238
G1 X71.754 Y24.998 E8.1159
G1 X72.169 Y25.451 E8.13941
G1 X72.522 Y25.954 E8.16293
G1 X72.806 Y26.499 E8.18645
G1 X73.017 Y27.076 E8.20996
G1 X73.151 Y27.676 E8.23349
G1 X73.208 Y28.407 E8.26155
G1 X73.208 Y38.21 E8.63671
G1 X73.168 Y38.823 E8.66022
G1 X73.049 Y39.426 E8.68374
G1 X72.852 Y40.008 E8.70726
G1 X72.582 Y40.56 E8.73077
G1 X72.242 Y41.072 E8.75429
G1 X71.824 Y41.551 E8.77862
G1 X71.721 Y41.654 E8.7842
G1 X71.259 Y42.059 E8.80771
G1 X70.749 Y42.401 E8.83121
G1 X70.198 Y42.674 E8.85474
G1 X69.617 Y42.873 E8.87825
G1 X69.014 Y42.995 E8.90179
G1 X68.38 Y43.038 E8.92611
G1 X61.324 Y43.038 E9.19614
G1 X61.324 Y55.014 E9.65446
G1 X61.284 Y55.627 E9.67797
G1 X61.165 Y56.23 E9.70149
G1 X60.968 Y56.812 E9.72501
G1 X60.698 Y57.364 E9.74852
G1 X60.358 Y57.876 E9.77205
G1 X59.94 Y58.355 E9.79638
G1 X59.837 Y58.458 E9.80195
G1 X59.375 Y58.863 E9.82546
G1 X58.865 Y59.205 E9.84896
G1 X58.314 Y59.478 E9.8725
G1 X57.733 Y59.677 E9.896
G1 X57.13 Y59.799 E9.91954
G1 X56.496 Y59.842 E9.94386
G1 X46.654 Y59.842 E10.32051
G1 X46.041 Y59.802 E10.34402
G1 X45.438 Y59.683 E10.36755
G1 X44.856 Y59.486 E10.39106
G1 X44.379 Y59.258 E10.41129
G1 X24.422 Y48.294 E11.28271
G1 X23.904 Y47.964 E11.30622
G1 X23.433 Y47.569 E11.32974
G1 X23.017 Y47.117 E11.35325
G1 X22.645 Y46.584 E11.37813
G1 X22.597 Y46.504 E11.3817
G1 X22.316 Y45.958 E11.4052
G1 X22.108 Y45.379 E11.42874
G1 X21.977 Y44.779 E11.45225
G1 X21.924 Y44.073 E11.47934
G1 X21.924 Y34.27 E11.8545
G1 X21.964 Y33.657 E11.87801
G1 X22.083 Y33.054 E11.90153
G1 X22.28 Y32.472 E11.92505
G1 X22.55 Y31.92 E11.94856
G1 X22.89 Y31.408 E11.97208
G1 X23.308 Y30.929 E11.99641
G1 X23.411 Y30.826 E12.00199
G1 X23.873 Y30.421 E12.0255
G1 X24.383 Y30.079 E12.049
G1 X24.934 Y29.806 E12.07253
G1 X25.515 Y29.607 E12.09604
G1 X26.118 Y29.485 E12.11958
G1 X26.752 Y29.442 E12.1439
G1 X33.808 Y29.442 E12.41393
G1 X33.808 Y17.466 E12.87225
G1 X33.848 Y16.853 E12.89576
G1 X33.952 Y16.328 E12.91625
G0 F648 X33.967 Y16.25
G0 X34.164 Y15.668
G0 F4320 X34.513 Y15.739
G1 F2400 E12.94281
G1 F720 X34.783 Y15.213 E12.96543
G1 X35.121 Y14.728 E12.98806
G1 X35.439 Y14.372 E13.00632
G1 X35.542 Y14.269 E13.0119
G1 X35.988 Y13.881 E13.03452
G1 X36.482 Y13.555 E13.05717
G1 X37.015 Y13.3 E13.07978
G1 X37.577 Y13.118 E13.10239
G1 X38.159 Y13.014 E13.12502
G1 X38.636 Y12.988 E13.1433
G1 X48.478 Y12.988 E13.51995
G1 X49.068 Y13.028 E13.54258
G1 X49.647 Y13.147 E13.56521
G1 X50.205 Y13.343 E13.58784
G1 X50.592 Y13.533 E13.60434
G1 X70.597 Y24.577 E14.47885
G1 X71.095 Y24.897 E14.5015
G1 X71.544 Y25.281 E14.52411
G1 X71.938 Y25.722 E14.54674
G1 X72.268 Y26.213 E14.56938
G1 X72.529 Y26.743 E14.59199
G1 X72.717 Y27.304 E14.61463
G1 X72.827 Y27.885 E14.63726
G1 X72.858 Y28.407 E14.65728
G1 X72.858 Y38.21 E15.03244
G1 X72.818 Y38.8 E15.05507
G1 X72.699 Y39.379 E15.07769
G1 X72.503 Y39.937 E15.10032
G1 X72.233 Y40.463 E15.12295
G1 X71.895 Y40.948 E15.14557
G1 X71.577 Y41.304 E15.16384
G1 X71.474 Y41.407 E15.16942
G1 X71.028 Y41.795 E15.19204
G1 X70.534 Y42.121 E15.21469
G1 X70.001 Y42.376 E15.2373
G1 X69.439 Y42.558 E15.25991
G1 X68.857 Y42.662 E15.28254
G1 X68.38 Y42.688 E15.30082
G1 X60.974 Y42.688 E15.58424
G1 X60.974 Y55.014 E16.05596
G1 X60.934 Y55.604 E16.07859
G1 X60.815 Y56.183 E16.10121
G1 X60.619 Y56.741 E16.12385
G1 X60.349 Y57.267 E16.14647
G1 X60.011 Y57.752 E16.1691
G1 X59.693 Y58.108 E16.18736
G1 X59.59 Y58.211 E16.19294
G1 X59.144 Y58.599 E16.21556
G1 X58.65 Y58.925 E16.23821
G1 X58.117 Y59.18 E16.26083
G1 X57.555 Y59.362 E16.28343
G1 X56.973 Y59.466 E16.30606
G1 X56.496 Y59.492 E16.32434
G1 X46.654 Y59.492 E16.70099
G1 X46.064 Y59.452 E16.72362
G1 X45.485 Y59.333 E16.74625
G1 X44.927 Y59.137 E16.76888
G1 X44.547 Y58.951 E16.78507
G1 X24.59 Y47.987 E17.65649
G1 X24.093 Y47.668 E17.67909
G1 X23.642 Y47.285 E17.70174
G1 X23.248 Y46.845 E17.72434
G1 X22.945 Y46.404 E17.74482
G1 X22.897 Y46.324 E17.74839
G1 X22.628 Y45.798 E17.771
G1 X22.432 Y45.24 E17.79363
G1 X22.314 Y44.66 E17.81628
G1 X22.274 Y44.073 E17.8388
G1 X22.274 Y34.27 E18.21396
G1 X22.314 Y33.68 E18.23659
G1 X22.433 Y33.101 E18.25921
G1 X22.629 Y32.543 E18.28185
G1 X22.899 Y32.017 E18.30447
G1 X23.237 Y31.532 E18.3271
G1 X23.555 Y31.176 E18.34536
G1 X23.658 Y31.073 E18.35094
G1 X24.104 Y30.685 E18.37356
G1 X24.598 Y30.359 E18.39621
G1 X25.131 Y30.104 E18.41883
G1 X25.693 Y29.922 E18.44143
G1 X26.275 Y29.818 E18.46406
G1 X26.752 Y29.792 E18.48234
G1 X34.158 Y29.792 E18.76577
G1 X34.158 Y17.466 E19.23748
G1 X34.198 Y16.876 E19.26011
G1 X34.297 Y16.397 E19.27883
G0 F648 X34.317 Y16.297
G0 X34.513 Y15.739
G0 F4320 X34.863 Y15.814
G1 F2400 E19.30539
G1 F720 X35.131 Y15.314 E19.3271
G1 X35.468 Y14.858 E19.3488
G1 X35.687 Y14.62 E19.36118
G1 X35.79 Y14.517 E19.36675
G1 X36.218 Y14.145 E19.38846
G1 X36.694 Y13.837 E19.41015
G1 X37.209 Y13.599 E19.43187
G1 X37.752 Y13.436 E19.45356
G1 X38.313 Y13.351 E19.47528
G1 X38.636 Y13.338 E19.48765
G1 X48.478 Y13.338 E19.8643
G1 X49.044 Y13.378 E19.88602
G1 X49.598 Y13.497 E19.9077
G1 X50.13 Y13.693 E19.9294
G1 X50.423 Y13.839 E19.94193
G1 X70.428 Y24.883 E20.81643
G1 X70.904 Y25.192 E20.83815
G1 X71.332 Y25.564 E20.85985
G1 X71.703 Y25.993 E20.88156
G1 X72.011 Y26.469 E20.90326
G1 X72.248 Y26.984 E20.92495
G1 X72.411 Y27.527 E20.94665
G1 X72.495 Y28.088 E20.96836
G1 X72.508 Y28.407 E20.98058
G1 X72.508 Y38.21 E21.35574
G1 X72.468 Y38.776 E21.37745
G1 X72.349 Y39.33 E21.39914
G1 X72.153 Y39.862 E21.42083
G1 X71.885 Y40.362 E21.44254
G1 X71.548 Y40.818 E21.46424
G1 X71.329 Y41.056 E21.47662
G1 X71.226 Y41.159 E21.4822
G1 X70.798 Y41.531 E21.5039
G1 X70.322 Y41.839 E21.5256
G1 X69.807 Y42.077 E21.54731
G1 X69.264 Y42.24 E21.569
G1 X68.703 Y42.325 E21.59072
G1 X68.38 Y42.338 E21.60309
G1 X60.624 Y42.338 E21.89991
G1 X60.624 Y55.014 E22.38502
G1 X60.584 Y55.58 E22.40674
G1 X60.465 Y56.134 E22.42842
G1 X60.269 Y56.666 E22.45012
G1 X60.001 Y57.166 E22.47183
G1 X59.664 Y57.622 E22.49353
G1 X59.445 Y57.86 E22.50591
G1 X59.342 Y57.963 E22.51148
G1 X58.914 Y58.335 E22.53318
G1 X58.438 Y58.643 E22.55488
G1 X57.923 Y58.881 E22.57659
G1 X57.38 Y59.044 E22.59829
G1 X56.819 Y59.129 E22.62
G1 X56.496 Y59.142 E22.63237
G1 X46.654 Y59.142 E23.00903
G1 X46.088 Y59.102 E23.03074
G1 X45.534 Y58.983 E23.05243
G1 X45.002 Y58.787 E23.07412
G1 X44.716 Y58.645 E23.08634
G1 X24.759 Y47.681 E23.95777
G1 X24.282 Y47.373 E23.9795
G1 X23.854 Y47.002 E24.00117
G1 X23.482 Y46.574 E24.02287
G1 X23.246 Y46.224 E24.03903
G1 X23.198 Y46.144 E24.0426
G1 X22.941 Y45.638 E24.06432
G1 X22.758 Y45.102 E24.08599
G1 X22.652 Y44.544 E24.10773
G1 X22.624 Y44.073 E24.12579
G1 X22.624 Y34.27 E24.50095
G1 X22.664 Y33.704 E24.52266
G1 X22.783 Y33.15 E24.54435
G1 X22.979 Y32.618 E24.56604
G1 X23.247 Y32.118 E24.58775
G1 X23.584 Y31.662 E24.60945
G1 X23.803 Y31.424 E24.62183
G1 X23.906 Y31.321 E24.62741
G1 X24.334 Y30.949 E24.64911
G1 X24.81 Y30.641 E24.67081
G1 X25.325 Y30.403 E24.69252
G1 X25.868 Y30.24 E24.71421
G1 X26.429 Y30.155 E24.73593
G1 X26.752 Y30.142 E24.7483
G1 X34.508 Y30.142 E25.04512
G1 X34.508 Y17.466 E25.53023
G1 X34.548 Y16.9 E25.55195
G1 X34.641 Y16.471 E25.56875
G0 F648 X34.667 Y16.346
G0 X34.863 Y15.814
G0 F4320 X35.212 Y15.892
G1 F2400 E25.5953
G1 F720 X35.48 Y15.42 E25.61608
G1 X35.934 Y14.867 E25.64346
G1 X36.037 Y14.764 E25.64903
G1 X36.448 Y14.411 E25.66977
G1 X36.906 Y14.121 E25.69051
G1 X37.401 Y13.902 E25.71123
G1 X37.924 Y13.758 E25.73199
G1 X38.636 Y13.688 E25.75937
G1 X48.478 Y13.688 E26.13602
G1 X49.018 Y13.728 E26.15674
G1 X49.547 Y13.847 E26.17749
G1 X50.254 Y14.146 E26.20687
G1 X70.259 Y25.19 E27.08138
G1 X70.713 Y25.486 E27.10212
G1 X71.118 Y25.845 E27.12283
G1 X71.466 Y26.261 E27.14359
G1 X71.749 Y26.723 E27.16432
G1 X71.961 Y27.221 E27.18504
G1 X72.098 Y27.746 E27.2058
G1 X72.158 Y28.407 E27.2312
G1 X72.158 Y38.21 E27.60636
G1 X72.118 Y38.75 E27.62708
G1 X71.999 Y39.279 E27.64783
G1 X71.804 Y39.784 E27.66855
G1 X71.536 Y40.256 E27.68932
G1 X71.082 Y40.809 E27.7167
G1 X70.979 Y40.912 E27.72228
G1 X70.568 Y41.265 E27.74301
G1 X70.11 Y41.555 E27.76376
G1 X69.615 Y41.774 E27.78447
G1 X69.092 Y41.918 E27.80523
G1 X68.38 Y41.988 E27.83261
G1 X60.274 Y41.988 E28.14283
G1 X60.274 Y55.014 E28.64133
G1 X60.234 Y55.554 E28.66206
G1 X60.115 Y56.083 E28.68281
G1 X59.92 Y56.588 E28.70352
G1 X59.652 Y57.06 E28.7243
G1 X59.198 Y57.613 E28.75168
G1 X59.095 Y57.716 E28.75725
G1 X58.684 Y58.069 E28.77799
G1 X58.226 Y58.359 E28.79873
G1 X57.731 Y58.578 E28.81945
G1 X57.208 Y58.722 E28.84021
G1 X56.496 Y58.792 E28.86759
G1 X46.654 Y58.792 E29.24424
G1 X46.114 Y58.752 E29.26496
G1 X45.585 Y58.633 E29.28571
G1 X44.884 Y58.338 E29.31482
G1 X24.927 Y47.374 E30.18624
G1 X24.473 Y47.079 E30.20696
G1 X24.067 Y46.72 E30.2277
G1 X23.718 Y46.305 E30.24845
G1 X23.546 Y46.044 E30.26042
G1 X23.498 Y45.964 E30.26399
G1 X23.254 Y45.48 E30.28473
G1 X23.084 Y44.965 E30.30548
G1 X22.992 Y44.431 E30.32622
G1 X22.974 Y44.073 E30.33994
G1 X22.974 Y34.27 E30.7151
G1 X23.014 Y33.73 E30.73582
G1 X23.133 Y33.201 E30.75657
G1 X23.328 Y32.696 E30.77729
G1 X23.596 Y32.224 E30.79806
G1 X24.05 Y31.671 E30.82544
G1 X24.153 Y31.568 E30.83102
G1 X24.564 Y31.215 E30.85175
G1 X25.022 Y30.925 E30.8725
G1 X25.517 Y30.706 E30.89321
G1 X26.04 Y30.562 E30.91397
G1 X26.752 Y30.492 E30.94135
G1 X34.858 Y30.492 E31.25157
G1 X34.858 Y17.466 E31.75007
G1 X34.898 Y16.926 E31.77079
G1 X34.984 Y16.546 E31.78571
G0 F648 X35.017 Y16.397
G0 X35.212 Y15.892
G0 F4320 X35.367 Y16.451
G1 F2400 E31.81226
G1 F720 X35.562 Y15.974 E31.83199
G1 X35.828 Y15.532 E31.85173
G1 X36.182 Y15.115 E31.87266
G1 X36.285 Y15.012 E31.87824
G1 X36.676 Y14.677 E31.89794
G1 X37.115 Y14.406 E31.91768
G1 X37.59 Y14.207 E31.93739
G1 X38.091 Y14.083 E31.95715
G1 X38.636 Y14.038 E31.97807
G1 X48.478 Y14.038 E32.35473
G1 X48.992 Y14.078 E32.37446
G1 X49.493 Y14.197 E32.39416
G1 X50.085 Y14.452 E32.41883
G1 X70.09 Y25.496 E33.29334
G1 X70.521 Y25.779 E33.31307
G1 X70.902 Y26.126 E33.33279
G1 X71.226 Y26.527 E33.35252
G1 X71.483 Y26.973 E33.37222
G1 X71.669 Y27.454 E33.39196
G1 X71.778 Y27.958 E33.41169
G1 X71.808 Y28.407 E33.42891
G1 X71.808 Y38.21 E33.80407
G1 X71.768 Y38.724 E33.8238
G1 X71.649 Y39.225 E33.84351
G1 X71.454 Y39.702 E33.86323
G1 X71.188 Y40.144 E33.88297
G1 X70.834 Y40.561 E33.90391
G1 X70.731 Y40.664 E33.90948
G1 X70.34 Y40.999 E33.92919
G1 X69.901 Y41.27 E33.94893
G1 X69.426 Y41.469 E33.96864
G1 X68.925 Y41.593 E33.98839
G1 X68.38 Y41.638 E34.00932
G1 X59.924 Y41.638 E34.33293
G1 X59.924 Y55.014 E34.84483
G1 X59.884 Y55.528 E34.86456
G1 X59.765 Y56.029 E34.88427
G1 X59.57 Y56.506 E34.90399
G1 X59.304 Y56.948 E34.92373
G1 X58.95 Y57.365 E34.94466
G1 X58.847 Y57.468 E34.95024
G1 X58.456 Y57.803 E34.96994
G1 X58.017 Y58.074 E34.98969
G1 X57.542 Y58.273 E35.0094
G1 X57.041 Y58.397 E35.02915
G1 X56.496 Y58.442 E35.05008
G1 X46.654 Y58.442 E35.42673
G1 X46.14 Y58.402 E35.44646
G1 X45.639 Y58.283 E35.46616
G1 X45.053 Y58.031 E35.49058
G1 X25.096 Y47.067 E36.362
G1 X24.665 Y46.785 E36.38171
G1 X24.283 Y46.439 E36.40143
G1 X23.846 Y45.864 E36.42907
G1 X23.798 Y45.784 E36.43264
G1 X23.568 Y45.323 E36.45236
G1 X23.412 Y44.831 E36.47211
G1 X23.324 Y44.073 E36.50132
G1 X23.324 Y34.27 E36.87648
G1 X23.364 Y33.756 E36.89621
G1 X23.483 Y33.255 E36.91591
G1 X23.678 Y32.778 E36.93563
G1 X23.944 Y32.336 E36.95538
G1 X24.298 Y31.919 E36.97631
G1 X24.401 Y31.816 E36.98189
G1 X24.792 Y31.481 E37.00159
G1 X25.231 Y31.21 E37.02133
G1 X25.706 Y31.011 E37.04104
G1 X26.207 Y30.887 E37.06079
G1 X26.752 Y30.842 E37.08172
G1 X35.208 Y30.842 E37.40533
G1 X35.208 Y17.466 E37.91723
G1 X35.235 Y17.131 E37.93009
G0 F648 X35.248 Y16.952
G0 X35.367 Y16.451
G0 F4320 X35.717 Y16.507
G1 F2400 E37.95665
G1 F720 X35.911 Y16.06 E37.9753
G1 X36.176 Y15.651 E37.99395
G1 X36.429 Y15.362 E38.00865
G1 X36.532 Y15.259 E38.01423
G1 X36.904 Y14.944 E38.03288
G1 X37.322 Y14.694 E38.05152
G1 X37.776 Y14.515 E38.0702
G1 X38.252 Y14.413 E38.08883
G1 X38.636 Y14.388 E38.10355
G1 X48.478 Y14.388 E38.48021
G1 X48.964 Y14.428 E38.49887
G1 X49.437 Y14.547 E38.51753
G1 X49.916 Y14.759 E38.53758
G1 X69.921 Y25.803 E39.41209
G1 X70.327 Y26.072 E39.43073
G1 X70.683 Y26.405 E39.44938
G1 X70.981 Y26.791 E39.46804
G1 X71.211 Y27.22 E39.48667
G1 X71.368 Y27.682 E39.50535
G1 X71.448 Y28.163 E39.52401
G1 X71.458 Y28.407 E39.53335
