;FLAVOR:Marlin
;TIME:8789
;Filament used: 3.8482m
;Layer height: 0.2625
;MINX:24.95
;MINY:34.95
;MINZ:0.263
;MAXX:95.05
;MAXY:85.05
;MAXZ:33.927
;Generated with Cura_SteamEngine 4.2.1
M140 S65
M105
M190 S65
M104 S235
M105
M109 S235
M82 ;absolute extrusion mode
G21;(metric values)
G90;(absolute positioning)
M82;(set extruder to absolute mode)
M107;(start with the fan off)
G28;(Home the printer)
G92 E0;(Reset the extruder to 0)
G0 Z5 E5 F500;(Move up and prime the nozzle)
G0 X-1 Z0;(Move outside the printable area)
G1 Y60 E8 F500;(Draw a priming/wiping line to the rear)
G1 X-1;(Move a little closer to the print area)
G1 Y10 E16 F500;(draw more priming/wiping)
G1 E15 F250;(Small retract)
G92 E0;(Zero the extruder)
G92 E0
G92 E0
G1 F2400 E-4
;LAYER_COUNT:129
;LAYER:0
M107
G0 F4320 X27.017 Y36.015 Z0.263
;TYPE:SKIRT
G1 F2400 E0
G1 F720 X27.544 Y35.657 E0.02438
G1 X28.111 Y35.368 E0.04874
G1 X28.71 Y35.152 E0.07311
G1 X29.332 Y35.013 E0.0975
G1 X30.128 Y34.95 E0.12805
G1 X89.872 Y34.95 E2.41445
G1 X90.508 Y34.99 E2.43884
G1 X91.133 Y35.109 E2.46319
G1 X91.739 Y35.306 E2.48758
G1 X92.315 Y35.577 E2.51194
G1 X92.853 Y35.918 E2.53631
G1 X93.344 Y36.324 E2.5607
G1 X93.78 Y36.788 E2.58506
G1 X94.155 Y37.303 E2.60944
G1 X94.462 Y37.86 E2.63378
G1 X94.697 Y38.452 E2.65816
G1 X94.856 Y39.069 E2.68254
G1 X94.947 Y40.012 E2.7188
G1 X95.05 Y79.859 E4.24375
G1 X95.012 Y80.495 E4.26813
G1 X94.894 Y81.121 E4.29251
G1 X94.699 Y81.727 E4.31687
G1 X94.429 Y82.304 E4.34125
G1 X94.09 Y82.843 E4.36562
G1 X93.564 Y83.461 E4.39668
G1 X93.461 Y83.564 E4.40225
G1 X92.983 Y83.985 E4.42663
G1 X92.456 Y84.343 E4.45101
G1 X91.889 Y84.632 E4.47537
G1 X91.29 Y84.848 E4.49973
G1 X90.668 Y84.987 E4.52412
G1 X89.872 Y85.05 E4.55468
G1 X30.128 Y85.05 E6.84108
G1 X29.492 Y85.01 E6.86547
G1 X28.867 Y84.891 E6.88982
G1 X28.261 Y84.694 E6.9142
G1 X27.685 Y84.423 E6.93857
G1 X27.147 Y84.082 E6.96294
G1 X26.539 Y83.564 E6.99351
G1 X26.436 Y83.461 E6.99909
G1 X26.015 Y82.983 E7.02346
G1 X25.657 Y82.456 E7.04784
G1 X25.368 Y81.889 E7.0722
G1 X25.152 Y81.29 E7.09657
G1 X25.013 Y80.668 E7.12096
G1 X24.95 Y79.872 E7.15152
G1 X24.95 Y40.128 E8.67252
G1 X24.99 Y39.492 E8.6969
G1 X25.109 Y38.867 E8.72125
G1 X25.306 Y38.261 E8.74564
G1 X25.577 Y37.685 E8.77
G1 X25.918 Y37.147 E8.79438
G1 X26.436 Y36.539 E8.82495
G1 X26.498 Y36.477 E8.8283
G0 F648 X26.539 Y36.436
G0 X27.017 Y36.015
G0 F4320 X27.249 Y36.279
G1 F2400 E8.85486
G1 F720 X27.759 Y35.937 E8.87836
G1 X28.31 Y35.664 E8.90189
G1 X28.891 Y35.465 E8.9254
G1 X29.494 Y35.343 E8.94894
G1 X30.128 Y35.3 E8.97326
G1 X89.872 Y35.3 E11.25966
G1 X90.485 Y35.34 E11.28317
G1 X91.088 Y35.459 E11.30669
G1 X91.67 Y35.656 E11.3302
G1 X92.222 Y35.926 E11.35372
G1 X92.734 Y36.266 E11.37724
G1 X93.198 Y36.669 E11.40076
G1 X93.605 Y37.129 E11.42427
G1 X93.95 Y37.638 E11.4478
G1 X94.225 Y38.187 E11.4713
G1 X94.427 Y38.768 E11.49484
G1 X94.551 Y39.369 E11.51832
G1 X94.597 Y40.013 E11.54303
G1 X94.7 Y79.86 E13.06798
G1 X94.662 Y80.473 E13.09148
G1 X94.544 Y81.076 E13.115
G1 X94.349 Y81.659 E13.13852
G1 X94.08 Y82.211 E13.16202
G1 X93.742 Y82.724 E13.18554
G1 X93.316 Y83.213 E13.21035
G1 X93.213 Y83.316 E13.21593
G1 X92.751 Y83.721 E13.23944
G1 X92.241 Y84.063 E13.26294
G1 X91.69 Y84.336 E13.28647
G1 X91.109 Y84.535 E13.30998
G1 X90.506 Y84.657 E13.33352
G1 X89.872 Y84.7 E13.35784
G1 X30.128 Y84.7 E15.64424
G1 X29.515 Y84.66 E15.66775
G1 X28.912 Y84.541 E15.69127
G1 X28.33 Y84.344 E15.71479
G1 X27.778 Y84.074 E15.7383
G1 X27.266 Y83.734 E15.76182
G1 X26.787 Y83.316 E15.78615
G1 X26.684 Y83.213 E15.79173
G1 X26.279 Y82.751 E15.81524
G1 X25.937 Y82.241 E15.83874
G1 X25.664 Y81.69 E15.86227
G1 X25.465 Y81.109 E15.88578
G1 X25.343 Y80.506 E15.90932
G1 X25.3 Y79.872 E15.93364
G1 X25.3 Y40.128 E17.45464
G1 X25.34 Y39.515 E17.47815
G1 X25.459 Y38.912 E17.50167
G1 X25.656 Y38.33 E17.52519
G1 X25.926 Y37.778 E17.5487
G1 X26.266 Y37.266 E17.57222
G1 X26.684 Y36.787 E17.59655
G1 X26.731 Y36.74 E17.5991
G0 F648 X26.787 Y36.684
G0 X27.249 Y36.279
G0 F4320 X27.48 Y36.543
G1 F2400 E17.62566
G1 F720 X27.974 Y36.217 E17.64831
G1 X28.507 Y35.962 E17.67092
G1 X29.069 Y35.78 E17.69353
G1 X29.651 Y35.676 E17.71615
G1 X30.128 Y35.65 E17.73443
G1 X89.872 Y35.65 E20.02083
G1 X90.462 Y35.69 E20.04347
G1 X91.041 Y35.809 E20.06609
G1 X91.599 Y36.005 E20.08872
G1 X92.125 Y36.275 E20.11135
G1 X92.61 Y36.613 E20.13397
G1 X93.045 Y37.013 E20.15659
G1 X93.422 Y37.469 E20.17923
G1 X93.735 Y37.971 E20.20187
G1 X93.976 Y38.51 E20.22447
G1 X94.143 Y39.078 E20.24712
G1 X94.232 Y39.662 E20.26973
G1 X94.247 Y40.014 E20.28321
G1 X94.35 Y79.861 E21.80816
G1 X94.312 Y80.451 E21.83079
G1 X94.194 Y81.03 E21.8534
G1 X93.999 Y81.588 E21.87602
G1 X93.731 Y82.115 E21.89865
G1 X93.394 Y82.601 E21.92128
G1 X93.069 Y82.966 E21.93998
G1 X92.966 Y83.069 E21.94556
G1 X92.52 Y83.457 E21.96818
G1 X92.026 Y83.783 E21.99083
G1 X91.493 Y84.038 E22.01345
G1 X90.931 Y84.22 E22.03605
G1 X90.349 Y84.324 E22.05868
G1 X89.872 Y84.35 E22.07696
G1 X30.128 Y84.35 E24.36336
G1 X29.538 Y84.31 E24.38599
G1 X28.959 Y84.191 E24.40861
G1 X28.401 Y83.995 E24.43125
G1 X27.875 Y83.725 E24.45387
G1 X27.39 Y83.387 E24.4765
G1 X27.034 Y83.069 E24.49477
G1 X26.931 Y82.966 E24.50034
G1 X26.543 Y82.52 E24.52296
G1 X26.217 Y82.026 E24.54561
G1 X25.962 Y81.493 E24.56823
G1 X25.78 Y80.931 E24.59083
G1 X25.676 Y80.349 E24.61346
G1 X25.65 Y79.872 E24.63174
G1 X25.65 Y40.128 E26.15274
G1 X25.69 Y39.538 E26.17537
G1 X25.809 Y38.959 E26.19799
G1 X26.005 Y38.401 E26.22063
G1 X26.275 Y37.875 E26.24326
G1 X26.613 Y37.39 E26.26588
G1 X26.931 Y37.034 E26.28415
G1 X26.961 Y37.004 E26.28577
G0 F648 X27.034 Y36.931
G0 X27.48 Y36.543
G0 F4320 X27.71 Y36.807
G1 F2400 E26.31233
G1 F720 X28.186 Y36.499 E26.33403
G1 X28.701 Y36.261 E26.35574
G1 X29.244 Y36.098 E26.37744
G1 X29.805 Y36.013 E26.39915
G1 X30.128 Y36 E26.41152
G1 X89.872 Y36 E28.69792
G1 X90.438 Y36.04 E28.71964
G1 X90.992 Y36.159 E28.74132
G1 X91.524 Y36.355 E28.76302
G1 X92.024 Y36.623 E28.78473
G1 X92.48 Y36.96 E28.80643
G1 X92.885 Y37.357 E28.82813
G1 X93.231 Y37.807 E28.84986
G1 X93.509 Y38.301 E28.87155
G1 X93.715 Y38.829 E28.89324
G1 X93.845 Y39.381 E28.91494
G1 X93.897 Y40.015 E28.93929
G1 X94 Y79.862 E30.46423
G1 X93.961 Y80.427 E30.48591
G1 X93.844 Y80.982 E30.50762
G1 X93.649 Y81.515 E30.52934
G1 X93.382 Y82.015 E30.55103
G1 X93.047 Y82.473 E30.57274
G1 X92.821 Y82.718 E30.5855
G1 X92.718 Y82.821 E30.59107
G1 X92.29 Y83.193 E30.61278
G1 X91.814 Y83.501 E30.63447
G1 X91.299 Y83.739 E30.65619
G1 X90.756 Y83.902 E30.67788
G1 X90.195 Y83.987 E30.6996
G1 X89.872 Y84 E30.71197
G1 X30.128 Y84 E32.99837
G1 X29.562 Y83.96 E33.02008
G1 X29.008 Y83.841 E33.04177
G1 X28.476 Y83.645 E33.06346
G1 X27.976 Y83.377 E33.08517
G1 X27.52 Y83.04 E33.10687
G1 X27.282 Y82.821 E33.11925
G1 X27.179 Y82.718 E33.12483
G1 X26.807 Y82.29 E33.14653
G1 X26.499 Y81.814 E33.16823
G1 X26.261 Y81.299 E33.18994
G1 X26.098 Y80.756 E33.21163
G1 X26.013 Y80.195 E33.23335
G1 X26 Y79.872 E33.24572
G1 X26 Y40.128 E34.76672
G1 X26.04 Y39.562 E34.78844
G1 X26.159 Y39.008 E34.81012
G1 X26.355 Y38.476 E34.83182
G1 X26.623 Y37.976 E34.85353
G1 X26.96 Y37.52 E34.87523
G1 X27.179 Y37.282 E34.88761
G1 X27.192 Y37.269 E34.88831
G0 F648 X27.282 Y37.179
G0 X27.71 Y36.807
G0 F4320 X27.94 Y37.073
G1 F2400 E34.91487
G1 F720 X28.398 Y36.783 E34.93561
G1 X28.893 Y36.564 E34.95633
G1 X29.416 Y36.42 E34.97709
G1 X30.128 Y36.35 E35.00447
G1 X89.872 Y36.35 E37.29087
G1 X90.412 Y36.39 E37.31159
G1 X90.941 Y36.509 E37.33234
G1 X91.446 Y36.704 E37.35306
G1 X91.918 Y36.972 E37.37383
G1 X92.344 Y37.306 E37.39455
G1 X92.717 Y37.699 E37.41528
G1 X93.028 Y38.143 E37.43603
G1 X93.271 Y38.627 E37.45675
G1 X93.439 Y39.142 E37.47749
G1 X93.53 Y39.676 E37.49822
G1 X93.547 Y40.016 E37.51124
G1 X93.65 Y79.863 E39.03619
G1 X93.611 Y80.403 E39.05691
G1 X93.494 Y80.932 E39.07765
G1 X93.3 Y81.438 E39.09838
G1 X93.033 Y81.91 E39.11914
G1 X92.574 Y82.471 E39.14688
G1 X92.471 Y82.574 E39.15245
G1 X92.06 Y82.927 E39.17319
G1 X91.602 Y83.217 E39.19393
G1 X91.107 Y83.436 E39.21465
G1 X90.584 Y83.58 E39.23541
G1 X89.872 Y83.65 E39.26279
G1 X30.128 Y83.65 E41.54919
G1 X29.588 Y83.61 E41.56991
G1 X29.059 Y83.491 E41.59066
G1 X28.554 Y83.296 E41.61138
G1 X28.082 Y83.028 E41.63215
G1 X27.529 Y82.574 E41.65953
G1 X27.426 Y82.471 E41.6651
G1 X27.073 Y82.06 E41.68584
G1 X26.783 Y81.602 E41.70658
G1 X26.564 Y81.107 E41.7273
G1 X26.42 Y80.584 E41.74806
G1 X26.35 Y79.872 E41.77544
G1 X26.35 Y40.128 E43.29644
G1 X26.39 Y39.588 E43.31716
G1 X26.509 Y39.059 E43.33791
G1 X26.704 Y38.554 E43.35863
G1 X26.972 Y38.082 E43.3794
G1 X27.421 Y37.535 E43.40648
G0 F648 X27.426 Y37.529
G0 X27.529 Y37.426
G0 X27.94 Y37.073
G0 F4320 X28.168 Y37.339
G1 F2400 E43.43304
G1 F720 X28.607 Y37.068 E43.45279
G1 X29.082 Y36.869 E43.4725
G1 X29.583 Y36.745 E43.49225
G1 X30.128 Y36.7 E43.51318
G1 X89.872 Y36.7 E45.79958
G1 X90.386 Y36.74 E45.81931
G1 X90.887 Y36.859 E45.83901
G1 X91.364 Y37.054 E45.85873
G1 X91.806 Y37.32 E45.87848
G1 X92.2 Y37.651 E45.89817
G1 X92.539 Y38.04 E45.91792
G1 X92.814 Y38.476 E45.93764
G1 X93.018 Y38.949 E45.95736
G1 X93.147 Y39.448 E45.97708
G1 X93.197 Y40.016 E45.9989
G1 X93.3 Y79.863 E47.52385
G1 X93.261 Y80.377 E47.54358
G1 X93.144 Y80.879 E47.5633
G1 X92.95 Y81.357 E47.58305
G1 X92.685 Y81.799 E47.60277
G1 X92.326 Y82.223 E47.62403
G1 X92.223 Y82.326 E47.6296
G1 X91.832 Y82.661 E47.64931
G1 X91.393 Y82.932 E47.66905
G1 X90.918 Y83.131 E47.68876
G1 X90.417 Y83.255 E47.70851
G1 X89.872 Y83.3 E47.72944
G1 X30.128 Y83.3 E50.01584
G1 X29.614 Y83.26 E50.03557
G1 X29.113 Y83.141 E50.05528
G1 X28.636 Y82.946 E50.075
G1 X28.194 Y82.68 E50.09474
G1 X27.777 Y82.326 E50.11568
G1 X27.674 Y82.223 E50.12125
G1 X27.339 Y81.832 E50.14095
G1 X27.068 Y81.393 E50.1607
G1 X26.869 Y80.918 E50.18041
G1 X26.745 Y80.417 E50.20016
G1 X26.7 Y79.872 E50.22109
G1 X26.7 Y40.128 E51.74209
G1 X26.74 Y39.614 E51.76182
G1 X26.859 Y39.113 E51.78152
G1 X27.054 Y38.636 E51.80125
G1 X27.32 Y38.194 E51.82099
G1 X27.652 Y37.803 E51.84062
G0 F648 X27.674 Y37.777
G0 X27.777 Y37.674
G0 X28.168 Y37.339
G0 F4320 X28.396 Y37.606
G1 F2400 E51.86718
G1 F720 X28.814 Y37.356 E51.88582
G1 X29.268 Y37.177 E51.90449
G1 X29.744 Y37.075 E51.92312
G1 X30.128 Y37.05 E51.93785
G1 X89.872 Y37.05 E54.22425
G1 X90.358 Y37.09 E54.24291
G1 X90.831 Y37.209 E54.26158
G1 X91.278 Y37.403 E54.28023
G1 X91.687 Y37.668 E54.29888
G1 X92.047 Y37.996 E54.31751
G1 X92.35 Y38.378 E54.33617
G1 X92.585 Y38.805 E54.35483
G1 X92.748 Y39.264 E54.37347
G1 X92.834 Y39.744 E54.39213
G1 X92.847 Y40.017 E54.40259
G1 X92.95 Y79.864 E55.92754
G1 X92.911 Y80.35 E55.9462
G1 X92.794 Y80.823 E55.96484
G1 X92.601 Y81.271 E55.98351
G1 X92.337 Y81.681 E56.00217
G1 X92.079 Y81.976 E56.01717
G1 X91.976 Y82.079 E56.02275
G1 X91.604 Y82.394 E56.0414
G1 X91.186 Y82.644 E56.06004
G1 X90.732 Y82.823 E56.07872
G1 X90.256 Y82.925 E56.09735
G1 X89.872 Y82.95 E56.11207
G1 X30.128 Y82.95 E58.39847
G1 X29.642 Y82.91 E58.41714
G1 X29.169 Y82.791 E58.4358
G1 X28.722 Y82.597 E58.45445
G1 X28.313 Y82.332 E58.4731
G1 X28.024 Y82.079 E58.4878
G1 X27.921 Y81.976 E58.49337
G1 X27.606 Y81.604 E58.51203
G1 X27.356 Y81.186 E58.53067
G1 X27.177 Y80.732 E58.54934
G1 X27.075 Y80.256 E58.56797
G1 X27.05 Y79.872 E58.5827
G1 X27.05 Y40.128 E60.1037
G1 X27.09 Y39.642 E60.12236
G1 X27.209 Y39.169 E60.14103
G1 X27.403 Y38.722 E60.15968
G1 X27.668 Y38.313 E60.17833
G1 X27.881 Y38.07 E60.1907
G0 F648 X27.921 Y38.024
G0 X28.024 Y37.921
G0 X28.396 Y37.606
G0 F4320 X28.623 Y37.875
G1 F2400 E60.21725
G1 F720 X29.019 Y37.646 E60.23476
G1 X29.449 Y37.489 E60.25228
G1 X30.128 Y37.4 E60.27849
G1 X89.872 Y37.4 E62.56489
G1 X90.328 Y37.44 E62.5824
G1 X90.77 Y37.558 E62.59991
G1 X91.185 Y37.752 E62.61744
G1 X91.56 Y38.015 E62.63497
G1 X91.884 Y38.339 E62.65251
G1 X92.146 Y38.714 E62.67002
G1 X92.339 Y39.129 E62.68753
G1 X92.457 Y39.571 E62.70504
G1 X92.497 Y40.018 E62.72221
G1 X92.6 Y79.865 E64.24716
G1 X92.561 Y80.321 E64.26468
G1 X92.444 Y80.764 E64.28221
G1 X92.251 Y81.179 E64.29973
G1 X91.99 Y81.555 E64.31724
G1 X91.831 Y81.728 E64.32624
G1 X91.728 Y81.831 E64.33181
G1 X91.377 Y82.125 E64.34933
G1 X90.981 Y82.354 E64.36684
G1 X90.551 Y82.511 E64.38436
G1 X89.872 Y82.6 E64.41056
G1 X30.128 Y82.6 E66.69696
G1 X29.672 Y82.56 E66.71448
G1 X29.23 Y82.442 E66.73199
G1 X28.815 Y82.248 E66.74952
G1 X28.272 Y81.831 E66.77572
G1 X28.169 Y81.728 E66.7813
G1 X27.875 Y81.377 E66.79882
G1 X27.646 Y80.981 E66.81633
G1 X27.489 Y80.551 E66.83384
G1 X27.4 Y79.872 E66.86005
G1 X27.4 Y40.128 E68.38105
G1 X27.44 Y39.672 E68.39857
G1 X27.558 Y39.23 E68.41608
G1 X27.752 Y38.815 E68.43361
G1 X28.113 Y38.345 E68.45629
G0 F648 X28.169 Y38.272
G0 X28.272 Y38.169
G0 X28.623 Y37.875
G0 F4320 X28.848 Y38.145
G1 F2400 E68.48285
G1 F720 X29.221 Y37.939 E68.49916
G1 X29.626 Y37.806 E68.51547
G1 X30.128 Y37.75 E68.5348
G1 X89.872 Y37.75 E70.8212
G1 X90.296 Y37.79 E70.8375
G1 X90.706 Y37.908 E70.85383
G1 X91.086 Y38.101 E70.87014
G1 X91.423 Y38.361 E70.88643
G1 X91.706 Y38.679 E70.90272
G1 X91.925 Y39.045 E70.91904
G1 X92.072 Y39.445 E70.93535
G1 X92.147 Y40.019 E70.9575
G1 X92.25 Y79.866 E72.48245
G1 X92.211 Y80.29 E72.49875
G1 X92.094 Y80.7 E72.51506
G1 X91.902 Y81.081 E72.53139
G1 X91.584 Y81.481 E72.55095
G1 X91.481 Y81.584 E72.55652
G1 X91.152 Y81.855 E72.57283
G1 X90.779 Y82.061 E72.58914
G1 X90.374 Y82.194 E72.60545
G1 X89.872 Y82.25 E72.62478
G1 X30.128 Y82.25 E74.91118
G1 X29.704 Y82.21 E74.92748
G1 X29.294 Y82.092 E74.94381
G1 X28.914 Y81.899 E74.96012
G1 X28.519 Y81.584 E74.97946
G1 X28.416 Y81.481 E74.98503
G1 X28.145 Y81.152 E75.00134
G1 X27.939 Y80.779 E75.01765
G1 X27.806 Y80.374 E75.03396
G1 X27.75 Y79.872 E75.05329
G1 X27.75 Y40.128 E76.57429
G1 X27.79 Y39.704 E76.59059
G1 X27.908 Y39.294 E76.60692
G1 X28.101 Y38.914 E76.62323
G1 X28.34 Y38.615 E76.63788
G0 F648 X28.416 Y38.519
G0 X28.519 Y38.416
G0 X28.848 Y38.145
G0 F4320 X29.071 Y38.416
G1 F2400 E76.66444
G1 F720 X29.418 Y38.236 E76.6794
G1 X29.796 Y38.129 E76.69443
G1 X30.128 Y38.1 E76.70719
G1 X89.872 Y38.1 E78.99359
G1 X90.262 Y38.14 E79.00859
G1 X90.636 Y38.258 E79.0236
G1 X90.978 Y38.449 E79.03859
G1 X91.274 Y38.706 E79.05359
G1 X91.512 Y39.017 E79.06858
G1 X91.682 Y39.37 E79.08357
G1 X91.777 Y39.75 E79.09856
G1 X91.797 Y40.02 E79.10893
G1 X91.9 Y79.867 E80.63387
G1 X91.861 Y80.257 E80.64887
G1 X91.744 Y80.631 E80.66387
G1 X91.554 Y80.974 E80.67888
G1 X91.336 Y81.233 E80.69183
G1 X91.233 Y81.336 E80.69741
G1 X90.929 Y81.584 E80.71242
G1 X90.582 Y81.764 E80.72738
G1 X90.204 Y81.871 E80.74242
G1 X89.872 Y81.9 E80.75517
G1 X30.128 Y81.9 E83.04157
G1 X29.738 Y81.86 E83.05657
G1 X29.364 Y81.742 E83.07158
G1 X29.022 Y81.551 E83.08657
G1 X28.767 Y81.336 E83.09934
G1 X28.664 Y81.233 E83.10491
G1 X28.416 Y80.929 E83.11993
G1 X28.236 Y80.582 E83.13489
G1 X28.129 Y80.204 E83.14992
G1 X28.1 Y79.872 E83.16267
G1 X28.1 Y40.128 E84.68367
G1 X28.14 Y39.738 E84.69868
G1 X28.258 Y39.364 E84.71369
G1 X28.449 Y39.022 E84.72868
G1 X28.563 Y38.887 E84.73544
G0 F648 X28.664 Y38.767
G0 X28.767 Y38.664
G0 X29.071 Y38.416
G0 F4320 X29.292 Y38.69
G1 F2400 E84.762
G1 F720 X29.611 Y38.537 E84.77554
G1 X30.128 Y38.45 E84.7956
G1 X89.872 Y38.45 E87.082
G1 X90.224 Y38.49 E87.09556
G1 X90.558 Y38.607 E87.1091
G1 X90.858 Y38.797 E87.12269
G1 X91.108 Y39.048 E87.13625
G1 X91.295 Y39.349 E87.14981
G1 X91.41 Y39.685 E87.1634
G1 X91.447 Y40.021 E87.17634
G1 X91.55 Y79.868 E88.70129
G1 X91.511 Y80.22 E88.71484
G1 X91.394 Y80.555 E88.72842
G1 X91.089 Y80.986 E88.74863
G1 X90.986 Y81.089 E88.7542
G1 X90.708 Y81.31 E88.76779
G1 X90.389 Y81.463 E88.78133
G1 X89.872 Y81.55 E88.8014
G1 X30.128 Y81.55 E91.0878
G1 X29.776 Y81.51 E91.10135
G1 X29.442 Y81.393 E91.1149
G1 X29.014 Y81.089 E91.13499
G1 X28.911 Y80.986 E91.14056
G1 X28.69 Y80.708 E91.15415
G1 X28.537 Y80.389 E91.16769
G1 X28.45 Y79.872 E91.18776
G1 X28.45 Y40.128 E92.70876
G1 X28.49 Y39.776 E92.72232
G1 X28.607 Y39.442 E92.73586
G1 X28.799 Y39.172 E92.74854
G0 F648 X28.911 Y39.014
G0 X29.014 Y38.911
G0 X29.292 Y38.69
G0 F4320 X29.262 Y39.159
G1 F2400 E92.7751
G1 F720 X29.509 Y38.968 E92.78705
