;FLAVOR:Marlin
;TIME:7822
;Filament used: 4.56367m
;Layer height: 0.2625
;MINX:7.781
;MINY:5.658
;MINZ:0.263
;MAXX:81.166
;MAXY:95.531
;MAXZ:5.786
;Generated with Cura_SteamEngine 4.2.1
M140 S65
M105
M190 S65
M104 S190
M105
M109 S190
M82 ;absolute extrusion mode
G21;(metric values)
G90;(absolute positioning)
M82;(set extruder to absolute mode)
M107;(start with the fan off)
G28;(Home the printer)
G92 E0;(Reset the extruder to 0)
G0 Z5 E5 F500;(Move up and prime the nozzle)
G0 X-1 Z0;(Move outside the printable area)
G1 Y60 E8 F500;(Draw a priming/wiping line to the rear)
G1 X-1;(Move a little closer to the print area)
G1 Y10 E16 F500;(draw more priming/wiping)
G1 E15 F250;(Small retract)
G92 E0;(Zero the extruder)
M141 S28
G92 E0
G92 E0
G1 F2400 E-2.5
;LAYER_COUNT:22
;LAYER:0
M107
G0 F4320 X8.749 Y7.856 Z0.263
;TYPE:SKIRT
G1 F2400 E0
G1 F1080 X9.267 Y7.248 E0.03057
G1 X9.37 Y7.145 E0.03614
G1 X9.848 Y6.724 E0.06052
G1 X10.375 Y6.366 E0.0849
G1 X10.942 Y6.077 E0.10926
G1 X11.541 Y5.861 E0.13362
G1 X12.163 Y5.722 E0.15802
G1 X12.959 Y5.659 E0.18857
G1 X75.423 Y5.659 E2.57907
G1 X75.979 Y5.658 E2.60035
G1 X76.615 Y5.697 E2.62473
G1 X77.24 Y5.815 E2.64907
G1 X77.846 Y6.011 E2.67345
G1 X78.423 Y6.28 E2.69781
G1 X78.962 Y6.621 E2.72222
G1 X79.453 Y7.025 E2.74655
G1 X79.89 Y7.489 E2.77095
G1 X80.266 Y8.003 E2.79532
G1 X80.574 Y8.56 E2.81968
G1 X80.81 Y9.152 E2.84407
G1 X80.97 Y9.768 E2.86842
G1 X81.052 Y10.4 E2.89281
G1 X81.063 Y10.726 E2.90529
G1 X81.166 Y90.346 E5.95235
G1 X81.127 Y90.982 E5.97674
G1 X81.008 Y91.608 E6.00112
G1 X80.813 Y92.214 E6.02548
G1 X80.542 Y92.791 E6.04988
G1 X80.202 Y93.329 E6.07424
G1 X79.797 Y93.82 E6.09859
G1 X79.333 Y94.257 E6.12299
G1 X78.819 Y94.632 E6.14734
G1 X78.261 Y94.94 E6.17173
G1 X77.67 Y95.176 E6.19608
G1 X77.053 Y95.336 E6.22048
G1 X76.107 Y95.428 E6.25685
G1 X44.278 Y95.531 E7.47495
G1 X44.196 Y95.531 E7.47809
G1 X39.747 Y95.473 E7.64837
G1 X39.619 Y95.469 E7.65327
G1 X35.392 Y95.307 E7.81515
G1 X35.223 Y95.298 E7.82163
G1 X29.445 Y94.884 E8.04332
G1 X29.218 Y94.863 E8.05204
G1 X24.168 Y94.272 E8.24663
G1 X23.909 Y94.235 E8.25664
G1 X19.959 Y93.565 E8.40996
G1 X19.632 Y93.498 E8.42274
G1 X16.634 Y92.784 E8.54068
G1 X16.222 Y92.667 E8.55707
G1 X14.103 Y91.969 E8.64245
G1 X13.592 Y91.77 E8.66344
G1 X12.425 Y91.24 E8.71249
G1 X11.859 Y90.938 E8.73704
G1 X11.078 Y90.456 E8.77216
G1 X10.46 Y90.007 E8.8014
G1 X10.071 Y89.677 E8.82092
G1 X9.518 Y89.13 E8.85069
G1 X9.291 Y88.868 E8.86395
G1 X8.797 Y88.191 E8.89603
G1 X8.643 Y87.939 E8.90733
G1 X8.345 Y87.376 E8.93171
G1 X8.188 Y86.984 E8.94787
G1 X8.1 Y86.735 E8.95797
G1 X7.926 Y86.122 E8.98236
G1 X7.846 Y85.648 E9.00076
G1 X7.817 Y85.406 E9.01008
G1 X7.781 Y84.802 E9.03324
G1 X7.781 Y10.837 E11.86388
G1 X7.821 Y10.201 E11.88827
G1 X7.94 Y9.576 E11.91261
G1 X8.137 Y8.97 E11.937
G1 X8.384 Y8.446 E11.95917
G0 F972 X8.408 Y8.394
G0 X8.749 Y7.856
G0 F4320 X9.097 Y7.975
G1 F2400 E11.98573
G1 F1080 X9.515 Y7.496 E12.01006
G1 X9.618 Y7.393 E12.01563
G1 X10.08 Y6.988 E12.03915
G1 X10.59 Y6.646 E12.06265
G1 X11.141 Y6.373 E12.08618
G1 X11.722 Y6.174 E12.10968
G1 X12.325 Y6.052 E12.13323
G1 X12.959 Y6.009 E12.15754
G1 X75.424 Y6.009 E14.54808
G1 X75.98 Y6.008 E14.56935
G1 X76.593 Y6.047 E14.59286
G1 X77.196 Y6.165 E14.61638
G1 X77.778 Y6.36 E14.63987
G1 X78.331 Y6.63 E14.66342
G1 X78.843 Y6.968 E14.6869
G1 X79.308 Y7.371 E14.71044
G1 X79.716 Y7.83 E14.73395
G1 X80.061 Y8.338 E14.75745
G1 X80.338 Y8.887 E14.78098
G1 X80.54 Y9.467 E14.80448
G1 X80.666 Y10.069 E14.82802
G1 X80.713 Y10.727 E14.85327
G1 X80.816 Y90.347 E17.90032
G1 X80.777 Y90.96 E17.92383
G1 X80.658 Y91.563 E17.94735
G1 X80.463 Y92.146 E17.97088
G1 X80.193 Y92.698 E17.9944
G1 X79.854 Y93.21 E18.0179
G1 X79.452 Y93.675 E18.04142
G1 X78.992 Y94.083 E18.06495
G1 X78.484 Y94.428 E18.08845
G1 X77.934 Y94.704 E18.112
G1 X77.354 Y94.906 E18.13551
G1 X76.753 Y95.031 E18.159
G1 X76.106 Y95.078 E18.18382
G1 X44.277 Y95.181 E19.40192
G1 X44.2 Y95.181 E19.40487
G1 X39.751 Y95.123 E19.57515
G1 X39.632 Y95.12 E19.5797
G1 X35.405 Y94.958 E19.74159
G1 X35.248 Y94.949 E19.74761
G1 X29.47 Y94.535 E19.9693
G1 X29.259 Y94.515 E19.97741
G1 X24.209 Y93.924 E20.17199
G1 X23.968 Y93.889 E20.18131
G1 X20.018 Y93.219 E20.33464
G1 X19.713 Y93.157 E20.34655
G1 X16.715 Y92.443 E20.46449
G1 X16.332 Y92.335 E20.47972
G1 X14.213 Y91.637 E20.5651
G1 X13.737 Y91.451 E20.58466
G1 X12.57 Y90.921 E20.63371
G1 X12.042 Y90.64 E20.6566
G1 X11.261 Y90.158 E20.69172
G1 X10.686 Y89.74 E20.71893
G1 X10.297 Y89.41 E20.73845
G1 X9.783 Y88.901 E20.76613
G1 X9.556 Y88.639 E20.7794
G1 X9.095 Y88.009 E20.80927
G1 X8.941 Y87.757 E20.82058
G1 X8.656 Y87.213 E20.84408
G1 X8.518 Y86.867 E20.85834
G1 X8.43 Y86.618 E20.86844
G1 X8.263 Y86.027 E20.89195
G1 X8.194 Y85.606 E20.90827
G1 X8.165 Y85.364 E20.9176
G1 X8.131 Y84.802 E20.93915
G1 X8.131 Y10.837 E23.76978
G1 X8.171 Y10.224 E23.79329
G1 X8.29 Y9.621 E23.81681
G1 X8.487 Y9.039 E23.84033
G1 X8.722 Y8.558 E23.86082
G0 F972 X8.757 Y8.487
G0 X9.097 Y7.975
G0 F4320 X9.444 Y8.099
G1 F2400 E23.88738
G1 F1080 X9.762 Y7.743 E23.90564
G1 X9.865 Y7.64 E23.91122
G1 X10.311 Y7.252 E23.93384
G1 X10.805 Y6.926 E23.95649
G1 X11.338 Y6.671 E23.9791
G1 X11.9 Y6.489 E24.00171
G1 X12.482 Y6.385 E24.02434
G1 X12.959 Y6.359 E24.04262
G1 X75.424 Y6.359 E26.43315
G1 X75.98 Y6.358 E26.45443
G1 X76.57 Y6.397 E26.47706
G1 X77.149 Y6.515 E26.49967
G1 X77.708 Y6.71 E26.52233
G1 X78.234 Y6.979 E26.54494
G1 X78.72 Y7.316 E26.56757
G1 X79.156 Y7.716 E26.59022
G1 X79.534 Y8.17 E26.61282
G1 X79.847 Y8.672 E26.63546
G1 X80.09 Y9.211 E26.65809
G1 X80.257 Y9.778 E26.68071
G1 X80.347 Y10.362 E26.70333
G1 X80.363 Y10.727 E26.71731
G1 X80.466 Y90.347 E29.76436
G1 X80.427 Y90.937 E29.78699
G1 X80.308 Y91.517 E29.80965
G1 X80.113 Y92.075 E29.83227
G1 X79.844 Y92.601 E29.85488
G1 X79.507 Y93.087 E29.87751
G1 X79.107 Y93.522 E29.90013
G1 X78.652 Y93.9 E29.92277
G1 X78.15 Y94.213 E29.94541
G1 X77.611 Y94.455 E29.96802
G1 X77.044 Y94.623 E29.99065
G1 X76.46 Y94.712 E30.01326
G1 X76.105 Y94.728 E30.02686
G1 X44.276 Y94.831 E31.24496
G1 X44.205 Y94.831 E31.24767
G1 X39.756 Y94.773 E31.41795
G1 X39.645 Y94.77 E31.4222
G1 X35.418 Y94.608 E31.58409
G1 X35.273 Y94.6 E31.58965
G1 X29.495 Y94.186 E31.81134
G1 X29.299 Y94.167 E31.81887
G1 X24.249 Y93.576 E32.01345
G1 X24.026 Y93.544 E32.02208
G1 X20.076 Y92.874 E32.1754
G1 X19.794 Y92.817 E32.18641
G1 X16.796 Y92.103 E32.30435
G1 X16.441 Y92.002 E32.31848
G1 X14.322 Y91.304 E32.40386
G1 X13.882 Y91.132 E32.42194
G1 X12.715 Y90.602 E32.47099
G1 X12.226 Y90.342 E32.49218
G1 X11.445 Y89.86 E32.52731
G1 X10.913 Y89.473 E32.55248
G1 X10.524 Y89.143 E32.57201
G1 X10.047 Y88.672 E32.59766
G1 X9.82 Y88.41 E32.61093
G1 X9.394 Y87.826 E32.63859
G1 X9.24 Y87.574 E32.64989
G1 X8.966 Y87.05 E32.67252
G1 X8.848 Y86.751 E32.68482
G1 X8.76 Y86.502 E32.69493
G1 X8.601 Y85.932 E32.71758
G1 X8.541 Y85.565 E32.73181
G1 X8.512 Y85.323 E32.74114
G1 X8.481 Y84.802 E32.76111
G1 X8.481 Y10.837 E35.59175
G1 X8.521 Y10.247 E35.61438
G1 X8.64 Y9.668 E35.637
G1 X8.836 Y9.11 E35.65963
G1 X9.059 Y8.675 E35.67834
G0 F972 X9.106 Y8.584
G0 X9.444 Y8.099
G0 F4320 X9.454 Y8.685
G1 F2400 E35.7049
G1 F1080 X9.791 Y8.229 E35.7266
G1 X10.01 Y7.991 E35.73898
G1 X10.113 Y7.888 E35.74455
G1 X10.541 Y7.516 E35.76625
G1 X11.017 Y7.208 E35.78795
G1 X11.532 Y6.97 E35.80966
G1 X12.075 Y6.807 E35.83136
G1 X12.636 Y6.722 E35.85307
G1 X12.959 Y6.709 E35.86545
G1 X75.425 Y6.709 E38.25602
G1 X75.981 Y6.708 E38.27729
G1 X76.547 Y6.747 E38.29901
G1 X77.101 Y6.865 E38.32068
G1 X77.634 Y7.06 E38.3424
G1 X78.134 Y7.328 E38.36411
G1 X78.591 Y7.663 E38.3858
G1 X78.997 Y8.059 E38.4075
G1 X79.343 Y8.509 E38.42923
G1 X79.622 Y9.002 E38.45091
G1 X79.829 Y9.53 E38.47261
G1 X79.96 Y10.082 E38.49432
G1 X80.013 Y10.728 E38.51913
G1 X80.116 Y90.348 E41.56618
G1 X80.077 Y90.914 E41.58789
G1 X79.958 Y91.468 E41.60958
G1 X79.763 Y92.001 E41.6313
G1 X79.495 Y92.5 E41.65298
G1 X79.16 Y92.958 E41.67469
G1 X78.763 Y93.363 E41.6964
G1 X78.314 Y93.709 E41.71809
G1 X77.82 Y93.988 E41.7398
G1 X77.292 Y94.195 E41.76151
G1 X76.74 Y94.325 E41.78321
G1 X76.104 Y94.378 E41.80763
G1 X44.275 Y94.481 E43.02573
G1 X44.21 Y94.481 E43.02822
G1 X39.761 Y94.423 E43.1985
G1 X39.659 Y94.42 E43.2024
G1 X35.432 Y94.258 E43.36429
G1 X35.298 Y94.251 E43.36942
G1 X29.52 Y93.837 E43.59111
G1 X29.34 Y93.82 E43.59803
G1 X24.29 Y93.229 E43.79262
G1 X24.085 Y93.199 E43.80054
G1 X20.135 Y92.529 E43.95387
G1 X19.875 Y92.476 E43.96402
G1 X16.877 Y91.762 E44.08197
G1 X16.551 Y91.67 E44.09493
G1 X14.432 Y90.972 E44.18031
G1 X14.027 Y90.814 E44.19695
G1 X12.86 Y90.284 E44.246
G1 X12.41 Y90.044 E44.26552
G1 X11.629 Y89.562 E44.30064
G1 X11.139 Y89.206 E44.32382
G1 X10.75 Y88.876 E44.34334
G1 X10.312 Y88.443 E44.36691
G1 X10.085 Y88.181 E44.38018
G1 X9.693 Y87.644 E44.40562
G1 X9.539 Y87.392 E44.41692
G1 X9.178 Y86.634 E44.44905
G1 X9.09 Y86.385 E44.45916
G1 X8.939 Y85.839 E44.48084
G1 X8.889 Y85.523 E44.49308
G1 X8.86 Y85.281 E44.50241
G1 X8.831 Y84.802 E44.52078
G1 X8.831 Y10.837 E47.35141
G1 X8.871 Y10.271 E47.37313
G1 X8.99 Y9.717 E47.39481
G1 X9.143 Y9.304 E47.41167
G0 F972 X9.186 Y9.185
G0 X9.454 Y8.685
G0 F4320 X9.803 Y8.791
G1 F2400 E47.43823
G1 F1080 X10.257 Y8.238 E47.46561
G1 X10.36 Y8.135 E47.47118
G1 X10.771 Y7.782 E47.49192
G1 X11.229 Y7.492 E47.51266
G1 X11.724 Y7.273 E47.53338
G1 X12.247 Y7.129 E47.55414
G1 X12.959 Y7.059 E47.58152
G1 X75.425 Y7.059 E49.97209
G1 X75.981 Y7.058 E49.99337
G1 X76.522 Y7.097 E50.01412
G1 X77.051 Y7.215 E50.03487
G1 X77.556 Y7.409 E50.05557
G1 X78.028 Y7.676 E50.07632
G1 X78.455 Y8.009 E50.09705
G1 X78.829 Y8.402 E50.11781
G1 X79.141 Y8.845 E50.13854
G1 X79.384 Y9.329 E50.15927
G1 X79.554 Y9.844 E50.18003
G1 X79.646 Y10.378 E50.20076
G1 X79.663 Y10.728 E50.21417
G1 X79.766 Y90.348 E53.26123
G1 X79.727 Y90.889 E53.28199
G1 X79.608 Y91.417 E53.3027
G1 X79.414 Y91.923 E53.32344
G1 X79.147 Y92.395 E53.34419
G1 X78.813 Y92.822 E53.36494
G1 X78.421 Y93.195 E53.38565
G1 X77.977 Y93.507 E53.40641
G1 X77.493 Y93.75 E53.42714
G1 X76.979 Y93.919 E53.44785
G1 X76.444 Y94.011 E53.46862
G1 X76.103 Y94.028 E53.48169
G1 X44.274 Y94.131 E54.69979
G1 X44.214 Y94.131 E54.70209
G1 X39.765 Y94.073 E54.87236
G1 X39.672 Y94.07 E54.87592
G1 X35.445 Y93.908 E55.03781
G1 X35.323 Y93.902 E55.04248
G1 X29.545 Y93.488 E55.26417
G1 X29.381 Y93.472 E55.27048
G1 X24.331 Y92.881 E55.46506
G1 X24.143 Y92.854 E55.47233
G1 X20.193 Y92.184 E55.62566
G1 X19.957 Y92.136 E55.63487
G1 X16.959 Y91.422 E55.75282
G1 X16.66 Y91.338 E55.7647
G1 X14.541 Y90.64 E55.85008
G1 X14.171 Y90.495 E55.86529
G1 X13.004 Y89.965 E55.91434
G1 X12.594 Y89.746 E55.93213
G1 X11.813 Y89.264 E55.96725
G1 X11.366 Y88.939 E55.9884
G1 X10.977 Y88.609 E56.00792
G1 X10.576 Y88.213 E56.02949
G1 X10.349 Y87.951 E56.04276
G1 X9.991 Y87.461 E56.06598
G1 X9.837 Y87.209 E56.07729
G1 X9.508 Y86.518 E56.10657
G1 X9.42 Y86.269 E56.11668
G1 X9.236 Y85.481 E56.14765
G1 X9.207 Y85.239 E56.15698
G1 X9.181 Y84.802 E56.17373
G1 X9.181 Y10.837 E59.00437
G1 X9.221 Y10.297 E59.02509
G1 X9.34 Y9.768 E59.04584
G1 X9.481 Y9.404 E59.06078
G0 F972 X9.535 Y9.263
G0 X9.803 Y8.791
G0 F4320 X10.151 Y8.903
G1 F2400 E59.08734
G1 F1080 X10.505 Y8.486 E59.10827
G1 X10.608 Y8.383 E59.11385
G1 X10.999 Y8.048 E59.13355
G1 X11.438 Y7.777 E59.15329
G1 X11.913 Y7.578 E59.173
G1 X12.414 Y7.454 E59.19276
G1 X12.959 Y7.409 E59.21368
G1 X75.426 Y7.409 E61.60429
G1 X75.982 Y7.408 E61.62557
G1 X76.496 Y7.447 E61.6453
G1 X76.998 Y7.565 E61.66503
G1 X77.475 Y7.759 E61.68474
G1 X77.917 Y8.025 E61.70448
G1 X78.312 Y8.355 E61.72418
G1 X78.652 Y8.743 E61.74392
G1 X78.927 Y9.178 E61.76362
G1 X79.132 Y9.651 E61.78335
G1 X79.262 Y10.15 E61.80308
G1 X79.313 Y10.729 E61.82532
G1 X79.416 Y90.349 E64.87238
G1 X79.377 Y90.863 E64.89211
G1 X79.259 Y91.364 E64.91181
G1 X79.064 Y91.842 E64.93156
G1 X78.798 Y92.283 E64.95127
G1 X78.468 Y92.678 E64.97097
G1 X78.08 Y93.018 E64.99071
G1 X77.644 Y93.293 E65.01044
G1 X77.171 Y93.498 E65.03017
G1 X76.672 Y93.627 E65.04989
G1 X76.102 Y93.678 E65.07179
G1 X44.273 Y93.781 E66.28989
G1 X44.219 Y93.781 E66.29196
G1 X39.77 Y93.723 E66.46224
G1 X39.686 Y93.721 E66.46545
G1 X35.459 Y93.559 E66.62734
G1 X35.348 Y93.552 E66.6316
G1 X29.57 Y93.138 E66.85329
G1 X29.422 Y93.124 E66.85898
G1 X24.372 Y92.533 E67.05356
G1 X24.202 Y92.509 E67.06013
G1 X20.252 Y91.839 E67.21345
G1 X20.038 Y91.796 E67.22181
G1 X17.04 Y91.082 E67.33975
G1 X16.77 Y91.005 E67.35049
G1 X14.651 Y90.307 E67.43588
G1 X14.316 Y90.176 E67.44964
G1 X13.149 Y89.646 E67.49869
G1 X12.778 Y89.449 E67.51477
G1 X11.997 Y88.967 E67.54989
G1 X11.592 Y88.673 E67.56904
G1 X11.203 Y88.343 E67.58857
G1 X10.841 Y87.984 E67.60808
G1 X10.614 Y87.722 E67.62134
G1 X10.29 Y87.279 E67.64235
G1 X10.136 Y87.027 E67.65365
G1 X9.838 Y86.401 E67.68018
G1 X9.75 Y86.152 E67.69029
G1 X9.584 Y85.44 E67.71827
G1 X9.555 Y85.198 E67.7276
G1 X9.531 Y84.802 E67.74278
G1 X9.531 Y10.837 E70.57341
G1 X9.571 Y10.323 E70.59314
G1 X9.69 Y9.822 E70.61285
G1 X9.818 Y9.51 E70.62576
G0 F972 X9.885 Y9.345
G0 X10.151 Y8.903
G0 F4320 X10.499 Y9.022
G1 F2400 E70.65232
G1 F1080 X10.752 Y8.733 E70.66702
G1 X10.855 Y8.63 E70.67259
G1 X11.227 Y8.315 E70.69125
G1 X11.645 Y8.065 E70.70989
G1 X12.099 Y7.886 E70.72856
G1 X12.575 Y7.784 E70.74719
G1 X12.959 Y7.759 E70.76192
G1 X75.427 Y7.759 E73.15256
G1 X75.983 Y7.758 E73.17384
G1 X76.469 Y7.797 E73.1925
G1 X76.941 Y7.915 E73.21112
G1 X77.389 Y8.108 E73.22979
G1 X77.799 Y8.372 E73.24845
G1 X78.16 Y8.7 E73.26712
G1 X78.463 Y9.082 E73.28578
G1 X78.699 Y9.508 E73.30442
G1 X78.863 Y9.967 E73.32307
G1 X78.949 Y10.447 E73.34173
G1 X78.963 Y10.729 E73.35254
G1 X79.066 Y90.349 E76.39959
G1 X79.027 Y90.835 E76.41825
G1 X78.909 Y91.308 E76.43691
G1 X78.715 Y91.755 E76.45556
G1 X78.451 Y92.165 E76.47422
G1 X78.123 Y92.526 E76.49288
G1 X77.741 Y92.829 E76.51154
G1 X77.315 Y93.065 E76.53018
G1 X76.855 Y93.228 E76.54886
G1 X76.376 Y93.314 E76.56748
G1 X76.101 Y93.328 E76.57802
G1 X44.272 Y93.431 E77.79612
G1 X44.223 Y93.431 E77.798
G1 X39.774 Y93.373 E77.96827
G1 X39.699 Y93.371 E77.97114
G1 X35.472 Y93.209 E78.13303
G1 X35.373 Y93.203 E78.13683
G1 X29.595 Y92.789 E78.35852
G1 X29.462 Y92.777 E78.36363
G1 X24.412 Y92.186 E78.55821
G1 X24.26 Y92.164 E78.56409
G1 X20.31 Y91.494 E78.71741
G1 X20.119 Y91.455 E78.72487
G1 X17.121 Y90.741 E78.84281
G1 X16.879 Y90.673 E78.85243
G1 X14.76 Y89.975 E78.93782
G1 X14.461 Y89.858 E78.9501
G1 X13.294 Y89.328 E78.99915
G1 X12.962 Y89.151 E79.01355
G1 X12.181 Y88.669 E79.04867
G1 X11.818 Y88.406 E79.06583
G1 X11.429 Y88.076 E79.08535
G1 X11.106 Y87.755 E79.10278
G1 X10.879 Y87.493 E79.11605
G1 X10.588 Y87.096 E79.13488
G1 X10.434 Y86.844 E79.14619
G1 X10.168 Y86.284 E79.16991
G1 X10.08 Y86.035 E79.18002
G1 X9.931 Y85.398 E79.20505
G1 X9.902 Y85.156 E79.21438
G1 X9.881 Y84.802 E79.22795
G1 X9.881 Y10.837 E82.05859
G1 X9.921 Y10.351 E82.07725
G1 X10.04 Y9.878 E82.09592
G1 X10.152 Y9.62 E82.10668
G0 F972 X10.234 Y9.431
G0 X10.499 Y9.022
G0 F4320 X10.583 Y9.524
G1 F2400 E82.13324
G1 F1080 X11 Y8.981 E82.15944
G1 X11.103 Y8.878 E82.16502
G1 X11.454 Y8.584 E82.18254
G1 X11.85 Y8.355 E82.20005
G1 X12.28 Y8.198 E82.21756
G1 X12.959 Y8.109 E82.24377
G1 X75.427 Y8.109 E84.63442
G1 X75.983 Y8.108 E84.6557
G1 X76.439 Y8.147 E84.67321
G1 X76.882 Y8.265 E84.69076
G1 X77.297 Y8.458 E84.70827
G1 X77.672 Y8.72 E84.72578
G1 X77.997 Y9.043 E84.74331
G1 X78.26 Y9.418 E84.76084
G1 X78.454 Y9.832 E84.77834
G1 X78.573 Y10.275 E84.79589
G1 X78.613 Y10.73 E84.81337
G1 X78.716 Y90.35 E87.86043
G1 X78.677 Y90.806 E87.87795
G1 X78.559 Y91.248 E87.89545
G1 X78.366 Y91.663 E87.91297
G1 X78.103 Y92.038 E87.9305
G1 X77.78 Y92.363 E87.94803
G1 X77.405 Y92.625 E87.96554
G1 X76.99 Y92.819 E87.98307
G1 X76.548 Y92.938 E88.00059
G1 X76.099 Y92.978 E88.01784
G1 X44.27 Y93.081 E89.23594
G1 X44.228 Y93.081 E89.23755
G1 X39.779 Y93.023 E89.40783
G1 X39.712 Y93.021 E89.41039
G1 X35.485 Y92.859 E89.57228
G1 X35.398 Y92.854 E89.57561
G1 X29.62 Y92.44 E89.7973
G1 X29.503 Y92.429 E89.8018
G1 X24.453 Y91.838 E89.99638
G1 X24.319 Y91.819 E90.00156
G1 X20.369 Y91.149 E90.15489
