;FLAVOR:Marlin
;TIME:2564
;Filament used: 2.00873m
;Layer height: 0.2625
;MINX:26.313
;MINY:31.075
;MINZ:0.263
;MAXX:93.688
;MAXY:88.925
;MAXZ:2.841
;Generated with Cura_SteamEngine 4.2.0
M140 S65
M105
M190 S65
M104 S190
M105
M109 S190
M82 ;absolute extrusion mode
G21;(metric values)
G90;(absolute positioning)
M82;(set extruder to absolute mode)
M107;(start with the fan off)
G28;(Home the printer)
G92 E0;(Reset the extruder to 0)
G0 Z5 E5 F500;(Move up and prime the nozzle)
G0 X-1 Z0;(Move outside the printable area)
G1 Y60 E8 F500;(Draw a priming/wiping line to the rear)
G1 X-1;(Move a little closer to the print area)
G1 Y10 E16 F500;(draw more priming/wiping)
G1 E15 F250;(Small retract)
G92 E0;(Zero the extruder)
M141 S28
G92 E0
G92 E0
G1 F2400 E-2.5
;LAYER_COUNT:7
;LAYER:0
M107
G0 F4320 X32.215 Y32.021 Z0.263
;TYPE:SKIRT
G1 F2400 E0
G1 F1800 X32.631 Y31.691 E0.02032
G1 X33.091 Y31.428 E0.0406
G1 X33.586 Y31.236 E0.06092
G1 X34.104 Y31.121 E0.08122
G1 X34.498 Y31.087 E0.09636
G1 X34.821 Y31.077 E0.10873
G1 X34.93 Y31.075 E0.1129
G1 X84.743 Y31.075 E2.01924
G1 X85.444 Y31.085 E2.04607
G1 X85.973 Y31.133 E2.0664
G1 X86.488 Y31.259 E2.08669
G1 X86.979 Y31.461 E2.10701
G1 X87.434 Y31.735 E2.12733
G1 X87.842 Y32.074 E2.14763
G1 X88.195 Y32.47 E2.16793
G1 X88.473 Y32.894 E2.18734
G1 X88.668 Y33.243 E2.20264
G1 X90.021 Y35.585 E2.30615
G1 X91.476 Y37.945 E2.41225
G1 X93.016 Y40.293 E2.51971
G1 X93.086 Y40.398 E2.52454
G1 X93.346 Y40.86 E2.54483
G1 X93.534 Y41.356 E2.56513
G1 X93.645 Y41.875 E2.58544
G1 X93.676 Y42.244 E2.59961
G1 X93.686 Y42.568 E2.61202
G1 X93.688 Y42.677 E2.61619
G1 X93.688 Y76.976 E3.92881
G1 X93.678 Y77.693 E3.95625
G1 X93.63 Y78.222 E3.97658
G1 X93.504 Y78.737 E3.99687
G1 X93.302 Y79.228 E4.01719
G1 X93.109 Y79.565 E4.03205
G1 X92.526 Y80.462 E4.07299
G1 X92.49 Y80.516 E4.07548
G1 X92.197 Y80.95 E4.09552
G1 X90.739 Y83.244 E4.19954
G1 X89.332 Y85.601 E4.30459
G1 X89.042 Y86.119 E4.32731
G1 X89.019 Y86.159 E4.32907
G1 X88.448 Y87.15 E4.37285
G1 X88.149 Y87.588 E4.39314
G1 X87.788 Y87.977 E4.41345
G1 X87.373 Y88.307 E4.43374
G1 X86.912 Y88.571 E4.45407
G1 X86.418 Y88.763 E4.47436
G1 X85.9 Y88.879 E4.49467
G1 X85.503 Y88.913 E4.50992
G1 X85.179 Y88.923 E4.52232
G1 X85.07 Y88.925 E4.5265
G1 X35.257 Y88.925 E6.43284
G1 X34.559 Y88.915 E6.45955
G1 X34.03 Y88.867 E6.47988
G1 X33.515 Y88.741 E6.50017
G1 X33.024 Y88.539 E6.52049
G1 X32.569 Y88.265 E6.54082
G1 X32.161 Y87.926 E6.56112
G1 X31.808 Y87.53 E6.58142
G1 X31.541 Y87.126 E6.59995
G1 X31.322 Y86.739 E6.61697
G1 X29.96 Y84.383 E6.72111
G1 X28.506 Y82.026 E6.8271
G1 X26.982 Y79.703 E6.93342
G1 X26.961 Y79.67 E6.93492
G1 X26.879 Y79.542 E6.94074
G1 X26.627 Y79.075 E6.96105
G1 X26.448 Y78.576 E6.98133
G1 X26.346 Y78.055 E7.00165
G1 X26.323 Y77.741 E7.0137
G1 X26.314 Y77.423 E7.02588
G1 X26.313 Y77.323 E7.0297
G1 X26.313 Y43.004 E8.34309
G1 X26.323 Y42.306 E8.3698
G1 X26.371 Y41.777 E8.39013
G1 X26.497 Y41.262 E8.41042
G1 X26.699 Y40.771 E8.43074
G1 X26.892 Y40.435 E8.44557
G1 X27.449 Y39.578 E8.48469
G1 X27.486 Y39.523 E8.48722
G1 X27.762 Y39.116 E8.50604
G1 X29.252 Y36.775 E8.61224
G1 X30.621 Y34.482 E8.71444
G1 X30.952 Y33.891 E8.74037
G1 X30.975 Y33.851 E8.74213
G1 X31.554 Y32.848 E8.78645
G1 X31.761 Y32.544 E8.80053
G0 F1620 X31.853 Y32.409
G0 X32.215 Y32.021
G0 F4320 X32.49 Y32.243
G1 F2400 E8.82709
G1 F1800 X32.891 Y31.939 E8.84635
G1 X33.335 Y31.701 E8.86562
G1 X33.811 Y31.536 E8.8849
G1 X34.509 Y31.437 E8.91188
G1 X34.832 Y31.427 E8.92425
G1 X34.93 Y31.425 E8.928
G1 X84.738 Y31.425 E10.83415
G1 X85.439 Y31.435 E10.86098
G1 X85.941 Y31.482 E10.88028
G1 X86.428 Y31.608 E10.89953
G1 X86.89 Y31.809 E10.91881
G1 X87.314 Y32.081 E10.93809
G1 X87.69 Y32.417 E10.95739
G1 X88.007 Y32.807 E10.97662
G1 X88.167 Y33.064 E10.98821
G1 X88.359 Y33.408 E11.00328
G1 X89.726 Y35.774 E11.10786
G1 X91.166 Y38.11 E11.21287
G1 X92.738 Y40.506 E11.32254
G1 X92.795 Y40.592 E11.32649
G1 X93.04 Y41.032 E11.34577
G1 X93.213 Y41.505 E11.36504
G1 X93.308 Y41.999 E11.38429
G1 X93.326 Y42.255 E11.39411
G1 X93.336 Y42.579 E11.40652
G1 X93.338 Y42.677 E11.41027
G1 X93.338 Y76.971 E12.7227
G1 X93.328 Y77.688 E12.75014
G1 X93.281 Y78.19 E12.76944
G1 X93.155 Y78.677 E12.78869
G1 X92.954 Y79.139 E12.80797
G1 X92.815 Y79.374 E12.81842
G1 X92.232 Y80.271 E12.85936
G1 X92.2 Y80.32 E12.8616
G1 X91.908 Y80.752 E12.88155
G1 X90.423 Y83.088 E12.98749
G1 X89.047 Y85.394 E13.09026
G1 X88.737 Y85.948 E13.11455
G1 X88.716 Y85.984 E13.11615
G1 X88.145 Y86.975 E13.15992
G1 X87.86 Y87.39 E13.17918
G1 X87.513 Y87.755 E13.19846
G1 X87.112 Y88.06 E13.21774
G1 X86.668 Y88.298 E13.23702
G1 X86.192 Y88.463 E13.2563
G1 X85.492 Y88.563 E13.28336
G1 X85.168 Y88.573 E13.29576
G1 X85.07 Y88.575 E13.29951
G1 X35.262 Y88.575 E15.20566
G1 X34.564 Y88.565 E15.23238
G1 X34.062 Y88.518 E15.25167
G1 X33.575 Y88.392 E15.27092
G1 X33.113 Y88.19 E15.29022
G1 X32.689 Y87.919 E15.30948
G1 X32.313 Y87.583 E15.32878
G1 X31.995 Y87.193 E15.34803
G1 X31.846 Y86.954 E15.35881
G1 X31.627 Y86.567 E15.37583
G1 X30.254 Y84.194 E15.48075
G1 X28.816 Y81.861 E15.58563
G1 X27.274 Y79.511 E15.6932
G1 X27.256 Y79.482 E15.69451
G1 X27.174 Y79.354 E15.70032
G1 X26.936 Y78.909 E15.71964
G1 X26.772 Y78.433 E15.7389
G1 X26.673 Y77.731 E15.76603
G1 X26.664 Y77.413 E15.77821
G1 X26.663 Y77.323 E15.78165
G1 X26.663 Y43.009 E17.09485
G1 X26.673 Y42.311 E17.12156
G1 X26.72 Y41.809 E17.14086
G1 X26.846 Y41.322 E17.16011
G1 X27.048 Y40.86 E17.17941
G1 X27.186 Y40.626 E17.1898
G1 X27.743 Y39.769 E17.22892
G1 X27.776 Y39.719 E17.23121
G1 X28.067 Y39.289 E17.25108
G1 X29.525 Y36.998 E17.35501
G1 X30.93 Y34.647 E17.45982
G1 X31.257 Y34.062 E17.48547
G1 X31.278 Y34.026 E17.48707
G1 X31.857 Y33.023 E17.53139
G1 X32.035 Y32.765 E17.54338
G0 F1620 X32.143 Y32.608
G0 X32.49 Y32.243
G1 F2400 E15.04338
G1 F60 Z1.263
;MESH:mid_fuse_30mm_fc_mount.stl
G0 F4320 X42.292 Y44.145 Z1.263
;TYPE:WALL-INNER
G1 F60 Z0.263
G1 F2400 E17.56994
G1 F1800 X42.22 Y44.75 E17.59326
G1 X42.292 Y45.355 E17.61658
G1 X42.509 Y45.927 E17.63999
G1 X42.855 Y46.429 E17.66332
G1 X43.313 Y46.834 E17.68672
G1 X43.853 Y47.117 E17.71005
G1 X44.444 Y47.263 E17.73335
G1 X45.056 Y47.263 E17.75677
G1 X45.647 Y47.117 E17.78007
G1 X46.187 Y46.834 E17.8034
G1 X46.645 Y46.429 E17.8268
G1 X46.991 Y45.927 E17.85013
G1 X47.208 Y45.355 E17.87354
G1 X47.28 Y44.75 E17.89686
G1 X47.208 Y44.145 E17.92017
G1 X46.991 Y43.573 E17.94359
G1 X46.645 Y43.071 E17.96692
G1 X46.187 Y42.666 E17.99032
G1 X45.647 Y42.383 E18.01365
G1 X45.056 Y42.237 E18.03695
G1 X44.444 Y42.237 E18.06037
G1 X43.853 Y42.383 E18.08367
G1 X43.313 Y42.666 E18.107
G1 X42.855 Y43.071 E18.1304
G1 X42.556 Y43.505 E18.15056
G0 F1620 X42.509 Y43.573
G0 X42.292 Y44.145
G1 F2400 E15.65056
G1 F60 Z1.263
G0 F4320 X42.442 Y44.182 Z1.263
G0 X43.858 Y72.88
G1 F60 Z0.263
G1 F2400 E18.17712
G1 F1800 X43.313 Y73.167 E18.2007
G1 X42.855 Y73.571 E18.22407
G1 X42.509 Y74.073 E18.2474
G1 X42.292 Y74.645 E18.27081
G1 X42.22 Y75.25 E18.29413
G1 X42.292 Y75.855 E18.31745
G1 X42.509 Y76.427 E18.34086
G1 X42.855 Y76.929 E18.36419
G1 X43.313 Y77.334 E18.38759
G1 X43.853 Y77.617 E18.41092
G1 X44.444 Y77.763 E18.43422
G1 X45.056 Y77.763 E18.45764
G1 X45.647 Y77.617 E18.48094
G1 X46.187 Y77.334 E18.50427
G1 X46.645 Y76.929 E18.52767
G1 X46.991 Y76.427 E18.551
G1 X47.208 Y75.855 E18.57441
G1 X47.28 Y75.25 E18.59773
G1 X47.208 Y74.645 E18.62105
G1 X46.991 Y74.073 E18.64446
G1 X46.645 Y73.571 E18.66779
G1 X46.187 Y73.166 E18.69119
G1 X45.647 Y72.883 E18.71452
G1 X45.056 Y72.737 E18.73782
G1 X44.536 Y72.737 E18.75772
G0 F1620 X44.478 Y72.737
G0 X43.858 Y72.88
G1 F2400 E16.25772
G1 F60 Z1.263
G0 F4320 X43.913 Y73.025 Z1.263
G0 X74.358 Y72.88
G1 F60 Z0.263
G1 F2400 E18.78428
G1 F1800 X73.813 Y73.167 E18.80785
G1 X73.355 Y73.571 E18.83122
G1 X73.009 Y74.073 E18.85456
G1 X72.792 Y74.645 E18.87797
G1 X72.72 Y75.25 E18.90129
G1 X72.792 Y75.855 E18.9246
G1 X73.009 Y76.427 E18.94801
G1 X73.355 Y76.929 E18.97135
G1 X73.813 Y77.334 E18.99475
G1 X74.353 Y77.617 E19.01808
G1 X74.944 Y77.763 E19.04137
G1 X75.556 Y77.763 E19.0648
G1 X76.147 Y77.617 E19.08809
G1 X76.687 Y77.334 E19.11142
G1 X77.145 Y76.929 E19.13482
G1 X77.491 Y76.427 E19.15816
G1 X77.708 Y75.855 E19.18157
G1 X77.78 Y75.25 E19.20488
G1 X77.708 Y74.645 E19.2282
G1 X77.491 Y74.073 E19.25161
G1 X77.145 Y73.571 E19.27495
G1 X76.687 Y73.166 E19.29834
G1 X76.147 Y72.883 E19.32168
G1 X75.556 Y72.737 E19.34497
G1 X75.036 Y72.737 E19.36487
G0 F1620 X74.978 Y72.737
G0 X74.358 Y72.88
G1 F2400 E16.86487
G1 F60 Z1.263
G0 F4320 X74.413 Y73.025 Z1.263
G0 X84.525 Y76.778
G1 F60 Z0.263
G1 F2400 E19.39143
G1 F1800 X84.525 Y84.525 E19.68791
G1 X35.475 Y84.525 E21.56505
G1 X35.475 Y76.778 E21.86153
G1 X30.713 Y76.778 E22.04377
G1 X30.713 Y43.222 E23.32796
G1 X35.475 Y43.222 E23.5102
G1 X35.475 Y35.475 E23.80667
G1 X84.525 Y35.475 E25.68382
G1 X84.525 Y43.222 E25.98029
G1 X89.288 Y43.222 E26.16257
G1 X89.288 Y76.778 E27.44676
G1 X85.219 Y76.778 E27.60248
G0 F1620 X84.525 Y76.778
G1 F2400 E25.10248
G1 F60 Z1.263
G0 F4320 X84.69 Y76.943 Z1.263
G0 X72.792 Y44.145
G1 F60 Z0.263
G1 F2400 E27.62904
G1 F1800 X72.72 Y44.75 E27.65236
G1 X72.792 Y45.355 E27.67567
G1 X73.009 Y45.927 E27.69908
G1 X73.355 Y46.429 E27.72242
G1 X73.813 Y46.834 E27.74581
G1 X74.353 Y47.117 E27.76915
G1 X74.944 Y47.263 E27.79244
G1 X75.556 Y47.263 E27.81587
G1 X76.147 Y47.117 E27.83916
G1 X76.687 Y46.834 E27.86249
G1 X77.145 Y46.429 E27.88589
G1 X77.491 Y45.927 E27.90923
G1 X77.708 Y45.355 E27.93264
G1 X77.78 Y44.75 E27.95595
G1 X77.708 Y44.145 E27.97927
G1 X77.491 Y43.573 E28.00268
G1 X77.145 Y43.071 E28.02602
G1 X76.687 Y42.666 E28.04941
G1 X76.147 Y42.383 E28.07275
G1 X75.556 Y42.237 E28.09604
G1 X74.944 Y42.237 E28.11946
G1 X74.353 Y42.383 E28.14276
G1 X73.813 Y42.666 E28.16609
G1 X73.355 Y43.071 E28.18949
G1 X73.056 Y43.505 E28.20966
G0 F1620 X73.009 Y43.573
G0 X72.792 Y44.145
G0 F4320 X73.134 Y44.229
G1 F2400 E28.23622
G1 F1800 X73.072 Y44.75 E28.2563
G1 X73.134 Y45.271 E28.27638
G1 X73.321 Y45.763 E28.29652
G1 X73.619 Y46.195 E28.31661
G1 X74.013 Y46.544 E28.33675
G1 X74.478 Y46.787 E28.35683
G1 X74.987 Y46.913 E28.3769
G1 X75.513 Y46.913 E28.39703
G1 X76.022 Y46.787 E28.41709
G1 X76.487 Y46.544 E28.43717
G1 X76.881 Y46.195 E28.45732
G1 X77.179 Y45.763 E28.4774
G1 X77.366 Y45.271 E28.49754
G1 X77.428 Y44.75 E28.51762
G1 X77.366 Y44.229 E28.5377
G1 X77.179 Y43.737 E28.55784
G1 X76.881 Y43.305 E28.57793
G1 X76.487 Y42.956 E28.59807
G1 X76.022 Y42.713 E28.61815
G1 X75.513 Y42.587 E28.63822
G1 X74.987 Y42.587 E28.65835
G1 X74.478 Y42.713 E28.67842
G1 X74.013 Y42.956 E28.69849
G1 X73.619 Y43.305 E28.71864
G1 X73.416 Y43.599 E28.73231
G0 F1620 X73.321 Y43.737
G0 X73.134 Y44.229
G1 F2400 E26.23231
G1 F60 Z1.263
G0 F4320 X72.953 Y44.183 Z1.263
G0 X74.481 Y73.211
G1 F60 Z0.263
G1 F2400 E28.75887
G1 F1800 X74.013 Y73.457 E28.7791
G1 X73.619 Y73.805 E28.79922
G1 X73.321 Y74.237 E28.81931
G1 X73.134 Y74.729 E28.83945
G1 X73.072 Y75.25 E28.85953
G1 X73.134 Y75.771 E28.87961
G1 X73.321 Y76.263 E28.89975
G1 X73.619 Y76.695 E28.91984
G1 X74.013 Y77.044 E28.93998
G1 X74.478 Y77.287 E28.96006
G1 X74.987 Y77.413 E28.98012
G1 X75.513 Y77.413 E29.00025
G1 X76.022 Y77.287 E29.02032
G1 X76.487 Y77.044 E29.0404
G1 X76.881 Y76.695 E29.06054
G1 X77.179 Y76.263 E29.08063
G1 X77.366 Y75.771 E29.10077
G1 X77.428 Y75.25 E29.12085
G1 X77.366 Y74.729 E29.14093
G1 X77.179 Y74.237 E29.16107
G1 X76.881 Y73.805 E29.18116
G1 X76.487 Y73.456 E29.2013
G1 X76.022 Y73.213 E29.22138
G1 X75.513 Y73.087 E29.24145
G1 X75.161 Y73.087 E29.25492
G0 F1620 X75.018 Y73.087
G0 X74.481 Y73.211
G1 F2400 E26.75492
G1 F60 Z1.263
G0 F4320 X74.417 Y73.035 Z1.263
G0 X84.875 Y77.128
G1 F60 Z0.263
G1 F2400 E29.28148
G1 F1800 X84.875 Y84.875 E29.57795
G1 X35.125 Y84.875 E31.48188
G1 X35.125 Y77.128 E31.77836
G1 X30.363 Y77.128 E31.9606
G1 X30.363 Y42.872 E33.27158
G1 X35.125 Y42.872 E33.45382
G1 X35.125 Y35.125 E33.7503
G1 X84.875 Y35.125 E35.65423
G1 X84.875 Y42.872 E35.9507
G1 X89.638 Y42.872 E36.13298
G1 X89.638 Y77.128 E37.44396
G1 X85.569 Y77.128 E37.59968
G0 F1620 X84.875 Y77.128
G1 F2400 E35.09968
G1 F60 Z1.263
G0 F4320 X84.778 Y77.031 Z1.263
G0 X43.981 Y73.211
G1 F60 Z0.263
G1 F2400 E37.62624
G1 F1800 X43.513 Y73.457 E37.64647
G1 X43.119 Y73.805 E37.66659
G1 X42.821 Y74.237 E37.68667
G1 X42.634 Y74.729 E37.70682
G1 X42.572 Y75.25 E37.7269
G1 X42.634 Y75.771 E37.74698
G1 X42.821 Y76.263 E37.76712
G1 X43.119 Y76.695 E37.7872
G1 X43.513 Y77.044 E37.80735
G1 X43.978 Y77.287 E37.82743
G1 X44.487 Y77.413 E37.84749
G1 X45.013 Y77.413 E37.86762
G1 X45.522 Y77.287 E37.88769
G1 X45.987 Y77.044 E37.90777
G1 X46.381 Y76.695 E37.92791
G1 X46.679 Y76.263 E37.948
G1 X46.866 Y75.771 E37.96814
G1 X46.928 Y75.25 E37.98822
G1 X46.866 Y74.729 E38.0083
G1 X46.679 Y74.237 E38.02844
G1 X46.381 Y73.805 E38.04853
G1 X45.987 Y73.456 E38.06867
G1 X45.522 Y73.213 E38.08875
G1 X45.013 Y73.087 E38.10882
G1 X44.661 Y73.087 E38.12229
G0 F1620 X44.518 Y73.087
G0 X43.981 Y73.211
G1 F2400 E35.62229
G1 F60 Z1.263
G0 F4320 X43.917 Y73.035 Z1.263
G0 X42.634 Y44.229
G1 F60 Z0.263
G1 F2400 E38.14885
G1 F1800 X42.572 Y44.75 E38.16893
G1 X42.634 Y45.271 E38.189
G1 X42.821 Y45.763 E38.20915
G1 X43.119 Y46.195 E38.22923
G1 X43.513 Y46.544 E38.24938
G1 X43.978 Y46.787 E38.26945
G1 X44.487 Y46.913 E38.28952
G1 X45.013 Y46.913 E38.30965
G1 X45.522 Y46.787 E38.32972
G1 X45.987 Y46.544 E38.3498
G1 X46.381 Y46.195 E38.36994
G1 X46.679 Y45.763 E38.39003
G1 X46.866 Y45.271 E38.41017
G1 X46.928 Y44.75 E38.43025
G1 X46.866 Y44.229 E38.45033
G1 X46.679 Y43.737 E38.47047
G1 X46.381 Y43.305 E38.49055
G1 X45.987 Y42.956 E38.5107
G1 X45.522 Y42.713 E38.53078
G1 X45.013 Y42.587 E38.55084
G1 X44.487 Y42.587 E38.57097
G1 X43.978 Y42.713 E38.59104
G1 X43.513 Y42.956 E38.61112
G1 X43.119 Y43.305 E38.63126
G1 X42.916 Y43.599 E38.64494
G0 F1620 X42.821 Y43.737
G0 X42.634 Y44.229
G0 F4320 X42.952 Y44.307
;TYPE:WALL-OUTER
G1 F2400 E38.6715
G1 F1800 X42.899 Y44.75 E38.68857
G1 X42.952 Y45.193 E38.70564
G1 X43.111 Y45.611 E38.72276
G1 X43.364 Y45.978 E38.73982
G1 X43.699 Y46.274 E38.75693
G1 X44.094 Y46.481 E38.77399
G1 X44.527 Y46.588 E38.79106
G1 X44.973 Y46.588 E38.80813
G1 X45.406 Y46.481 E38.8252
G1 X45.801 Y46.274 E38.84227
G1 X46.136 Y45.978 E38.85937
G1 X46.389 Y45.611 E38.87643
G1 X46.548 Y45.193 E38.89355
G1 X46.601 Y44.75 E38.91062
G1 X46.548 Y44.307 E38.9277
G1 X46.389 Y43.889 E38.94481
G1 X46.136 Y43.522 E38.96187
G1 X45.801 Y43.226 E38.97898
G1 X45.406 Y43.019 E38.99605
G1 X44.973 Y42.912 E39.01312
G1 X44.527 Y42.912 E39.03018
G1 X44.094 Y43.019 E39.04725
G1 X43.699 Y43.226 E39.06432
G1 X43.364 Y43.522 E39.08143
G1 X43.251 Y43.686 E39.08905
G0 F1620 X43.111 Y43.889
G0 X42.952 Y44.307
G0 F4320 X42.929 Y44.505
G1 F2400 E36.58905
G1 F60 Z1.263
G0 F4320 X42.422 Y44.444 Z1.263
G0 X44.095 Y73.518
G1 F60 Z0.263
G1 F2400 E39.11561
G1 F1800 X43.699 Y73.726 E39.13273
G1 X43.364 Y74.022 E39.14984
G1 X43.111 Y74.389 E39.16689
G1 X42.952 Y74.807 E39.18401
G1 X42.899 Y75.25 E39.20108
G1 X42.952 Y75.693 E39.21816
G1 X43.111 Y76.111 E39.23527
G1 X43.364 Y76.478 E39.25233
G1 X43.699 Y76.774 E39.26944
G1 X44.094 Y76.981 E39.28651
G1 X44.527 Y77.088 E39.30358
G1 X44.973 Y77.088 E39.32065
G1 X45.406 Y76.981 E39.33771
G1 X45.801 Y76.774 E39.35478
G1 X46.136 Y76.478 E39.37189
G1 X46.389 Y76.111 E39.38895
G1 X46.548 Y75.693 E39.40606
G1 X46.601 Y75.25 E39.42314
G1 X46.548 Y74.807 E39.44021
G1 X46.389 Y74.389 E39.45733
G1 X46.136 Y74.022 E39.47439
G1 X45.801 Y73.726 E39.49149
G1 X45.406 Y73.519 E39.50856
G1 X44.973 Y73.412 E39.52563
G1 X44.777 Y73.412 E39.53313
G0 F1620 X44.555 Y73.412
G0 X44.095 Y73.518
G0 F4320 X43.918 Y73.611
G1 F2400 E37.03313
G1 F60 Z1.263
G0 F4320 X43.682 Y73.159 Z1.263
G0 X74.595 Y73.518
G1 F60 Z0.263
G1 F2400 E39.55969
G1 F1800 X74.199 Y73.726 E39.57681
G1 X73.864 Y74.022 E39.59392
G1 X73.611 Y74.389 E39.61098
G1 X73.452 Y74.807 E39.62809
G1 X73.399 Y75.25 E39.64517
G1 X73.452 Y75.693 E39.66224
G1 X73.611 Y76.111 E39.67936
G1 X73.864 Y76.478 E39.69641
G1 X74.199 Y76.774 E39.71352
G1 X74.594 Y76.981 E39.73059
G1 X75.027 Y77.088 E39.74766
