;FLAVOR:Marlin
;TIME:3894
;Filament used: 0.485178m
;Layer height: 0.04375
;Generated with Cura_SteamEngine 4.0.0
M140 S65
M105
M190 S65
M104 S190
M105
M109 S190
M82 ;absolute extrusion mode
G21;(metric values)
G90;(absolute positioning)
M82;(set extruder to absolute mode)
M107;(start with the fan off)
G28;(Home the printer)
G92 E0;(Reset the extruder to 0)
G0 Z5 E5 F500;(Move up and prime the nozzle)
G0 X-1 Z0;(Move outside the printable area)
G1 Y60 E8 F500;(Draw a priming/wiping line to the rear)
G1 X-1;(Move a little closer to the print area)
G1 Y10 E16 F500;(draw more priming/wiping)
G1 E15 F250;(Small retract)
G92 E0;(Zero the extruder)
G92 E0
G1 F2400 E-2.5
;LAYER_COUNT:450
;LAYER:0
M107
G0 F4320 X48.936 Y49.039 Z0.263
;TYPE:SKIRT
G1 F2400 E0
G1 F1080 X49.039 Y48.936 E0.00557
G1 X49.517 Y48.515 E0.02995
G1 X50.044 Y48.157 E0.05433
G1 X50.611 Y47.868 E0.07869
G1 X51.21 Y47.652 E0.10306
G1 X51.832 Y47.513 E0.12745
G1 X52.628 Y47.45 E0.15801
G1 X58.962 Y47.45 E0.40041
G1 X59.598 Y47.49 E0.4248
G1 X59.978 Y47.562 E0.4396
G1 X59.99 Y47.559 E0.44007
G1 X60.621 Y47.467 E0.46447
G1 X61.038 Y47.45 E0.48045
G1 X67.372 Y47.45 E0.72285
G1 X68.008 Y47.49 E0.74724
G1 X68.633 Y47.609 E0.77158
G1 X69.239 Y47.806 E0.79597
G1 X69.815 Y48.077 E0.82033
G1 X70.353 Y48.418 E0.84471
G1 X70.961 Y48.936 E0.87528
G1 X71.064 Y49.039 E0.88085
G1 X71.485 Y49.517 E0.90523
G1 X71.843 Y50.044 E0.92961
G1 X72.132 Y50.611 E0.95396
G1 X72.348 Y51.21 E0.97833
G1 X72.487 Y51.832 E1.00272
G1 X72.55 Y52.628 E1.03328
G1 X72.55 Y67.372 E1.59753
G1 X72.51 Y68.008 E1.62192
G1 X72.391 Y68.633 E1.64627
G1 X72.194 Y69.239 E1.67066
G1 X71.923 Y69.815 E1.69502
G1 X71.582 Y70.353 E1.71939
G1 X71.064 Y70.961 E1.74996
G1 X70.961 Y71.064 E1.75554
G1 X70.483 Y71.485 E1.77991
G1 X69.956 Y71.843 E1.80429
G1 X69.389 Y72.132 E1.82865
G1 X68.79 Y72.348 E1.85302
G1 X68.168 Y72.487 E1.87741
G1 X67.372 Y72.55 E1.90797
G1 X52.628 Y72.55 E2.47222
G1 X51.992 Y72.51 E2.49661
G1 X51.367 Y72.391 E2.52096
G1 X50.761 Y72.194 E2.54534
G1 X50.185 Y71.923 E2.5697
G1 X49.647 Y71.582 E2.59408
G1 X49.039 Y71.064 E2.62465
G1 X48.936 Y70.961 E2.63022
G1 X48.515 Y70.483 E2.6546
G1 X48.157 Y69.956 E2.67898
G1 X47.868 Y69.389 E2.70334
G1 X47.652 Y68.79 E2.7277
G1 X47.513 Y68.168 E2.7521
G1 X47.45 Y67.372 E2.78265
G1 X47.45 Y52.628 E3.34691
G1 X47.49 Y51.992 E3.37129
G1 X47.609 Y51.367 E3.39564
G1 X47.806 Y50.761 E3.42003
G1 X48.077 Y50.185 E3.44439
G1 X48.418 Y49.647 E3.46877
G1 X48.486 Y49.567 E3.47278
G0 F972 X48.936 Y49.039
G0 F4320 X49.184 Y49.287
G1 F2400 E3.49934
G1 F1080 X49.287 Y49.184 E3.50492
G1 X49.749 Y48.779 E3.52843
G1 X50.259 Y48.437 E3.55193
G1 X50.81 Y48.164 E3.57546
G1 X51.391 Y47.965 E3.59897
G1 X51.994 Y47.843 E3.62251
G1 X52.628 Y47.8 E3.64683
G1 X58.962 Y47.8 E3.88923
G1 X59.575 Y47.84 E3.91274
G1 X60.002 Y47.924 E3.9294
G1 X60.232 Y47.869 E3.93845
G1 X61.038 Y47.8 E3.9694
G1 X67.372 Y47.8 E4.21181
G1 X67.985 Y47.84 E4.23531
G1 X68.588 Y47.959 E4.25884
G1 X69.17 Y48.156 E4.28235
G1 X69.722 Y48.426 E4.30587
G1 X70.234 Y48.766 E4.32939
G1 X70.713 Y49.184 E4.35372
G1 X70.816 Y49.287 E4.35929
G1 X71.221 Y49.749 E4.38281
G1 X71.563 Y50.259 E4.40631
G1 X71.836 Y50.81 E4.42984
G1 X72.035 Y51.391 E4.45334
G1 X72.157 Y51.994 E4.47689
G1 X72.2 Y52.628 E4.5012
G1 X72.2 Y67.372 E5.06546
G1 X72.16 Y67.985 E5.08897
G1 X72.041 Y68.588 E5.11249
G1 X71.844 Y69.17 E5.136
G1 X71.574 Y69.722 E5.15952
G1 X71.234 Y70.234 E5.18304
G1 X70.816 Y70.713 E5.20737
G1 X70.713 Y70.816 E5.21294
G1 X70.251 Y71.221 E5.23646
G1 X69.741 Y71.563 E5.25996
G1 X69.19 Y71.836 E5.28349
G1 X68.609 Y72.035 E5.30699
G1 X68.006 Y72.157 E5.33054
G1 X67.372 Y72.2 E5.35486
G1 X52.628 Y72.2 E5.91911
G1 X52.015 Y72.16 E5.94262
G1 X51.412 Y72.041 E5.96614
G1 X50.83 Y71.844 E5.98965
G1 X50.278 Y71.574 E6.01317
G1 X49.766 Y71.234 E6.03669
G1 X49.287 Y70.816 E6.06102
G1 X49.184 Y70.713 E6.0666
G1 X48.779 Y70.251 E6.09011
G1 X48.437 Y69.741 E6.11361
G1 X48.164 Y69.19 E6.13714
G1 X47.965 Y68.609 E6.16064
G1 X47.843 Y68.006 E6.18419
G1 X47.8 Y67.372 E6.20851
G1 X47.8 Y52.628 E6.77276
G1 X47.84 Y52.015 E6.79627
G1 X47.959 Y51.412 E6.81979
G1 X48.156 Y50.83 E6.84331
G1 X48.426 Y50.278 E6.86682
G1 X48.734 Y49.815 E6.8881
G0 F972 X48.766 Y49.766
G0 X49.184 Y49.287
G0 F4320 X49.431 Y49.534
G1 F2400 E6.91466
G1 F1080 X49.534 Y49.431 E6.92024
G1 X49.98 Y49.043 E6.94286
G1 X50.474 Y48.717 E6.96551
G1 X51.007 Y48.462 E6.98812
G1 X51.569 Y48.28 E7.01073
G1 X52.151 Y48.176 E7.03336
G1 X52.628 Y48.15 E7.05164
G1 X58.962 Y48.15 E7.29404
G1 X59.552 Y48.19 E7.31667
G1 X59.999 Y48.282 E7.33414
G1 X60.469 Y48.187 E7.35249
G1 X61.038 Y48.15 E7.37431
G1 X67.372 Y48.15 E7.61671
G1 X67.962 Y48.19 E7.63934
G1 X68.541 Y48.309 E7.66196
G1 X69.099 Y48.505 E7.6846
G1 X69.625 Y48.775 E7.70722
G1 X70.11 Y49.113 E7.72985
G1 X70.466 Y49.431 E7.74812
G1 X70.569 Y49.534 E7.75369
G1 X70.957 Y49.98 E7.77631
G1 X71.283 Y50.474 E7.79896
G1 X71.538 Y51.007 E7.82158
G1 X71.72 Y51.569 E7.84418
G1 X71.824 Y52.151 E7.86681
G1 X71.85 Y52.628 E7.88509
G1 X71.85 Y67.372 E8.44934
G1 X71.81 Y67.962 E8.47198
G1 X71.691 Y68.541 E8.4946
G1 X71.495 Y69.099 E8.51723
G1 X71.225 Y69.625 E8.53986
G1 X70.887 Y70.11 E8.56248
G1 X70.569 Y70.466 E8.58075
G1 X70.466 Y70.569 E8.58632
G1 X70.02 Y70.957 E8.60895
G1 X69.526 Y71.283 E8.6316
G1 X68.993 Y71.538 E8.65421
G1 X68.431 Y71.72 E8.67682
G1 X67.849 Y71.824 E8.69944
G1 X67.372 Y71.85 E8.71773
G1 X52.628 Y71.85 E9.28198
G1 X52.038 Y71.81 E9.30461
G1 X51.459 Y71.691 E9.32723
G1 X50.901 Y71.495 E9.34986
G1 X50.375 Y71.225 E9.37249
G1 X49.89 Y70.887 E9.39511
G1 X49.534 Y70.569 E9.41338
G1 X49.431 Y70.466 E9.41896
G1 X49.043 Y70.02 E9.44158
G1 X48.717 Y69.526 E9.46423
G1 X48.462 Y68.993 E9.48684
G1 X48.28 Y68.431 E9.50945
G1 X48.176 Y67.849 E9.53208
G1 X48.15 Y67.372 E9.55036
G1 X48.15 Y52.628 E10.11461
G1 X48.19 Y52.038 E10.13724
G1 X48.309 Y51.459 E10.15986
G1 X48.505 Y50.901 E10.1825
G1 X48.775 Y50.375 E10.20512
G1 X48.989 Y50.068 E10.21945
G0 F972 X49.113 Y49.89
G0 X49.431 Y49.534
G0 F4320 X49.679 Y49.782
G1 F2400 E10.246
G1 F1080 X49.782 Y49.679 E10.25158
G1 X50.21 Y49.307 E10.27328
G1 X50.686 Y48.999 E10.29498
G1 X51.201 Y48.761 E10.31669
G1 X51.744 Y48.598 E10.33839
G1 X52.305 Y48.513 E10.3601
G1 X52.628 Y48.5 E10.37247
G1 X58.962 Y48.5 E10.61487
G1 X59.528 Y48.54 E10.63659
G1 X60.005 Y48.642 E10.65526
G1 X60.138 Y48.602 E10.66057
G1 X60.699 Y48.514 E10.6823
G1 X61.038 Y48.5 E10.69529
G1 X67.372 Y48.5 E10.93769
G1 X67.938 Y48.54 E10.9594
G1 X68.492 Y48.659 E10.98109
G1 X69.024 Y48.855 E11.00279
G1 X69.524 Y49.123 E11.0245
G1 X69.98 Y49.46 E11.0462
G1 X70.218 Y49.679 E11.05857
G1 X70.321 Y49.782 E11.06415
G1 X70.693 Y50.21 E11.08585
G1 X71.001 Y50.686 E11.10755
G1 X71.239 Y51.201 E11.12926
G1 X71.402 Y51.744 E11.15096
G1 X71.487 Y52.305 E11.17267
G1 X71.5 Y52.628 E11.18504
G1 X71.5 Y67.372 E11.74929
G1 X71.46 Y67.938 E11.77101
G1 X71.341 Y68.492 E11.79269
G1 X71.145 Y69.024 E11.81439
G1 X70.877 Y69.524 E11.8361
G1 X70.54 Y69.98 E11.8578
G1 X70.321 Y70.218 E11.87018
G1 X70.218 Y70.321 E11.87575
G1 X69.79 Y70.693 E11.89746
G1 X69.314 Y71.001 E11.91915
G1 X68.799 Y71.239 E11.94087
G1 X68.256 Y71.402 E11.96256
G1 X67.695 Y71.487 E11.98428
G1 X67.372 Y71.5 E11.99665
G1 X52.628 Y71.5 E12.5609
G1 X52.062 Y71.46 E12.58261
G1 X51.508 Y71.341 E12.6043
G1 X50.976 Y71.145 E12.626
G1 X50.476 Y70.877 E12.64771
G1 X50.02 Y70.54 E12.66941
G1 X49.782 Y70.321 E12.68178
G1 X49.679 Y70.218 E12.68736
G1 X49.307 Y69.79 E12.70906
G1 X48.999 Y69.314 E12.73076
G1 X48.761 Y68.799 E12.75247
G1 X48.598 Y68.256 E12.77417
G1 X48.513 Y67.695 E12.79588
G1 X48.5 Y67.372 E12.80825
G1 X48.5 Y52.628 E13.3725
G1 X48.54 Y52.062 E13.39422
G1 X48.659 Y51.508 E13.4159
G1 X48.855 Y50.976 E13.4376
G1 X49.123 Y50.476 E13.45931
G1 X49.24 Y50.318 E13.46684
G0 F972 X49.46 Y50.02
G0 X49.679 Y49.782
G0 F4320 X49.926 Y50.029
G1 F2400 E13.4934
G1 F1080 X50.029 Y49.926 E13.49897
G1 X50.44 Y49.573 E13.5197
G1 X50.898 Y49.283 E13.54045
G1 X51.393 Y49.064 E13.56116
G1 X51.916 Y48.92 E13.58192
G1 X52.628 Y48.85 E13.6093
G1 X58.962 Y48.85 E13.85171
G1 X59.502 Y48.89 E13.87243
G1 X60.012 Y49.005 E13.89244
G1 X60.382 Y48.909 E13.90706
G1 X61.038 Y48.85 E13.93227
G1 X67.372 Y48.85 E14.17467
G1 X67.912 Y48.89 E14.1954
G1 X68.441 Y49.009 E14.21615
G1 X68.946 Y49.204 E14.23686
G1 X69.418 Y49.472 E14.25764
G1 X69.971 Y49.926 E14.28502
G1 X70.074 Y50.029 E14.29059
G1 X70.427 Y50.44 E14.31133
G1 X70.717 Y50.898 E14.33207
G1 X70.936 Y51.393 E14.35279
G1 X71.08 Y51.916 E14.37355
G1 X71.15 Y52.628 E14.40093
G1 X71.15 Y67.372 E14.96518
G1 X71.11 Y67.912 E14.9859
G1 X70.991 Y68.441 E15.00665
G1 X70.796 Y68.946 E15.02737
G1 X70.528 Y69.418 E15.04814
G1 X70.074 Y69.971 E15.07552
G1 X69.971 Y70.074 E15.0811
G1 X69.56 Y70.427 E15.10183
G1 X69.102 Y70.717 E15.12258
G1 X68.607 Y70.936 E15.14329
G1 X68.084 Y71.08 E15.16405
G1 X67.372 Y71.15 E15.19143
G1 X52.628 Y71.15 E15.75568
G1 X52.088 Y71.11 E15.77641
G1 X51.559 Y70.991 E15.79716
G1 X51.054 Y70.796 E15.81787
G1 X50.582 Y70.528 E15.83865
G1 X50.029 Y70.074 E15.86603
G1 X49.926 Y69.971 E15.8716
G1 X49.573 Y69.56 E15.89234
G1 X49.283 Y69.102 E15.91308
G1 X49.064 Y68.607 E15.9338
G1 X48.92 Y68.084 E15.95456
G1 X48.85 Y67.372 E15.98194
G1 X48.85 Y52.628 E16.54619
G1 X48.89 Y52.088 E16.56691
G1 X49.009 Y51.559 E16.58766
G1 X49.204 Y51.054 E16.60838
G1 X49.472 Y50.582 E16.62915
G1 X49.486 Y50.565 E16.62999
G0 F972 X49.926 Y50.029
G0 F4320 X50.174 Y50.277
G1 F2400 E16.65655
G1 F1080 X50.277 Y50.174 E16.66213
G1 X50.668 Y49.839 E16.68183
G1 X51.107 Y49.568 E16.70158
G1 X51.582 Y49.369 E16.72128
G1 X52.083 Y49.245 E16.74104
G1 X52.628 Y49.2 E16.76196
G1 X58.962 Y49.2 E17.00437
G1 X59.476 Y49.24 E17.0241
G1 X59.977 Y49.359 E17.0438
G1 X60.007 Y49.371 E17.04504
G1 X60.114 Y49.331 E17.04941
G1 X60.619 Y49.227 E17.06914
G1 X61.038 Y49.2 E17.08521
G1 X67.372 Y49.2 E17.32761
G1 X67.886 Y49.24 E17.34734
G1 X68.387 Y49.359 E17.36705
G1 X68.864 Y49.554 E17.38677
G1 X69.306 Y49.82 E17.40651
G1 X69.723 Y50.174 E17.42745
G1 X69.826 Y50.277 E17.43302
G1 X70.161 Y50.668 E17.45273
G1 X70.432 Y51.107 E17.47247
G1 X70.631 Y51.582 E17.49218
G1 X70.755 Y52.083 E17.51193
G1 X70.8 Y52.628 E17.53286
G1 X70.8 Y67.372 E18.09711
G1 X70.76 Y67.886 E18.11684
G1 X70.641 Y68.387 E18.13655
G1 X70.446 Y68.864 E18.15627
G1 X70.18 Y69.306 E18.17601
G1 X69.826 Y69.723 E18.19694
G1 X69.723 Y69.826 E18.20252
G1 X69.332 Y70.161 E18.22222
G1 X68.893 Y70.432 E18.24197
G1 X68.418 Y70.631 E18.26168
G1 X67.917 Y70.755 E18.28143
G1 X67.372 Y70.8 E18.30236
G1 X52.628 Y70.8 E18.86661
G1 X52.114 Y70.76 E18.88634
G1 X51.613 Y70.641 E18.90605
G1 X51.136 Y70.446 E18.92577
G1 X50.694 Y70.18 E18.94551
G1 X50.277 Y69.826 E18.96644
G1 X50.174 Y69.723 E18.97202
G1 X49.839 Y69.332 E18.99172
G1 X49.568 Y68.893 E19.01147
G1 X49.369 Y68.418 E19.03117
G1 X49.245 Y67.917 E19.05093
G1 X49.2 Y67.372 E19.07185
G1 X49.2 Y52.628 E19.63611
G1 X49.24 Y52.114 E19.65584
G1 X49.359 Y51.613 E19.67554
G1 X49.554 Y51.136 E19.69526
G1 X49.744 Y50.821 E19.70934
G0 F972 X49.82 Y50.694
G0 X50.174 Y50.277
G0 F4320 X50.421 Y50.524
G1 F2400 E19.7359
G1 F1080 X50.524 Y50.421 E19.74148
G1 X50.896 Y50.106 E19.76013
G1 X51.314 Y49.856 E19.77877
G1 X51.768 Y49.677 E19.79745
G1 X52.244 Y49.575 E19.81608
G1 X52.628 Y49.55 E19.8308
G1 X58.962 Y49.55 E20.07321
G1 X59.448 Y49.59 E20.09187
G1 X59.921 Y49.709 E20.11053
G1 X60.001 Y49.744 E20.11388
G1 X60.365 Y49.627 E20.12851
G1 X61.038 Y49.55 E20.15443
G1 X67.372 Y49.55 E20.39683
G1 X67.858 Y49.59 E20.4155
G1 X68.331 Y49.709 E20.43416
G1 X68.778 Y49.903 E20.45281
G1 X69.187 Y50.168 E20.47146
G1 X69.476 Y50.421 E20.48616
G1 X69.579 Y50.524 E20.49173
G1 X69.894 Y50.896 E20.51039
G1 X70.144 Y51.314 E20.52903
G1 X70.323 Y51.768 E20.5477
G1 X70.425 Y52.244 E20.56633
G1 X70.45 Y52.628 E20.58106
G1 X70.45 Y67.372 E21.14531
G1 X70.41 Y67.858 E21.16398
G1 X70.291 Y68.331 E21.18264
G1 X70.097 Y68.778 E21.20129
G1 X69.832 Y69.187 E21.21994
G1 X69.579 Y69.476 E21.23464
G1 X69.476 Y69.579 E21.24021
G1 X69.104 Y69.894 E21.25887
G1 X68.686 Y70.144 E21.27751
G1 X68.232 Y70.323 E21.29618
G1 X67.756 Y70.425 E21.31481
G1 X67.372 Y70.45 E21.32954
G1 X52.628 Y70.45 E21.89379
G1 X52.142 Y70.41 E21.91246
G1 X51.669 Y70.291 E21.93112
G1 X51.222 Y70.097 E21.94977
G1 X50.813 Y69.832 E21.96842
G1 X50.524 Y69.579 E21.98312
G1 X50.421 Y69.476 E21.98869
G1 X50.106 Y69.104 E22.00735
G1 X49.856 Y68.686 E22.02599
G1 X49.677 Y68.232 E22.04467
G1 X49.575 Y67.756 E22.0633
G1 X49.55 Y67.372 E22.07802
G1 X49.55 Y52.628 E22.64227
G1 X49.59 Y52.142 E22.66094
G1 X49.709 Y51.669 E22.6796
G1 X49.903 Y51.222 E22.69825
G1 X50 Y51.073 E22.70505
G0 F972 X50.168 Y50.813
G0 X50.421 Y50.524
G0 F4320 X50.669 Y50.772
G1 F2400 E22.73161
G1 F1080 X50.772 Y50.669 E22.73719
G1 X51.123 Y50.375 E22.75471
G1 X51.519 Y50.146 E22.77222
G1 X51.949 Y49.989 E22.78974
G1 X52.628 Y49.9 E22.81594
G1 X58.962 Y49.9 E23.05834
G1 X59.418 Y49.94 E23.07586
G1 X59.86 Y50.058 E23.09337
G1 X60.001 Y50.124 E23.09933
G1 X60.164 Y50.05 E23.10618
G1 X60.608 Y49.936 E23.12372
G1 X61.038 Y49.9 E23.14024
G1 X67.372 Y49.9 E23.38264
G1 X67.828 Y49.94 E23.40016
G1 X68.27 Y50.058 E23.41766
G1 X68.685 Y50.252 E23.4352
G1 X69.228 Y50.669 E23.4614
G1 X69.331 Y50.772 E23.46697
G1 X69.625 Y51.123 E23.48449
G1 X69.854 Y51.519 E23.502
G1 X70.011 Y51.949 E23.51952
G1 X70.1 Y52.628 E23.54573
G1 X70.1 Y67.372 E24.10998
G1 X70.06 Y67.828 E24.1275
G1 X69.942 Y68.27 E24.145
G1 X69.748 Y68.685 E24.16254
G1 X69.331 Y69.228 E24.18874
G1 X69.228 Y69.331 E24.19431
G1 X68.877 Y69.625 E24.21183
G1 X68.481 Y69.854 E24.22934
G1 X68.051 Y70.011 E24.24686
G1 X67.372 Y70.1 E24.27307
G1 X52.628 Y70.1 E24.83732
G1 X52.172 Y70.06 E24.85484
G1 X51.73 Y69.942 E24.87234
G1 X51.315 Y69.748 E24.88988
G1 X50.772 Y69.331 E24.91608
G1 X50.669 Y69.228 E24.92165
G1 X50.375 Y68.877 E24.93917
G1 X50.146 Y68.481 E24.95668
G1 X49.989 Y68.051 E24.9742
G1 X49.9 Y67.372 E25.00041
G1 X49.9 Y52.628 E25.56466
G1 X49.94 Y52.172 E25.58218
G1 X50.058 Y51.73 E25.59968
G1 X50.248 Y51.324 E25.61684
G0 F972 X50.252 Y51.315
G0 X50.669 Y50.772
G0 F4320 X50.916 Y51.019
G1 F2400 E25.6434
G1 F1080 X51.019 Y50.916 E25.64897
G1 X51.348 Y50.645 E25.66529
G1 X51.721 Y50.439 E25.68159
G1 X52.126 Y50.306 E25.69791
G1 X52.628 Y50.25 E25.71724
G1 X58.962 Y50.25 E25.95964
G1 X59.386 Y50.29 E25.97594
G1 X59.796 Y50.408 E25.99227
G1 X59.993 Y50.508 E26.00072
G1 X60.024 Y50.489 E26.00211
G1 X60.421 Y50.335 E26.01841
G1 X61.038 Y50.25 E26.04224
G1 X67.372 Y50.25 E26.28465
G1 X67.796 Y50.29 E26.30094
G1 X68.206 Y50.408 E26.31727
G1 X68.586 Y50.601 E26.33358
G1 X68.981 Y50.916 E26.35292
G1 X69.084 Y51.019 E26.35849
G1 X69.355 Y51.348 E26.3748
G1 X69.561 Y51.721 E26.39111
G1 X69.694 Y52.126 E26.40742
G1 X69.75 Y52.628 E26.42675
G1 X69.75 Y67.372 E26.99101
G1 X69.71 Y67.796 E27.00731
G1 X69.592 Y68.206 E27.02363
G1 X69.399 Y68.586 E27.03994
G1 X69.084 Y68.981 E27.05928
G1 X68.981 Y69.084 E27.06485
G1 X68.652 Y69.355 E27.08117
G1 X68.279 Y69.561 E27.09747
G1 X67.874 Y69.694 E27.11379
G1 X67.372 Y69.75 E27.13312
G1 X52.628 Y69.75 E27.69737
G1 X52.204 Y69.71 E27.71367
G1 X51.794 Y69.592 E27.72999
G1 X51.414 Y69.399 E27.74631
G1 X51.019 Y69.084 E27.76564
G1 X50.916 Y68.981 E27.77122
G1 X50.645 Y68.652 E27.78753
G1 X50.439 Y68.279 E27.80383
G1 X50.306 Y67.874 E27.82015
G1 X50.25 Y67.372 E27.83948
G1 X50.25 Y52.628 E28.40373
G1 X50.29 Y52.204 E28.42003
G1 X50.408 Y51.794 E28.43636
G1 X50.516 Y51.582 E28.44546
G0 F972 X50.601 Y51.414
G0 X50.916 Y51.019
G0 F4320 X51.164 Y51.267
G1 F2400 E28.47202
G1 F1080 X51.267 Y51.164 E28.4776
G1 X51.571 Y50.916 E28.49261
G1 X51.918 Y50.736 E28.50757
G1 X52.296 Y50.629 E28.5226
G1 X52.628 Y50.6 E28.53536
G1 X58.962 Y50.6 E28.77776
G1 X59.352 Y50.64 E28.79276
G1 X59.726 Y50.758 E28.80777
G1 X59.999 Y50.91 E28.81973
G1 X60.294 Y50.75 E28.83257
G1 X60.669 Y50.636 E28.84757
G1 X61.038 Y50.6 E28.86176
G1 X67.372 Y50.6 E29.10416
G1 X67.762 Y50.64 E29.11917
G1 X68.136 Y50.758 E29.13418
G1 X68.478 Y50.949 E29.14917
G1 X68.733 Y51.164 E29.16193
G1 X68.836 Y51.267 E29.16751
G1 X69.084 Y51.571 E29.18252
