;FLAVOR:Marlin
;TIME:928
;Filament used: 0.594083m
;Layer height: 0.2625
;MINX:43.65
;MINY:46.308
;MINZ:0.263
;MAXX:76.342
;MAXY:73.692
;MAXZ:19.988
;Generated with Cura_SteamEngine 4.2.1
M140 S65
M105
M190 S65
M104 S190
M105
M109 S190
M82 ;absolute extrusion mode
G21;(metric values)
G90;(absolute positioning)
M82;(set extruder to absolute mode)
M107;(start with the fan off)
G28;(Home the printer)
G92 E0;(Reset the extruder to 0)
G0 Z5 E5 F500;(Move up and prime the nozzle)
G0 X-1 Z0;(Move outside the printable area)
G1 Y60 E8 F500;(Draw a priming/wiping line to the rear)
G1 X-1;(Move a little closer to the print area)
G1 Y10 E16 F500;(draw more priming/wiping)
G1 E15 F250;(Small retract)
G92 E0;(Zero the extruder)
M141 S28
G92 E0
G92 E0
G1 F2400 E-2.5
;LAYER_COUNT:76
;LAYER:0
M107
G0 F4320 X45.239 Y50.078 Z0.263
;TYPE:SKIRT
G1 F2400 E0
G1 F1080 X45.717 Y49.657 E0.02438
G1 X46.244 Y49.299 E0.04876
G1 X46.811 Y49.01 E0.07311
G1 X47.41 Y48.794 E0.09748
G1 X48.032 Y48.655 E0.12187
G1 X48.828 Y48.592 E0.15243
G1 X53.575 Y48.592 E0.3341
G1 X53.814 Y48.352 E0.34706
G1 X54.217 Y47.992 E0.36774
G1 X54.718 Y47.599 E0.39211
G1 X55.219 Y47.294 E0.41456
G1 X55.707 Y47.035 E0.4357
G1 X56.287 Y46.773 E0.46006
G1 X56.851 Y46.596 E0.48268
G1 X57.377 Y46.464 E0.50343
G1 X58.003 Y46.348 E0.5278
G1 X58.584 Y46.311 E0.55008
G1 X59.137 Y46.308 E0.57124
G1 X59.773 Y46.345 E0.59562
G1 X60.361 Y46.451 E0.61849
G1 X60.889 Y46.579 E0.63928
G1 X61.497 Y46.767 E0.66363
G1 X62.025 Y47.003 E0.68577
G1 X62.516 Y47.257 E0.70692
G1 X63.062 Y47.585 E0.7313
G1 X63.532 Y47.951 E0.7541
G1 X63.942 Y48.311 E0.77498
G1 X64.235 Y48.603 E0.79081
G1 X65.932 Y48.635 E0.85576
G1 X66.506 Y48.679 E0.87779
G1 X68.23 Y48.909 E0.94436
G1 X68.98 Y49.067 E0.97369
G1 X70.259 Y49.44 E1.02467
G1 X71.057 Y49.748 E1.05741
G1 X71.824 Y50.121 E1.09005
G1 X72.596 Y50.585 E1.12452
G1 X73.191 Y51.019 E1.1527
G1 X73.681 Y51.426 E1.17708
G1 X73.951 Y51.7 E1.1918
G1 X74.404 Y52.197 E1.21754
G1 X74.802 Y52.694 E1.24191
G1 X75.065 Y53.108 E1.26068
G1 X75.414 Y53.722 E1.2877
G1 X75.693 Y54.294 E1.31206
G1 X75.874 Y54.808 E1.33292
G1 X76.088 Y55.541 E1.36214
G1 X76.227 Y56.162 E1.38649
G1 X76.284 Y56.688 E1.40674
G1 X76.342 Y57.758 E1.44775
G1 X76.336 Y58.395 E1.47213
G1 X76.281 Y58.861 E1.49009
G1 X76.006 Y60.524 E1.55459
G1 X75.798 Y61.347 E1.58708
G1 X74.946 Y63.823 E1.68729
G1 X74.701 Y64.412 E1.7117
G1 X73.551 Y66.75 E1.81141
G1 X73.185 Y67.377 E1.8392
G1 X71.955 Y69.174 E1.92254
G1 X71.455 Y69.793 E1.95299
G1 X70.54 Y70.761 E2.00397
G1 X69.997 Y71.258 E2.03214
G1 X69.26 Y71.84 E2.06807
G1 X68.579 Y72.294 E2.0994
G1 X67.81 Y72.721 E2.13306
G1 X67.235 Y72.995 E2.15744
G1 X66.915 Y73.11 E2.17045
G1 X66.115 Y73.37 E2.20264
G1 X65.498 Y73.529 E2.22702
G1 X64.985 Y73.6 E2.24684
G1 X64.144 Y73.673 E2.27915
G1 X63.705 Y73.692 E2.29597
G1 X48.828 Y73.692 E2.86531
G1 X48.192 Y73.652 E2.8897
G1 X47.567 Y73.533 E2.91404
G1 X46.961 Y73.336 E2.93843
G1 X46.385 Y73.065 E2.96279
G1 X45.847 Y72.724 E2.98717
G1 X45.239 Y72.206 E3.01774
G1 X45.136 Y72.103 E3.02331
G1 X44.715 Y71.625 E3.04769
G1 X44.357 Y71.098 E3.07207
G1 X44.068 Y70.531 E3.09642
G1 X43.852 Y69.932 E3.12079
G1 X43.713 Y69.31 E3.14518
G1 X43.65 Y68.514 E3.17574
G1 X43.65 Y53.77 E3.73999
G1 X43.69 Y53.134 E3.76438
G1 X43.809 Y52.509 E3.78873
G1 X44.006 Y51.903 E3.81312
G1 X44.277 Y51.327 E3.83748
G1 X44.618 Y50.789 E3.86186
G1 X44.78 Y50.599 E3.87141
G0 F972 X45.136 Y50.181
G0 X45.239 Y50.078
G0 F4320 X45.487 Y50.326
G1 F2400 E3.89797
G1 F1080 X45.949 Y49.921 E3.92148
G1 X46.459 Y49.579 E3.94498
G1 X47.01 Y49.306 E3.96852
G1 X47.591 Y49.107 E3.99202
G1 X48.194 Y48.985 E4.01556
G1 X48.828 Y48.942 E4.03988
G1 X53.719 Y48.942 E4.22706
G1 X54.047 Y48.613 E4.24484
G1 X54.45 Y48.253 E4.26552
G1 X54.934 Y47.875 E4.28902
G1 X55.383 Y47.603 E4.30911
G1 X55.871 Y47.344 E4.33025
G1 X56.431 Y47.092 E4.35376
G1 X56.936 Y46.935 E4.37399
G1 X57.462 Y46.803 E4.39475
G1 X58.066 Y46.693 E4.41824
G1 X58.586 Y46.661 E4.43818
G1 X59.139 Y46.658 E4.45935
G1 X59.753 Y46.695 E4.48289
G1 X60.278 Y46.791 E4.50331
G1 X60.806 Y46.919 E4.5241
G1 X61.393 Y47.102 E4.54763
G1 X61.864 Y47.314 E4.5674
G1 X62.355 Y47.568 E4.58856
G1 X62.881 Y47.886 E4.61208
G1 X63.302 Y48.214 E4.6325
G1 X63.712 Y48.574 E4.65338
G1 X64.087 Y48.95 E4.67371
G1 X65.925 Y48.985 E4.74406
G1 X66.46 Y49.025 E4.76459
G1 X68.184 Y49.255 E4.83115
G1 X68.882 Y49.403 E4.85846
G1 X70.161 Y49.776 E4.90945
G1 X70.904 Y50.063 E4.93993
G1 X71.671 Y50.436 E4.97257
G1 X72.389 Y50.868 E5.00464
G1 X72.984 Y51.302 E5.03282
G1 X73.456 Y51.695 E5.05633
G1 X73.692 Y51.936 E5.06923
G1 X74.145 Y52.433 E5.09497
G1 X74.529 Y52.913 E5.11849
G1 X74.761 Y53.281 E5.13514
G1 X75.11 Y53.895 E5.16217
G1 X75.378 Y54.448 E5.18569
G1 X75.538 Y54.906 E5.20426
G1 X75.752 Y55.639 E5.23348
G1 X75.885 Y56.239 E5.257
G1 X75.934 Y56.707 E5.27501
G1 X75.992 Y57.777 E5.31601
G1 X75.985 Y58.392 E5.33955
G1 X75.936 Y58.804 E5.35543
G1 X75.661 Y60.467 E5.41994
G1 X75.467 Y61.233 E5.45018
G1 X74.615 Y63.709 E5.55039
G1 X74.387 Y64.257 E5.5731
G1 X73.237 Y66.595 E5.67282
G1 X72.896 Y67.179 E5.6987
G1 X71.666 Y68.976 E5.78203
G1 X71.201 Y69.553 E5.81039
G1 X70.286 Y70.521 E5.86137
G1 X69.78 Y70.983 E5.88759
G1 X69.043 Y71.565 E5.92353
G1 X68.409 Y71.988 E5.9527
G1 X67.64 Y72.415 E5.98636
G1 X66.806 Y72.778 E6.02117
G1 X66.006 Y73.038 E6.05336
G1 X65.411 Y73.189 E6.07685
G1 X64.955 Y73.251 E6.09447
G1 X64.114 Y73.324 E6.12677
G1 X63.705 Y73.342 E6.14244
G1 X48.828 Y73.342 E6.71178
G1 X48.215 Y73.302 E6.73529
G1 X47.612 Y73.183 E6.75881
G1 X47.03 Y72.986 E6.78233
G1 X46.478 Y72.716 E6.80584
G1 X45.966 Y72.376 E6.82937
G1 X45.487 Y71.958 E6.8537
G1 X45.384 Y71.855 E6.85927
G1 X44.979 Y71.393 E6.88278
G1 X44.637 Y70.883 E6.90628
G1 X44.364 Y70.332 E6.92982
G1 X44.165 Y69.751 E6.95332
G1 X44.043 Y69.148 E6.97686
G1 X44 Y68.514 E7.00118
G1 X44 Y53.77 E7.56543
G1 X44.04 Y53.157 E7.58894
G1 X44.159 Y52.554 E7.61246
G1 X44.356 Y51.972 E7.63598
G1 X44.626 Y51.42 E7.6595
G1 X44.966 Y50.908 E7.68302
G1 X45.023 Y50.843 E7.68633
G0 F972 X45.384 Y50.429
G0 X45.487 Y50.326
G0 F4320 X45.734 Y50.573
G1 F2400 E7.71288
G1 F1080 X46.18 Y50.185 E7.73551
G1 X46.674 Y49.859 E7.75816
G1 X47.207 Y49.604 E7.78077
G1 X47.769 Y49.422 E7.80338
G1 X48.351 Y49.318 E7.826
G1 X48.828 Y49.292 E7.84429
G1 X53.88 Y49.292 E8.03763
G1 X53.946 Y49.208 E8.04171
G1 X54.28 Y48.874 E8.05979
G1 X54.683 Y48.514 E8.08047
G1 X55.15 Y48.151 E8.10311
G1 X55.547 Y47.913 E8.12082
G1 X56.035 Y47.654 E8.14196
G1 X56.575 Y47.412 E8.16461
G1 X57.021 Y47.275 E8.18247
G1 X57.547 Y47.143 E8.20322
G1 X58.129 Y47.038 E8.22585
G1 X58.588 Y47.011 E8.24345
G1 X59.141 Y47.008 E8.26461
G1 X59.731 Y47.045 E8.28724
G1 X60.196 Y47.131 E8.30533
G1 X60.724 Y47.259 E8.32613
G1 X61.288 Y47.437 E8.34876
G1 X61.703 Y47.625 E8.3662
G1 X62.194 Y47.879 E8.38735
G1 X62.7 Y48.186 E8.41
G1 X63.071 Y48.477 E8.42805
G1 X63.481 Y48.837 E8.44893
G1 X63.898 Y49.257 E8.47158
G1 X63.929 Y49.297 E8.47351
G1 X65.918 Y49.335 E8.54965
G1 X66.414 Y49.372 E8.56868
G1 X68.138 Y49.602 E8.63524
G1 X68.784 Y49.739 E8.66051
G1 X70.063 Y50.112 E8.7115
G1 X70.751 Y50.378 E8.73973
G1 X71.518 Y50.751 E8.77237
G1 X72.183 Y51.15 E8.80205
G1 X72.778 Y51.584 E8.83023
G1 X73.433 Y52.172 E8.86392
G1 X73.886 Y52.669 E8.88965
G1 X74.254 Y53.132 E8.91229
G1 X74.457 Y53.454 E8.92686
G1 X74.806 Y54.068 E8.95388
G1 X75.062 Y54.601 E8.97651
G1 X75.202 Y55.004 E8.99284
G1 X75.416 Y55.737 E9.02206
G1 X75.543 Y56.314 E9.04467
G1 X75.585 Y56.726 E9.06052
G1 X75.643 Y57.796 E9.10153
G1 X75.635 Y58.387 E9.12415
G1 X75.59 Y58.747 E9.13804
G1 X75.315 Y60.41 E9.20254
G1 X75.136 Y61.12 E9.23056
G1 X74.284 Y63.596 E9.33077
G1 X74.073 Y64.103 E9.35179
G1 X72.923 Y66.441 E9.4515
G1 X72.607 Y66.981 E9.47545
G1 X71.377 Y68.778 E9.55879
G1 X70.946 Y69.312 E9.58505
G1 X70.031 Y70.28 E9.63602
G1 X69.563 Y70.709 E9.66032
G1 X68.826 Y71.291 E9.69626
G1 X68.239 Y71.682 E9.72325
G1 X67.47 Y72.109 E9.75691
G1 X66.698 Y72.445 E9.78913
G1 X65.898 Y72.705 E9.82133
G1 X65.325 Y72.849 E9.84394
G1 X64.924 Y72.903 E9.85942
G1 X64.083 Y72.976 E9.89173
G1 X63.705 Y72.992 E9.90621
G1 X48.828 Y72.992 E10.47555
G1 X48.238 Y72.952 E10.49818
G1 X47.659 Y72.833 E10.5208
G1 X47.101 Y72.637 E10.54344
G1 X46.575 Y72.367 E10.56606
G1 X46.09 Y72.029 E10.58869
G1 X45.734 Y71.711 E10.60695
G1 X45.631 Y71.608 E10.61253
G1 X45.243 Y71.162 E10.63515
G1 X44.917 Y70.668 E10.6578
G1 X44.662 Y70.135 E10.68041
G1 X44.48 Y69.573 E10.70302
G1 X44.376 Y68.991 E10.72565
G1 X44.35 Y68.514 E10.74393
G1 X44.35 Y53.77 E11.30818
G1 X44.39 Y53.18 E11.33081
G1 X44.509 Y52.601 E11.35343
G1 X44.705 Y52.043 E11.37607
G1 X44.975 Y51.517 E11.3987
G1 X45.272 Y51.091 E11.41857
G0 F972 X45.313 Y51.032
G0 X45.631 Y50.676
G0 X45.734 Y50.573
G0 F4320 X45.982 Y50.821
G1 F2400 E11.44513
G1 F1080 X46.41 Y50.449 E11.46683
G1 X46.886 Y50.141 E11.48853
G1 X47.401 Y49.903 E11.51024
G1 X47.944 Y49.74 E11.53194
G1 X48.505 Y49.655 E11.55365
G1 X48.828 Y49.642 E11.56602
G1 X54.049 Y49.642 E11.76583
G1 X54.221 Y49.425 E11.77643
G1 X54.514 Y49.135 E11.7922
G1 X54.917 Y48.775 E11.81288
G1 X55.365 Y48.428 E11.83457
G1 X55.711 Y48.222 E11.84998
G1 X56.199 Y47.963 E11.87112
G1 X56.717 Y47.733 E11.89281
G1 X57.106 Y47.614 E11.90838
G1 X57.632 Y47.482 E11.92914
G1 X58.191 Y47.383 E11.95086
G1 X58.59 Y47.361 E11.96615
G1 X59.143 Y47.358 E11.98732
G1 X59.709 Y47.395 E12.00902
G1 X60.113 Y47.471 E12.02476
G1 X60.641 Y47.599 E12.04555
G1 X61.182 Y47.771 E12.06727
G1 X61.542 Y47.936 E12.08243
G1 X62.033 Y48.19 E12.10359
G1 X62.517 Y48.485 E12.12528
G1 X62.84 Y48.74 E12.14103
G1 X63.25 Y49.1 E12.16191
G1 X63.648 Y49.504 E12.18361
G1 X63.757 Y49.644 E12.1904
G1 X65.912 Y49.685 E12.27289
G1 X66.367 Y49.719 E12.29035
G1 X68.091 Y49.949 E12.35691
G1 X68.686 Y50.075 E12.38019
G1 X69.965 Y50.448 E12.43117
G1 X70.598 Y50.692 E12.45714
G1 X71.365 Y51.065 E12.48978
G1 X71.977 Y51.433 E12.5171
G1 X72.572 Y51.867 E12.54529
G1 X73.175 Y52.408 E12.57629
G1 X73.628 Y52.905 E12.60203
G1 X73.979 Y53.35 E12.62372
G1 X74.152 Y53.627 E12.63622
G1 X74.501 Y54.241 E12.66324
G1 X74.746 Y54.753 E12.68497
G1 X74.866 Y55.102 E12.69909
G1 X75.08 Y55.835 E12.72831
G1 X75.2 Y56.389 E12.75001
G1 X75.235 Y56.745 E12.7637
G1 X75.293 Y57.815 E12.80471
G1 X75.284 Y58.382 E12.82641
G1 X75.245 Y58.69 E12.83829
G1 X74.97 Y60.353 E12.9028
G1 X74.805 Y61.006 E12.92857
G1 X73.953 Y63.482 E13.02878
G1 X73.759 Y63.949 E13.04813
G1 X72.609 Y66.287 E13.14785
G1 X72.318 Y66.783 E13.16985
G1 X71.088 Y68.58 E13.25319
G1 X70.692 Y69.072 E13.27736
G1 X69.777 Y70.04 E13.32834
G1 X69.346 Y70.434 E13.35069
G1 X68.609 Y71.016 E13.38662
G1 X68.069 Y71.376 E13.41146
G1 X67.3 Y71.803 E13.44512
G1 X66.59 Y72.112 E13.47476
G1 X65.79 Y72.372 E13.50695
G1 X65.24 Y72.509 E13.52864
G1 X64.894 Y72.554 E13.54199
G1 X64.053 Y72.627 E13.5743
G1 X63.705 Y72.642 E13.58763
G1 X48.828 Y72.642 E14.15697
G1 X48.262 Y72.602 E14.17869
G1 X47.708 Y72.483 E14.20037
G1 X47.176 Y72.287 E14.22207
G1 X46.676 Y72.019 E14.24378
G1 X46.22 Y71.682 E14.26548
G1 X45.982 Y71.463 E14.27786
G1 X45.879 Y71.36 E14.28343
G1 X45.507 Y70.932 E14.30513
G1 X45.199 Y70.456 E14.32683
G1 X44.961 Y69.941 E14.34854
G1 X44.798 Y69.398 E14.37024
G1 X44.713 Y68.837 E14.39195
G1 X44.7 Y68.514 E14.40433
G1 X44.7 Y53.77 E14.96858
G1 X44.74 Y53.204 E14.99029
G1 X44.859 Y52.65 E15.01198
G1 X45.055 Y52.118 E15.03367
G1 X45.323 Y51.618 E15.05539
G1 X45.526 Y51.343 E15.06847
G0 F972 X45.66 Y51.162
G0 X45.879 Y50.924
G0 X45.982 Y50.821
G0 F4320 X46.229 Y51.068
G1 F2400 E15.09503
G1 F1080 X46.64 Y50.715 E15.11576
G1 X47.098 Y50.425 E15.13651
G1 X47.593 Y50.206 E15.15722
G1 X48.116 Y50.062 E15.17798
G1 X48.828 Y49.992 E15.20536
G1 X54.219 Y49.992 E15.41167
G1 X54.496 Y49.643 E15.42873
G1 X54.747 Y49.396 E15.4422
G1 X55.15 Y49.036 E15.46288
G1 X55.579 Y48.706 E15.4836
G1 X55.875 Y48.531 E15.49675
G1 X56.363 Y48.272 E15.5179
G1 X56.859 Y48.054 E15.53863
G1 X57.191 Y47.954 E15.5519
G1 X57.717 Y47.822 E15.57266
G1 X58.251 Y47.729 E15.5934
G1 X58.592 Y47.711 E15.60647
G1 X59.145 Y47.708 E15.62763
G1 X59.686 Y47.745 E15.64838
G1 X60.031 Y47.811 E15.66183
G1 X60.559 Y47.939 E15.68262
G1 X61.075 Y48.106 E15.70337
G1 X61.382 Y48.247 E15.7163
G1 X61.873 Y48.501 E15.73746
G1 X62.334 Y48.785 E15.75818
G1 X62.609 Y49.003 E15.77161
G1 X63.019 Y49.363 E15.79249
G1 X63.398 Y49.75 E15.81322
G1 X63.584 Y49.992 E15.8249
G1 X63.633 Y49.992 E15.82678
G1 X63.703 Y49.993 E15.82946
G1 X65.905 Y50.035 E15.91374
G1 X66.321 Y50.066 E15.92971
G1 X68.045 Y50.296 E15.99627
G1 X68.588 Y50.411 E16.01751
G1 X69.867 Y50.784 E16.0685
G1 X70.445 Y51.007 E16.09221
G1 X71.212 Y51.38 E16.12485
G1 X71.771 Y51.716 E16.14981
G1 X72.366 Y52.15 E16.17799
G1 X72.916 Y52.643 E16.20626
G1 X73.369 Y53.14 E16.23199
G1 X73.704 Y53.567 E16.25276
G1 X73.848 Y53.8 E16.26324
G1 X74.197 Y54.414 E16.29027
G1 X74.429 Y54.904 E16.31102
G1 X74.53 Y55.2 E16.32299
G1 X74.744 Y55.933 E16.35221
G1 X74.857 Y56.463 E16.37295
G1 X74.886 Y56.764 E16.38452
G1 X74.944 Y57.834 E16.42553
G1 X74.9 Y58.633 E16.45616
G1 X74.625 Y60.296 E16.52066
G1 X74.474 Y60.892 E16.54419
G1 X73.622 Y63.368 E16.6444
G1 X73.445 Y63.794 E16.66206
G1 X72.295 Y66.132 E16.76177
G1 X72.03 Y66.586 E16.78189
G1 X70.8 Y68.383 E16.86523
G1 X70.438 Y68.831 E16.88727
G1 X69.523 Y69.799 E16.93825
G1 X69.13 Y70.159 E16.95864
G1 X68.393 Y70.741 E16.99458
G1 X67.899 Y71.07 E17.0173
G1 X67.13 Y71.497 E17.05096
G1 X66.482 Y71.779 E17.078
G1 X65.682 Y72.039 E17.11019
G1 X65.156 Y72.168 E17.13092
G1 X64.864 Y72.205 E17.14219
G1 X64.023 Y72.278 E17.17449
G1 X63.705 Y72.292 E17.18667
G1 X48.828 Y72.292 E17.75602
G1 X48.288 Y72.252 E17.77674
G1 X47.759 Y72.133 E17.79749
G1 X47.254 Y71.938 E17.81821
G1 X46.782 Y71.67 E17.83898
G1 X46.229 Y71.216 E17.86636
G1 X46.126 Y71.113 E17.87193
G1 X45.773 Y70.702 E17.89267
G1 X45.483 Y70.244 E17.91341
G1 X45.264 Y69.749 E17.93413
G1 X45.12 Y69.226 E17.95489
G1 X45.05 Y68.514 E17.98227
G1 X45.05 Y53.77 E18.54652
G1 X45.09 Y53.23 E18.56724
G1 X45.209 Y52.701 E18.58799
G1 X45.404 Y52.196 E18.60871
G1 X45.672 Y51.724 E18.62948
G1 X45.778 Y51.595 E18.63587
G0 F972 X46.126 Y51.171
G0 X46.229 Y51.068
G0 F4320 X46.477 Y51.316
G1 F2400 E18.66243
G1 F1080 X46.868 Y50.981 E18.68214
G1 X47.307 Y50.71 E18.70188
G1 X47.782 Y50.511 E18.72159
G1 X48.283 Y50.387 E18.74134
G1 X48.828 Y50.342 E18.76227
G1 X54.395 Y50.342 E18.97532
G1 X54.448 Y50.264 E18.97893
G1 X54.77 Y49.862 E18.99864
G1 X54.98 Y49.657 E19.00987
G1 X55.383 Y49.297 E19.03055
G1 X55.793 Y48.985 E19.05027
G1 X56.039 Y48.84 E19.06119
G1 X56.527 Y48.581 E19.08234
G1 X57 Y48.375 E19.10208
G1 X57.277 Y48.293 E19.11314
G1 X57.803 Y48.161 E19.13389
G1 X58.311 Y48.075 E19.15361
G1 X58.594 Y48.061 E19.16445
G1 X59.147 Y48.058 E19.18562
G1 X59.661 Y48.095 E19.20534
G1 X59.948 Y48.152 E19.21654
G1 X60.476 Y48.28 E19.23733
G1 X60.966 Y48.439 E19.25704
G1 X61.221 Y48.558 E19.26781
G1 X61.712 Y48.812 E19.28897
G1 X62.15 Y49.083 E19.30868
G1 X62.378 Y49.266 E19.31987
G1 X62.788 Y49.626 E19.34075
G1 X63.148 Y49.995 E19.36048
G1 X63.326 Y50.229 E19.37173
G1 X63.404 Y50.342 E19.37698
G1 X63.633 Y50.342 E19.38575
G1 X63.696 Y50.343 E19.38816
G1 X65.898 Y50.385 E19.47244
G1 X66.275 Y50.413 E19.48691
G1 X67.999 Y50.643 E19.55347
G1 X68.49 Y50.747 E19.57268
G1 X69.769 Y51.12 E19.62367
G1 X70.292 Y51.322 E19.64512
G1 X71.059 Y51.695 E19.67776
G1 X71.564 Y51.999 E19.70032
G1 X72.159 Y52.433 E19.72851
G1 X72.657 Y52.879 E19.75409
G1 X73.11 Y53.376 E19.77983
G1 X73.544 Y53.973 E19.80807
G1 X73.893 Y54.587 E19.8351
G1 X74.112 Y55.053 E19.85481
G1 X74.194 Y55.298 E19.86469
G1 X74.408 Y56.031 E19.89392
G1 X74.536 Y56.783 E19.92311
G1 X74.594 Y57.853 E19.96412
G1 X74.554 Y58.575 E19.99179
G1 X74.279 Y60.238 E20.0563
G1 X74.143 Y60.778 E20.07761
G1 X73.291 Y63.254 E20.17782
G1 X73.131 Y63.64 E20.19381
G1 X71.981 Y65.978 E20.29352
G1 X71.741 Y66.388 E20.3117
G1 X70.511 Y68.185 E20.39504
G1 X70.183 Y68.591 E20.41502
G1 X69.268 Y69.559 E20.46599
G1 X68.913 Y69.884 E20.48441
G1 X68.176 Y70.466 E20.52035
G1 X67.729 Y70.764 E20.54091
G1 X66.96 Y71.191 E20.57457
G1 X66.374 Y71.446 E20.59903
